com.unity.render-pipelines.high-definition/Samples~/PostProcessingData/Cube LUTs/Linear to Unity Log r1.cube
TITLE "Linear to Unity Log r1"
LUT_3D_SIZE 33
DOMAIN_MIN 0 0 0
DOMAIN_MAX 1 1 1
0.092819 0.092819 0.092819
0.2262531 0.092819 0.092819
0.2875993 0.092819 0.092819
0.3262122 0.092819 0.092819
0.3544566 0.092819 0.092819
0.3767383 0.092819 0.092819
0.3951413 0.092819 0.092819
0.4108177 0.092819 0.092819
0.4244723 0.092819 0.092819
0.4365675 0.092819 0.092819
0.4474232 0.092819 0.092819
0.45727 0.092819 0.092819
0.4662797 0.092819 0.092819
0.4745834 0.092819 0.092819
0.4822838 0.092819 0.092819
0.4894626 0.092819 0.092819
0.4961862 0.092819 0.092819
0.5025087 0.092819 0.092819
0.5084753 0.092819 0.092819
0.514124 0.092819 0.092819
0.519487 0.092819 0.092819
0.5245917 0.092819 0.092819
0.529462 0.092819 0.092819
0.5341183 0.092819 0.092819
0.5385787 0.092819 0.092819
0.5428591 0.092819 0.092819
0.5469733 0.092819 0.092819
0.5509339 0.092819 0.092819
0.5547519 0.092819 0.092819
0.5584371 0.092819 0.092819
0.5619986 0.092819 0.092819
0.5654443 0.092819 0.092819
0.5687816 0.092819 0.092819
0.092819 0.2262531 0.092819
0.2262531 0.2262531 0.092819
0.2875993 0.2262531 0.092819
0.3262122 0.2262531 0.092819
0.3544566 0.2262531 0.092819
0.3767383 0.2262531 0.092819
0.3951413 0.2262531 0.092819
0.4108177 0.2262531 0.092819
0.4244723 0.2262531 0.092819
0.4365675 0.2262531 0.092819
0.4474232 0.2262531 0.092819
0.45727 0.2262531 0.092819
0.4662797 0.2262531 0.092819
0.4745834 0.2262531 0.092819
0.4822838 0.2262531 0.092819
0.4894626 0.2262531 0.092819
0.4961862 0.2262531 0.092819
0.5025087 0.2262531 0.092819
0.5084753 0.2262531 0.092819
0.514124 0.2262531 0.092819
0.519487 0.2262531 0.092819
0.5245917 0.2262531 0.092819
0.529462 0.2262531 0.092819
0.5341183 0.2262531 0.092819
0.5385787 0.2262531 0.092819
0.5428591 0.2262531 0.092819
0.5469733 0.2262531 0.092819
0.5509339 0.2262531 0.092819
0.5547519 0.2262531 0.092819
0.5584371 0.2262531 0.092819
0.5619986 0.2262531 0.092819
0.5654443 0.2262531 0.092819
0.5687816 0.2262531 0.092819
0.092819 0.2875993 0.092819
0.2262531 0.2875993 0.092819
0.2875993 0.2875993 0.092819
0.3262122 0.2875993 0.092819
0.3544566 0.2875993 0.092819
0.3767383 0.2875993 0.092819
0.3951413 0.2875993 0.092819
0.4108177 0.2875993 0.092819
0.4244723 0.2875993 0.092819
0.4365675 0.2875993 0.092819
0.4474232 0.2875993 0.092819
0.45727 0.2875993 0.092819
0.4662797 0.2875993 0.092819
0.4745834 0.2875993 0.092819
0.4822838 0.2875993 0.092819
0.4894626 0.2875993 0.092819
0.4961862 0.2875993 0.092819
0.5025087 0.2875993 0.092819
0.5084753 0.2875993 0.092819
0.514124 0.2875993 0.092819
0.519487 0.2875993 0.092819
0.5245917 0.2875993 0.092819
0.529462 0.2875993 0.092819
0.5341183 0.2875993 0.092819
0.5385787 0.2875993 0.092819
0.5428591 0.2875993 0.092819
0.5469733 0.2875993 0.092819
0.5509339 0.2875993 0.092819
0.5547519 0.2875993 0.092819
0.5584371 0.2875993 0.092819
0.5619986 0.2875993 0.092819
0.5654443 0.2875993 0.092819
0.5687816 0.2875993 0.092819
0.092819 0.3262122 0.092819
0.2262531 0.3262122 0.092819
0.2875993 0.3262122 0.092819
0.3262122 0.3262122 0.092819
0.3544566 0.3262122 0.092819
0.3767383 0.3262122 0.092819
0.3951413 0.3262122 0.092819
0.4108177 0.3262122 0.092819
0.4244723 0.3262122 0.092819
0.4365675 0.3262122 0.092819
0.4474232 0.3262122 0.092819
0.45727 0.3262122 0.092819
0.4662797 0.3262122 0.092819
0.4745834 0.3262122 0.092819
0.4822838 0.3262122 0.092819
0.4894626 0.3262122 0.092819
0.4961862 0.3262122 0.092819
0.5025087 0.3262122 0.092819
0.5084753 0.3262122 0.092819
0.514124 0.3262122 0.092819
0.519487 0.3262122 0.092819
0.5245917 0.3262122 0.092819
0.529462 0.3262122 0.092819
0.5341183 0.3262122 0.092819
0.5385787 0.3262122 0.092819
0.5428591 0.3262122 0.092819
0.5469733 0.3262122 0.092819
0.5509339 0.3262122 0.092819
0.5547519 0.3262122 0.092819
0.5584371 0.3262122 0.092819
0.5619986 0.3262122 0.092819
0.5654443 0.3262122 0.092819
0.5687816 0.3262122 0.092819
0.092819 0.3544566 0.092819
0.2262531 0.3544566 0.092819
0.2875993 0.3544566 0.092819
0.3262122 0.3544566 0.092819
0.3544566 0.3544566 0.092819
0.3767383 0.3544566 0.092819
0.3951413 0.3544566 0.092819
0.4108177 0.3544566 0.092819
0.4244723 0.3544566 0.092819
0.4365675 0.3544566 0.092819
0.4474232 0.3544566 0.092819
0.45727 0.3544566 0.092819
0.4662797 0.3544566 0.092819
0.4745834 0.3544566 0.092819
0.4822838 0.3544566 0.092819
0.4894626 0.3544566 0.092819
0.4961862 0.3544566 0.092819
0.5025087 0.3544566 0.092819
0.5084753 0.3544566 0.092819
0.514124 0.3544566 0.092819
0.519487 0.3544566 0.092819
0.5245917 0.3544566 0.092819
0.529462 0.3544566 0.092819
0.5341183 0.3544566 0.092819
0.5385787 0.3544566 0.092819
0.5428591 0.3544566 0.092819
0.5469733 0.3544566 0.092819
0.5509339 0.3544566 0.092819
0.5547519 0.3544566 0.092819
0.5584371 0.3544566 0.092819
0.5619986 0.3544566 0.092819
0.5654443 0.3544566 0.092819
0.5687816 0.3544566 0.092819
0.092819 0.3767383 0.092819
0.2262531 0.3767383 0.092819
0.2875993 0.3767383 0.092819
0.3262122 0.3767383 0.092819
0.3544566 0.3767383 0.092819
0.3767383 0.3767383 0.092819
0.3951413 0.3767383 0.092819
0.4108177 0.3767383 0.092819
0.4244723 0.3767383 0.092819
0.4365675 0.3767383 0.092819
0.4474232 0.3767383 0.092819
0.45727 0.3767383 0.092819
0.4662797 0.3767383 0.092819
0.4745834 0.3767383 0.092819
0.4822838 0.3767383 0.092819
0.4894626 0.3767383 0.092819
0.4961862 0.3767383 0.092819
0.5025087 0.3767383 0.092819
0.5084753 0.3767383 0.092819
0.514124 0.3767383 0.092819
0.519487 0.3767383 0.092819
0.5245917 0.3767383 0.092819
0.529462 0.3767383 0.092819
0.5341183 0.3767383 0.092819
0.5385787 0.3767383 0.092819
0.5428591 0.3767383 0.092819
0.5469733 0.3767383 0.092819
0.5509339 0.3767383 0.092819
0.5547519 0.3767383 0.092819
0.5584371 0.3767383 0.092819
0.5619986 0.3767383 0.092819
0.5654443 0.3767383 0.092819
0.5687816 0.3767383 0.092819
0.092819 0.3951413 0.092819
0.2262531 0.3951413 0.092819
0.2875993 0.3951413 0.092819
0.3262122 0.3951413 0.092819
0.3544566 0.3951413 0.092819
0.3767383 0.3951413 0.092819
0.3951413 0.3951413 0.092819
0.4108177 0.3951413 0.092819
0.4244723 0.3951413 0.092819
0.4365675 0.3951413 0.092819
0.4474232 0.3951413 0.092819
0.45727 0.3951413 0.092819
0.4662797 0.3951413 0.092819
0.4745834 0.3951413 0.092819
0.4822838 0.3951413 0.092819
0.4894626 0.3951413 0.092819
0.4961862 0.3951413 0.092819
0.5025087 0.3951413 0.092819
0.5084753 0.3951413 0.092819
0.514124 0.3951413 0.092819
0.519487 0.3951413 0.092819
0.5245917 0.3951413 0.092819
0.529462 0.3951413 0.092819
0.5341183 0.3951413 0.092819
0.5385787 0.3951413 0.092819
0.5428591 0.3951413 0.092819
0.5469733 0.3951413 0.092819
0.5509339 0.3951413 0.092819
0.5547519 0.3951413 0.092819
0.5584371 0.3951413 0.092819
0.5619986 0.3951413 0.092819
0.5654443 0.3951413 0.092819
0.5687816 0.3951413 0.092819
0.092819 0.4108177 0.092819
0.2262531 0.4108177 0.092819
0.2875993 0.4108177 0.092819
0.3262122 0.4108177 0.092819
0.3544566 0.4108177 0.092819
0.3767383 0.4108177 0.092819
0.3951413 0.4108177 0.092819
0.4108177 0.4108177 0.092819
0.4244723 0.4108177 0.092819
0.4365675 0.4108177 0.092819
0.4474232 0.4108177 0.092819
0.45727 0.4108177 0.092819
0.4662797 0.4108177 0.092819
0.4745834 0.4108177 0.092819
0.4822838 0.4108177 0.092819
0.4894626 0.4108177 0.092819
0.4961862 0.4108177 0.092819
0.5025087 0.4108177 0.092819
0.5084753 0.4108177 0.092819
0.514124 0.4108177 0.092819
0.519487 0.4108177 0.092819
0.5245917 0.4108177 0.092819
0.529462 0.4108177 0.092819
0.5341183 0.4108177 0.092819
0.5385787 0.4108177 0.092819
0.5428591 0.4108177 0.092819
0.5469733 0.4108177 0.092819
0.5509339 0.4108177 0.092819
0.5547519 0.4108177 0.092819
0.5584371 0.4108177 0.092819
0.5619986 0.4108177 0.092819
0.5654443 0.4108177 0.092819
0.5687816 0.4108177 0.092819
0.092819 0.4244723 0.092819
0.2262531 0.4244723 0.092819
0.2875993 0.4244723 0.092819
0.3262122 0.4244723 0.092819
0.3544566 0.4244723 0.092819
0.3767383 0.4244723 0.092819
0.3951413 0.4244723 0.092819
0.4108177 0.4244723 0.092819
0.4244723 0.4244723 0.092819
0.4365675 0.4244723 0.092819
0.4474232 0.4244723 0.092819
0.45727 0.4244723 0.092819
0.4662797 0.4244723 0.092819
0.4745834 0.4244723 0.092819
0.4822838 0.4244723 0.092819
0.4894626 0.4244723 0.092819
0.4961862 0.4244723 0.092819
0.5025087 0.4244723 0.092819
0.5084753 0.4244723 0.092819
0.514124 0.4244723 0.092819
0.519487 0.4244723 0.092819
0.5245917 0.4244723 0.092819
0.529462 0.4244723 0.092819
0.5341183 0.4244723 0.092819
0.5385787 0.4244723 0.092819
0.5428591 0.4244723 0.092819
0.5469733 0.4244723 0.092819
0.5509339 0.4244723 0.092819
0.5547519 0.4244723 0.092819
0.5584371 0.4244723 0.092819
0.5619986 0.4244723 0.092819
0.5654443 0.4244723 0.092819
0.5687816 0.4244723 0.092819
0.092819 0.4365675 0.092819
0.2262531 0.4365675 0.092819
0.2875993 0.4365675 0.092819
0.3262122 0.4365675 0.092819
0.3544566 0.4365675 0.092819
0.3767383 0.4365675 0.092819
0.3951413 0.4365675 0.092819
0.4108177 0.4365675 0.092819
0.4244723 0.4365675 0.092819
0.4365675 0.4365675 0.092819
0.4474232 0.4365675 0.092819
0.45727 0.4365675 0.092819
0.4662797 0.4365675 0.092819
0.4745834 0.4365675 0.092819
0.4822838 0.4365675 0.092819
0.4894626 0.4365675 0.092819
0.4961862 0.4365675 0.092819
0.5025087 0.4365675 0.092819
0.5084753 0.4365675 0.092819
0.514124 0.4365675 0.092819
0.519487 0.4365675 0.092819
0.5245917 0.4365675 0.092819
0.529462 0.4365675 0.092819
0.5341183 0.4365675 0.092819
0.5385787 0.4365675 0.092819
0.5428591 0.4365675 0.092819
0.5469733 0.4365675 0.092819
0.5509339 0.4365675 0.092819
0.5547519 0.4365675 0.092819
0.5584371 0.4365675 0.092819
0.5619986 0.4365675 0.092819
0.5654443 0.4365675 0.092819
0.5687816 0.4365675 0.092819
0.092819 0.4474232 0.092819
0.2262531 0.4474232 0.092819
0.2875993 0.4474232 0.092819
0.3262122 0.4474232 0.092819
0.3544566 0.4474232 0.092819
0.3767383 0.4474232 0.092819
0.3951413 0.4474232 0.092819
0.4108177 0.4474232 0.092819
0.4244723 0.4474232 0.092819
0.4365675 0.4474232 0.092819
0.4474232 0.4474232 0.092819
0.45727 0.4474232 0.092819
0.4662797 0.4474232 0.092819
0.4745834 0.4474232 0.092819
0.4822838 0.4474232 0.092819
0.4894626 0.4474232 0.092819
0.4961862 0.4474232 0.092819
0.5025087 0.4474232 0.092819
0.5084753 0.4474232 0.092819
0.514124 0.4474232 0.092819
0.519487 0.4474232 0.092819
0.5245917 0.4474232 0.092819
0.529462 0.4474232 0.092819
0.5341183 0.4474232 0.092819
0.5385787 0.4474232 0.092819
0.5428591 0.4474232 0.092819
0.5469733 0.4474232 0.092819
0.5509339 0.4474232 0.092819
0.5547519 0.4474232 0.092819
0.5584371 0.4474232 0.092819
0.5619986 0.4474232 0.092819
0.5654443 0.4474232 0.092819
0.5687816 0.4474232 0.092819
0.092819 0.45727 0.092819
0.2262531 0.45727 0.092819
0.2875993 0.45727 0.092819
0.3262122 0.45727 0.092819
0.3544566 0.45727 0.092819
0.3767383 0.45727 0.092819
0.3951413 0.45727 0.092819
0.4108177 0.45727 0.092819
0.4244723 0.45727 0.092819
0.4365675 0.45727 0.092819
0.4474232 0.45727 0.092819
0.45727 0.45727 0.092819
0.4662797 0.45727 0.092819
0.4745834 0.45727 0.092819
0.4822838 0.45727 0.092819
0.4894626 0.45727 0.092819
0.4961862 0.45727 0.092819
0.5025087 0.45727 0.092819
0.5084753 0.45727 0.092819
0.514124 0.45727 0.092819
0.519487 0.45727 0.092819
0.5245917 0.45727 0.092819
0.529462 0.45727 0.092819
0.5341183 0.45727 0.092819
0.5385787 0.45727 0.092819
0.5428591 0.45727 0.092819
0.5469733 0.45727 0.092819
0.5509339 0.45727 0.092819
0.5547519 0.45727 0.092819
0.5584371 0.45727 0.092819
0.5619986 0.45727 0.092819
0.5654443 0.45727 0.092819
0.5687816 0.45727 0.092819
0.092819 0.4662797 0.092819
0.2262531 0.4662797 0.092819
0.2875993 0.4662797 0.092819
0.3262122 0.4662797 0.092819
0.3544566 0.4662797 0.092819
0.3767383 0.4662797 0.092819
0.3951413 0.4662797 0.092819
0.4108177 0.4662797 0.092819
0.4244723 0.4662797 0.092819
0.4365675 0.4662797 0.092819
0.4474232 0.4662797 0.092819
0.45727 0.4662797 0.092819
0.4662797 0.4662797 0.092819
0.4745834 0.4662797 0.092819
0.4822838 0.4662797 0.092819
0.4894626 0.4662797 0.092819
0.4961862 0.4662797 0.092819
0.5025087 0.4662797 0.092819
0.5084753 0.4662797 0.092819
0.514124 0.4662797 0.092819
0.519487 0.4662797 0.092819
0.5245917 0.4662797 0.092819
0.529462 0.4662797 0.092819
0.5341183 0.4662797 0.092819
0.5385787 0.4662797 0.092819
0.5428591 0.4662797 0.092819
0.5469733 0.4662797 0.092819
0.5509339 0.4662797 0.092819
0.5547519 0.4662797 0.092819
0.5584371 0.4662797 0.092819
0.5619986 0.4662797 0.092819
0.5654443 0.4662797 0.092819
0.5687816 0.4662797 0.092819
0.092819 0.4745834 0.092819
0.2262531 0.4745834 0.092819
0.2875993 0.4745834 0.092819
0.3262122 0.4745834 0.092819
0.3544566 0.4745834 0.092819
0.3767383 0.4745834 0.092819
0.3951413 0.4745834 0.092819
0.4108177 0.4745834 0.092819
0.4244723 0.4745834 0.092819
0.4365675 0.4745834 0.092819
0.4474232 0.4745834 0.092819
0.45727 0.4745834 0.092819
0.4662797 0.4745834 0.092819
0.4745834 0.4745834 0.092819
0.4822838 0.4745834 0.092819
0.4894626 0.4745834 0.092819
0.4961862 0.4745834 0.092819
0.5025087 0.4745834 0.092819
0.5084753 0.4745834 0.092819
0.514124 0.4745834 0.092819
0.519487 0.4745834 0.092819
0.5245917 0.4745834 0.092819
0.529462 0.4745834 0.092819
0.5341183 0.4745834 0.092819
0.5385787 0.4745834 0.092819
0.5428591 0.4745834 0.092819
0.5469733 0.4745834 0.092819
0.5509339 0.4745834 0.092819
0.5547519 0.4745834 0.092819
0.5584371 0.4745834 0.092819
0.5619986 0.4745834 0.092819
0.5654443 0.4745834 0.092819
0.5687816 0.4745834 0.092819
0.092819 0.4822838 0.092819
0.2262531 0.4822838 0.092819
0.2875993 0.4822838 0.092819
0.3262122 0.4822838 0.092819
0.3544566 0.4822838 0.092819
0.3767383 0.4822838 0.092819
0.3951413 0.4822838 0.092819
0.4108177 0.4822838 0.092819
0.4244723 0.4822838 0.092819
0.4365675 0.4822838 0.092819
0.4474232 0.4822838 0.092819
0.45727 0.4822838 0.092819
0.4662797 0.4822838 0.092819
0.4745834 0.4822838 0.092819
0.4822838 0.4822838 0.092819
0.4894626 0.4822838 0.092819
0.4961862 0.4822838 0.092819
0.5025087 0.4822838 0.092819
0.5084753 0.4822838 0.092819
0.514124 0.4822838 0.092819
0.519487 0.4822838 0.092819
0.5245917 0.4822838 0.092819
0.529462 0.4822838 0.092819
0.5341183 0.4822838 0.092819
0.5385787 0.4822838 0.092819
0.5428591 0.4822838 0.092819
0.5469733 0.4822838 0.092819
0.5509339 0.4822838 0.092819
0.5547519 0.4822838 0.092819
0.5584371 0.4822838 0.092819
0.5619986 0.4822838 0.092819
0.5654443 0.4822838 0.092819
0.5687816 0.4822838 0.092819
0.092819 0.4894626 0.092819
0.2262531 0.4894626 0.092819
0.2875993 0.4894626 0.092819
0.3262122 0.4894626 0.092819
0.3544566 0.4894626 0.092819
0.3767383 0.4894626 0.092819
0.3951413 0.4894626 0.092819
0.4108177 0.4894626 0.092819
0.4244723 0.4894626 0.092819
0.4365675 0.4894626 0.092819
0.4474232 0.4894626 0.092819
0.45727 0.4894626 0.092819
0.4662797 0.4894626 0.092819
0.4745834 0.4894626 0.092819
0.4822838 0.4894626 0.092819
0.4894626 0.4894626 0.092819
0.4961862 0.4894626 0.092819
0.5025087 0.4894626 0.092819
0.5084753 0.4894626 0.092819
0.514124 0.4894626 0.092819
0.519487 0.4894626 0.092819
0.5245917 0.4894626 0.092819
0.529462 0.4894626 0.092819
0.5341183 0.4894626 0.092819
0.5385787 0.4894626 0.092819
0.5428591 0.4894626 0.092819
0.5469733 0.4894626 0.092819
0.5509339 0.4894626 0.092819
0.5547519 0.4894626 0.092819
0.5584371 0.4894626 0.092819
0.5619986 0.4894626 0.092819
0.5654443 0.4894626 0.092819
0.5687816 0.4894626 0.092819
0.092819 0.4961862 0.092819
0.2262531 0.4961862 0.092819
0.2875993 0.4961862 0.092819
0.3262122 0.4961862 0.092819
0.3544566 0.4961862 0.092819
0.3767383 0.4961862 0.092819
0.3951413 0.4961862 0.092819
0.4108177 0.4961862 0.092819
0.4244723 0.4961862 0.092819
0.4365675 0.4961862 0.092819
0.4474232 0.4961862 0.092819
0.45727 0.4961862 0.092819
0.4662797 0.4961862 0.092819
0.4745834 0.4961862 0.092819
0.4822838 0.4961862 0.092819
0.4894626 0.4961862 0.092819
0.4961862 0.4961862 0.092819
0.5025087 0.4961862 0.092819
0.5084753 0.4961862 0.092819
0.514124 0.4961862 0.092819
0.519487 0.4961862 0.092819
0.5245917 0.4961862 0.092819
0.529462 0.4961862 0.092819
0.5341183 0.4961862 0.092819
0.5385787 0.4961862 0.092819
0.5428591 0.4961862 0.092819
0.5469733 0.4961862 0.092819
0.5509339 0.4961862 0.092819
0.5547519 0.4961862 0.092819
0.5584371 0.4961862 0.092819
0.5619986 0.4961862 0.092819
0.5654443 0.4961862 0.092819
0.5687816 0.4961862 0.092819
0.092819 0.5025087 0.092819
0.2262531 0.5025087 0.092819
0.2875993 0.5025087 0.092819
0.3262122 0.5025087 0.092819
0.3544566 0.5025087 0.092819
0.3767383 0.5025087 0.092819
0.3951413 0.5025087 0.092819
0.4108177 0.5025087 0.092819
0.4244723 0.5025087 0.092819
0.4365675 0.5025087 0.092819
0.4474232 0.5025087 0.092819
0.45727 0.5025087 0.092819
0.4662797 0.5025087 0.092819
0.4745834 0.5025087 0.092819
0.4822838 0.5025087 0.092819
0.4894626 0.5025087 0.092819
0.4961862 0.5025087 0.092819
0.5025087 0.5025087 0.092819
0.5084753 0.5025087 0.092819
0.514124 0.5025087 0.092819
0.519487 0.5025087 0.092819
0.5245917 0.5025087 0.092819
0.529462 0.5025087 0.092819
0.5341183 0.5025087 0.092819
0.5385787 0.5025087 0.092819
0.5428591 0.5025087 0.092819
0.5469733 0.5025087 0.092819
0.5509339 0.5025087 0.092819
0.5547519 0.5025087 0.092819
0.5584371 0.5025087 0.092819
0.5619986 0.5025087 0.092819
0.5654443 0.5025087 0.092819
0.5687816 0.5025087 0.092819
0.092819 0.5084753 0.092819
0.2262531 0.5084753 0.092819
0.2875993 0.5084753 0.092819
0.3262122 0.5084753 0.092819
0.3544566 0.5084753 0.092819
0.3767383 0.5084753 0.092819
0.3951413 0.5084753 0.092819
0.4108177 0.5084753 0.092819
0.4244723 0.5084753 0.092819
0.4365675 0.5084753 0.092819
0.4474232 0.5084753 0.092819
0.45727 0.5084753 0.092819
0.4662797 0.5084753 0.092819
0.4745834 0.5084753 0.092819
0.4822838 0.5084753 0.092819
0.4894626 0.5084753 0.092819
0.4961862 0.5084753 0.092819
0.5025087 0.5084753 0.092819
0.5084753 0.5084753 0.092819
0.514124 0.5084753 0.092819
0.519487 0.5084753 0.092819
0.5245917 0.5084753 0.092819
0.529462 0.5084753 0.092819
0.5341183 0.5084753 0.092819
0.5385787 0.5084753 0.092819
0.5428591 0.5084753 0.092819
0.5469733 0.5084753 0.092819
0.5509339 0.5084753 0.092819
0.5547519 0.5084753 0.092819
0.5584371 0.5084753 0.092819
0.5619986 0.5084753 0.092819
0.5654443 0.5084753 0.092819
0.5687816 0.5084753 0.092819
0.092819 0.514124 0.092819
0.2262531 0.514124 0.092819
0.2875993 0.514124 0.092819
0.3262122 0.514124 0.092819
0.3544566 0.514124 0.092819
0.3767383 0.514124 0.092819
0.3951413 0.514124 0.092819
0.4108177 0.514124 0.092819
0.4244723 0.514124 0.092819
0.4365675 0.514124 0.092819
0.4474232 0.514124 0.092819
0.45727 0.514124 0.092819
0.4662797 0.514124 0.092819
0.4745834 0.514124 0.092819
0.4822838 0.514124 0.092819
0.4894626 0.514124 0.092819
0.4961862 0.514124 0.092819
0.5025087 0.514124 0.092819
0.5084753 0.514124 0.092819
0.514124 0.514124 0.092819
0.519487 0.514124 0.092819
0.5245917 0.514124 0.092819
0.529462 0.514124 0.092819
0.5341183 0.514124 0.092819
0.5385787 0.514124 0.092819
0.5428591 0.514124 0.092819
0.5469733 0.514124 0.092819
0.5509339 0.514124 0.092819
0.5547519 0.514124 0.092819
0.5584371 0.514124 0.092819
0.5619986 0.514124 0.092819
0.5654443 0.514124 0.092819
0.5687816 0.514124 0.092819
0.092819 0.519487 0.092819
0.2262531 0.519487 0.092819
0.2875993 0.519487 0.092819
0.3262122 0.519487 0.092819
0.3544566 0.519487 0.092819
0.3767383 0.519487 0.092819
0.3951413 0.519487 0.092819
0.4108177 0.519487 0.092819
0.4244723 0.519487 0.092819
0.4365675 0.519487 0.092819
0.4474232 0.519487 0.092819
0.45727 0.519487 0.092819
0.4662797 0.519487 0.092819
0.4745834 0.519487 0.092819
0.4822838 0.519487 0.092819
0.4894626 0.519487 0.092819
0.4961862 0.519487 0.092819
0.5025087 0.519487 0.092819
0.5084753 0.519487 0.092819
0.514124 0.519487 0.092819
0.519487 0.519487 0.092819
0.5245917 0.519487 0.092819
0.529462 0.519487 0.092819
0.5341183 0.519487 0.092819
0.5385787 0.519487 0.092819
0.5428591 0.519487 0.092819
0.5469733 0.519487 0.092819
0.5509339 0.519487 0.092819
0.5547519 0.519487 0.092819
0.5584371 0.519487 0.092819
0.5619986 0.519487 0.092819
0.5654443 0.519487 0.092819
0.5687816 0.519487 0.092819
0.092819 0.5245917 0.092819
0.2262531 0.5245917 0.092819
0.2875993 0.5245917 0.092819
0.3262122 0.5245917 0.092819
0.3544566 0.5245917 0.092819
0.3767383 0.5245917 0.092819
0.3951413 0.5245917 0.092819
0.4108177 0.5245917 0.092819
0.4244723 0.5245917 0.092819
0.4365675 0.5245917 0.092819
0.4474232 0.5245917 0.092819
0.45727 0.5245917 0.092819
0.4662797 0.5245917 0.092819
0.4745834 0.5245917 0.092819
0.4822838 0.5245917 0.092819
0.4894626 0.5245917 0.092819
0.4961862 0.5245917 0.092819
0.5025087 0.5245917 0.092819
0.5084753 0.5245917 0.092819
0.514124 0.5245917 0.092819
0.519487 0.5245917 0.092819
0.5245917 0.5245917 0.092819
0.529462 0.5245917 0.092819
0.5341183 0.5245917 0.092819
0.5385787 0.5245917 0.092819
0.5428591 0.5245917 0.092819
0.5469733 0.5245917 0.092819
0.5509339 0.5245917 0.092819
0.5547519 0.5245917 0.092819
0.5584371 0.5245917 0.092819
0.5619986 0.5245917 0.092819
0.5654443 0.5245917 0.092819
0.5687816 0.5245917 0.092819
0.092819 0.529462 0.092819
0.2262531 0.529462 0.092819
0.2875993 0.529462 0.092819
0.3262122 0.529462 0.092819
0.3544566 0.529462 0.092819
0.3767383 0.529462 0.092819
0.3951413 0.529462 0.092819
0.4108177 0.529462 0.092819
0.4244723 0.529462 0.092819
0.4365675 0.529462 0.092819
0.4474232 0.529462 0.092819
0.45727 0.529462 0.092819
0.4662797 0.529462 0.092819
0.4745834 0.529462 0.092819
0.4822838 0.529462 0.092819
0.4894626 0.529462 0.092819
0.4961862 0.529462 0.092819
0.5025087 0.529462 0.092819
0.5084753 0.529462 0.092819
0.514124 0.529462 0.092819
0.519487 0.529462 0.092819
0.5245917 0.529462 0.092819
0.529462 0.529462 0.092819
0.5341183 0.529462 0.092819
0.5385787 0.529462 0.092819
0.5428591 0.529462 0.092819
0.5469733 0.529462 0.092819
0.5509339 0.529462 0.092819
0.5547519 0.529462 0.092819
0.5584371 0.529462 0.092819
0.5619986 0.529462 0.092819
0.5654443 0.529462 0.092819
0.5687816 0.529462 0.092819
0.092819 0.5341183 0.092819
0.2262531 0.5341183 0.092819
0.2875993 0.5341183 0.092819
0.3262122 0.5341183 0.092819
0.3544566 0.5341183 0.092819
0.3767383 0.5341183 0.092819
0.3951413 0.5341183 0.092819
0.4108177 0.5341183 0.092819
0.4244723 0.5341183 0.092819
0.4365675 0.5341183 0.092819
0.4474232 0.5341183 0.092819
0.45727 0.5341183 0.092819
0.4662797 0.5341183 0.092819
0.4745834 0.5341183 0.092819
0.4822838 0.5341183 0.092819
0.4894626 0.5341183 0.092819
0.4961862 0.5341183 0.092819
0.5025087 0.5341183 0.092819
0.5084753 0.5341183 0.092819
0.514124 0.5341183 0.092819
0.519487 0.5341183 0.092819
0.5245917 0.5341183 0.092819
0.529462 0.5341183 0.092819
0.5341183 0.5341183 0.092819
0.5385787 0.5341183 0.092819
0.5428591 0.5341183 0.092819
0.5469733 0.5341183 0.092819
0.5509339 0.5341183 0.092819
0.5547519 0.5341183 0.092819
0.5584371 0.5341183 0.092819
0.5619986 0.5341183 0.092819
0.5654443 0.5341183 0.092819
0.5687816 0.5341183 0.092819
0.092819 0.5385787 0.092819
0.2262531 0.5385787 0.092819
0.2875993 0.5385787 0.092819
0.3262122 0.5385787 0.092819
0.3544566 0.5385787 0.092819
0.3767383 0.5385787 0.092819
0.3951413 0.5385787 0.092819
0.4108177 0.5385787 0.092819
0.4244723 0.5385787 0.092819
0.4365675 0.5385787 0.092819
0.4474232 0.5385787 0.092819
0.45727 0.5385787 0.092819
0.4662797 0.5385787 0.092819
0.4745834 0.5385787 0.092819
0.4822838 0.5385787 0.092819
0.4894626 0.5385787 0.092819
0.4961862 0.5385787 0.092819
0.5025087 0.5385787 0.092819
0.5084753 0.5385787 0.092819
0.514124 0.5385787 0.092819
0.519487 0.5385787 0.092819
0.5245917 0.5385787 0.092819
0.529462 0.5385787 0.092819
0.5341183 0.5385787 0.092819
0.5385787 0.5385787 0.092819
0.5428591 0.5385787 0.092819
0.5469733 0.5385787 0.092819
0.5509339 0.5385787 0.092819
0.5547519 0.5385787 0.092819
0.5584371 0.5385787 0.092819
0.5619986 0.5385787 0.092819
0.5654443 0.5385787 0.092819
0.5687816 0.5385787 0.092819
0.092819 0.5428591 0.092819
0.2262531 0.5428591 0.092819
0.2875993 0.5428591 0.092819
0.3262122 0.5428591 0.092819
0.3544566 0.5428591 0.092819
0.3767383 0.5428591 0.092819
0.3951413 0.5428591 0.092819
0.4108177 0.5428591 0.092819
0.4244723 0.5428591 0.092819
0.4365675 0.5428591 0.092819
0.4474232 0.5428591 0.092819
