com.unity.render-pipelines.high-definition/Samples~/PostProcessingData/Cube LUTs/Linear to Unity Log r1.cube
TITLE "Linear to Unity Log r1"
LUT_3D_SIZE 9
DOMAIN_MIN 0 0 0
DOMAIN_MAX 1 1 1
0.092819 0.092819 0.092819
0.3544566 0.092819 0.092819
0.4244723 0.092819 0.092819
0.4662797 0.092819 0.092819
0.4961862 0.092819 0.092819
0.519487 0.092819 0.092819
0.5385787 0.092819 0.092819
0.5547519 0.092819 0.092819
0.5687816 0.092819 0.092819
0.092819 0.3544566 0.092819
0.3544566 0.3544566 0.092819
0.4244723 0.3544566 0.092819
0.4662797 0.3544566 0.092819
0.4961862 0.3544566 0.092819
0.519487 0.3544566 0.092819
0.5385787 0.3544566 0.092819
0.5547519 0.3544566 0.092819
0.5687816 0.3544566 0.092819
0.092819 0.4244723 0.092819
0.3544566 0.4244723 0.092819
0.4244723 0.4244723 0.092819
0.4662797 0.4244723 0.092819
0.4961862 0.4244723 0.092819
0.519487 0.4244723 0.092819
0.5385787 0.4244723 0.092819
0.5547519 0.4244723 0.092819
0.5687816 0.4244723 0.092819
0.092819 0.4662797 0.092819
0.3544566 0.4662797 0.092819
0.4244723 0.4662797 0.092819
0.4662797 0.4662797 0.092819
0.4961862 0.4662797 0.092819
0.519487 0.4662797 0.092819
0.5385787 0.4662797 0.092819
0.5547519 0.4662797 0.092819
0.5687816 0.4662797 0.092819
0.092819 0.4961862 0.092819
0.3544566 0.4961862 0.092819
0.4244723 0.4961862 0.092819
0.4662797 0.4961862 0.092819
0.4961862 0.4961862 0.092819
0.519487 0.4961862 0.092819
0.5385787 0.4961862 0.092819
0.5547519 0.4961862 0.092819
0.5687816 0.4961862 0.092819
0.092819 0.519487 0.092819
0.3544566 0.519487 0.092819
0.4244723 0.519487 0.092819
0.4662797 0.519487 0.092819
0.4961862 0.519487 0.092819
0.519487 0.519487 0.092819
0.5385787 0.519487 0.092819
0.5547519 0.519487 0.092819
0.5687816 0.519487 0.092819
0.092819 0.5385787 0.092819
0.3544566 0.5385787 0.092819
0.4244723 0.5385787 0.092819
0.4662797 0.5385787 0.092819
0.4961862 0.5385787 0.092819
0.519487 0.5385787 0.092819
0.5385787 0.5385787 0.092819
0.5547519 0.5385787 0.092819
0.5687816 0.5385787 0.092819
0.092819 0.5547519 0.092819
0.3544566 0.5547519 0.092819
0.4244723 0.5547519 0.092819
0.4662797 0.5547519 0.092819
0.4961862 0.5547519 0.092819
0.519487 0.5547519 0.092819
0.5385787 0.5547519 0.092819
0.5547519 0.5547519 0.092819
0.5687816 0.5547519 0.092819
0.092819 0.5687816 0.092819
0.3544566 0.5687816 0.092819
0.4244723 0.5687816 0.092819
0.4662797 0.5687816 0.092819
0.4961862 0.5687816 0.092819
0.519487 0.5687816 0.092819
0.5385787 0.5687816 0.092819
0.5547519 0.5687816 0.092819
0.5687816 0.5687816 0.092819
0.092819 0.092819 0.3544566
0.3544566 0.092819 0.3544566
0.4244723 0.092819 0.3544566
0.4662797 0.092819 0.3544566
0.4961862 0.092819 0.3544566
0.519487 0.092819 0.3544566
0.5385787 0.092819 0.3544566
0.5547519 0.092819 0.3544566
0.5687816 0.092819 0.3544566
0.092819 0.3544566 0.3544566
0.3544566 0.3544566 0.3544566
0.4244723 0.3544566 0.3544566
0.4662797 0.3544566 0.3544566
0.4961862 0.3544566 0.3544566
0.519487 0.3544566 0.3544566
0.5385787 0.3544566 0.3544566
0.5547519 0.3544566 0.3544566
0.5687816 0.3544566 0.3544566
0.092819 0.4244723 0.3544566
0.3544566 0.4244723 0.3544566
0.4244723 0.4244723 0.3544566
0.4662797 0.4244723 0.3544566
0.4961862 0.4244723 0.3544566
0.519487 0.4244723 0.3544566
0.5385787 0.4244723 0.3544566
0.5547519 0.4244723 0.3544566
0.5687816 0.4244723 0.3544566
0.092819 0.4662797 0.3544566
0.3544566 0.4662797 0.3544566
0.4244723 0.4662797 0.3544566
0.4662797 0.4662797 0.3544566
0.4961862 0.4662797 0.3544566
0.519487 0.4662797 0.3544566
0.5385787 0.4662797 0.3544566
0.5547519 0.4662797 0.3544566
0.5687816 0.4662797 0.3544566
0.092819 0.4961862 0.3544566
0.3544566 0.4961862 0.3544566
0.4244723 0.4961862 0.3544566
0.4662797 0.4961862 0.3544566
0.4961862 0.4961862 0.3544566
0.519487 0.4961862 0.3544566
0.5385787 0.4961862 0.3544566
0.5547519 0.4961862 0.3544566
0.5687816 0.4961862 0.3544566
0.092819 0.519487 0.3544566
0.3544566 0.519487 0.3544566
0.4244723 0.519487 0.3544566
0.4662797 0.519487 0.3544566
0.4961862 0.519487 0.3544566
0.519487 0.519487 0.3544566
0.5385787 0.519487 0.3544566
0.5547519 0.519487 0.3544566
0.5687816 0.519487 0.3544566
0.092819 0.5385787 0.3544566
0.3544566 0.5385787 0.3544566
0.4244723 0.5385787 0.3544566
0.4662797 0.5385787 0.3544566
0.4961862 0.5385787 0.3544566
0.519487 0.5385787 0.3544566
0.5385787 0.5385787 0.3544566
0.5547519 0.5385787 0.3544566
0.5687816 0.5385787 0.3544566
0.092819 0.5547519 0.3544566
0.3544566 0.5547519 0.3544566
0.4244723 0.5547519 0.3544566
0.4662797 0.5547519 0.3544566
0.4961862 0.5547519 0.3544566
0.519487 0.5547519 0.3544566
0.5385787 0.5547519 0.3544566
0.5547519 0.5547519 0.3544566
0.5687816 0.5547519 0.3544566
0.092819 0.5687816 0.3544566
0.3544566 0.5687816 0.3544566
0.4244723 0.5687816 0.3544566
0.4662797 0.5687816 0.3544566
0.4961862 0.5687816 0.3544566
0.519487 0.5687816 0.3544566
0.5385787 0.5687816 0.3544566
0.5547519 0.5687816 0.3544566
0.5687816 0.5687816 0.3544566
0.092819 0.092819 0.4244723
0.3544566 0.092819 0.4244723
0.4244723 0.092819 0.4244723
0.4662797 0.092819 0.4244723
0.4961862 0.092819 0.4244723
0.519487 0.092819 0.4244723
0.5385787 0.092819 0.4244723
0.5547519 0.092819 0.4244723
0.5687816 0.092819 0.4244723
0.092819 0.3544566 0.4244723
0.3544566 0.3544566 0.4244723
0.4244723 0.3544566 0.4244723
0.4662797 0.3544566 0.4244723
0.4961862 0.3544566 0.4244723
0.519487 0.3544566 0.4244723
0.5385787 0.3544566 0.4244723
0.5547519 0.3544566 0.4244723
0.5687816 0.3544566 0.4244723
0.092819 0.4244723 0.4244723
0.3544566 0.4244723 0.4244723
0.4244723 0.4244723 0.4244723
0.4662797 0.4244723 0.4244723
0.4961862 0.4244723 0.4244723
0.519487 0.4244723 0.4244723
0.5385787 0.4244723 0.4244723
0.5547519 0.4244723 0.4244723
0.5687816 0.4244723 0.4244723
0.092819 0.4662797 0.4244723
0.3544566 0.4662797 0.4244723
0.4244723 0.4662797 0.4244723
0.4662797 0.4662797 0.4244723
0.4961862 0.4662797 0.4244723
0.519487 0.4662797 0.4244723
0.5385787 0.4662797 0.4244723
0.5547519 0.4662797 0.4244723
0.5687816 0.4662797 0.4244723
0.092819 0.4961862 0.4244723
0.3544566 0.4961862 0.4244723
0.4244723 0.4961862 0.4244723
0.4662797 0.4961862 0.4244723
0.4961862 0.4961862 0.4244723
0.519487 0.4961862 0.4244723
0.5385787 0.4961862 0.4244723
0.5547519 0.4961862 0.4244723
0.5687816 0.4961862 0.4244723
0.092819 0.519487 0.4244723
0.3544566 0.519487 0.4244723
0.4244723 0.519487 0.4244723
0.4662797 0.519487 0.4244723
0.4961862 0.519487 0.4244723
0.519487 0.519487 0.4244723
0.5385787 0.519487 0.4244723
0.5547519 0.519487 0.4244723
0.5687816 0.519487 0.4244723
0.092819 0.5385787 0.4244723
0.3544566 0.5385787 0.4244723
0.4244723 0.5385787 0.4244723
0.4662797 0.5385787 0.4244723
0.4961862 0.5385787 0.4244723
0.519487 0.5385787 0.4244723
0.5385787 0.5385787 0.4244723
0.5547519 0.5385787 0.4244723
0.5687816 0.5385787 0.4244723
0.092819 0.5547519 0.4244723
0.3544566 0.5547519 0.4244723
0.4244723 0.5547519 0.4244723
0.4662797 0.5547519 0.4244723
0.4961862 0.5547519 0.4244723
0.519487 0.5547519 0.4244723
0.5385787 0.5547519 0.4244723
0.5547519 0.5547519 0.4244723
0.5687816 0.5547519 0.4244723
0.092819 0.5687816 0.4244723
0.3544566 0.5687816 0.4244723
0.4244723 0.5687816 0.4244723
0.4662797 0.5687816 0.4244723
0.4961862 0.5687816 0.4244723
0.519487 0.5687816 0.4244723
0.5385787 0.5687816 0.4244723
0.5547519 0.5687816 0.4244723
0.5687816 0.5687816 0.4244723
0.092819 0.092819 0.4662797
0.3544566 0.092819 0.4662797
0.4244723 0.092819 0.4662797
0.4662797 0.092819 0.4662797
0.4961862 0.092819 0.4662797
0.519487 0.092819 0.4662797
0.5385787 0.092819 0.4662797
0.5547519 0.092819 0.4662797
0.5687816 0.092819 0.4662797
0.092819 0.3544566 0.4662797
0.3544566 0.3544566 0.4662797
0.4244723 0.3544566 0.4662797
0.4662797 0.3544566 0.4662797
0.4961862 0.3544566 0.4662797
0.519487 0.3544566 0.4662797
0.5385787 0.3544566 0.4662797
0.5547519 0.3544566 0.4662797
0.5687816 0.3544566 0.4662797
0.092819 0.4244723 0.4662797
0.3544566 0.4244723 0.4662797
0.4244723 0.4244723 0.4662797
0.4662797 0.4244723 0.4662797
0.4961862 0.4244723 0.4662797
0.519487 0.4244723 0.4662797
0.5385787 0.4244723 0.4662797
0.5547519 0.4244723 0.4662797
0.5687816 0.4244723 0.4662797
0.092819 0.4662797 0.4662797
0.3544566 0.4662797 0.4662797
0.4244723 0.4662797 0.4662797
0.4662797 0.4662797 0.4662797
0.4961862 0.4662797 0.4662797
0.519487 0.4662797 0.4662797
0.5385787 0.4662797 0.4662797
0.5547519 0.4662797 0.4662797
0.5687816 0.4662797 0.4662797
0.092819 0.4961862 0.4662797
0.3544566 0.4961862 0.4662797
0.4244723 0.4961862 0.4662797
0.4662797 0.4961862 0.4662797
0.4961862 0.4961862 0.4662797
0.519487 0.4961862 0.4662797
0.5385787 0.4961862 0.4662797
0.5547519 0.4961862 0.4662797
0.5687816 0.4961862 0.4662797
0.092819 0.519487 0.4662797
0.3544566 0.519487 0.4662797
0.4244723 0.519487 0.4662797
0.4662797 0.519487 0.4662797
0.4961862 0.519487 0.4662797
0.519487 0.519487 0.4662797
0.5385787 0.519487 0.4662797
0.5547519 0.519487 0.4662797
0.5687816 0.519487 0.4662797
0.092819 0.5385787 0.4662797
0.3544566 0.5385787 0.4662797
0.4244723 0.5385787 0.4662797
0.4662797 0.5385787 0.4662797
0.4961862 0.5385787 0.4662797
0.519487 0.5385787 0.4662797
0.5385787 0.5385787 0.4662797
0.5547519 0.5385787 0.4662797
0.5687816 0.5385787 0.4662797
0.092819 0.5547519 0.4662797
0.3544566 0.5547519 0.4662797
0.4244723 0.5547519 0.4662797
0.4662797 0.5547519 0.4662797
0.4961862 0.5547519 0.4662797
0.519487 0.5547519 0.4662797
0.5385787 0.5547519 0.4662797
0.5547519 0.5547519 0.4662797
0.5687816 0.5547519 0.4662797
0.092819 0.5687816 0.4662797
0.3544566 0.5687816 0.4662797
0.4244723 0.5687816 0.4662797
0.4662797 0.5687816 0.4662797
0.4961862 0.5687816 0.4662797
0.519487 0.5687816 0.4662797
0.5385787 0.5687816 0.4662797
0.5547519 0.5687816 0.4662797
0.5687816 0.5687816 0.4662797
0.092819 0.092819 0.4961862
0.3544566 0.092819 0.4961862
0.4244723 0.092819 0.4961862
0.4662797 0.092819 0.4961862
0.4961862 0.092819 0.4961862
0.519487 0.092819 0.4961862
0.5385787 0.092819 0.4961862
0.5547519 0.092819 0.4961862
0.5687816 0.092819 0.4961862
0.092819 0.3544566 0.4961862
0.3544566 0.3544566 0.4961862
0.4244723 0.3544566 0.4961862
0.4662797 0.3544566 0.4961862
0.4961862 0.3544566 0.4961862
0.519487 0.3544566 0.4961862
0.5385787 0.3544566 0.4961862
0.5547519 0.3544566 0.4961862
0.5687816 0.3544566 0.4961862
0.092819 0.4244723 0.4961862
0.3544566 0.4244723 0.4961862
0.4244723 0.4244723 0.4961862
0.4662797 0.4244723 0.4961862
0.4961862 0.4244723 0.4961862
0.519487 0.4244723 0.4961862
0.5385787 0.4244723 0.4961862
0.5547519 0.4244723 0.4961862
0.5687816 0.4244723 0.4961862
0.092819 0.4662797 0.4961862
0.3544566 0.4662797 0.4961862
0.4244723 0.4662797 0.4961862
0.4662797 0.4662797 0.4961862
0.4961862 0.4662797 0.4961862
0.519487 0.4662797 0.4961862
0.5385787 0.4662797 0.4961862
0.5547519 0.4662797 0.4961862
0.5687816 0.4662797 0.4961862
0.092819 0.4961862 0.4961862
0.3544566 0.4961862 0.4961862
0.4244723 0.4961862 0.4961862
0.4662797 0.4961862 0.4961862
0.4961862 0.4961862 0.4961862
0.519487 0.4961862 0.4961862
0.5385787 0.4961862 0.4961862
0.5547519 0.4961862 0.4961862
0.5687816 0.4961862 0.4961862
0.092819 0.519487 0.4961862
0.3544566 0.519487 0.4961862
0.4244723 0.519487 0.4961862
0.4662797 0.519487 0.4961862
0.4961862 0.519487 0.4961862
0.519487 0.519487 0.4961862
0.5385787 0.519487 0.4961862
0.5547519 0.519487 0.4961862
0.5687816 0.519487 0.4961862
0.092819 0.5385787 0.4961862
0.3544566 0.5385787 0.4961862
0.4244723 0.5385787 0.4961862
0.4662797 0.5385787 0.4961862
0.4961862 0.5385787 0.4961862
0.519487 0.5385787 0.4961862
0.5385787 0.5385787 0.4961862
0.5547519 0.5385787 0.4961862
0.5687816 0.5385787 0.4961862
0.092819 0.5547519 0.4961862
0.3544566 0.5547519 0.4961862
0.4244723 0.5547519 0.4961862
0.4662797 0.5547519 0.4961862
0.4961862 0.5547519 0.4961862
0.519487 0.5547519 0.4961862
0.5385787 0.5547519 0.4961862
0.5547519 0.5547519 0.4961862
0.5687816 0.5547519 0.4961862
0.092819 0.5687816 0.4961862
0.3544566 0.5687816 0.4961862
0.4244723 0.5687816 0.4961862
0.4662797 0.5687816 0.4961862
0.4961862 0.5687816 0.4961862
0.519487 0.5687816 0.4961862
0.5385787 0.5687816 0.4961862
0.5547519 0.5687816 0.4961862
0.5687816 0.5687816 0.4961862
0.092819 0.092819 0.519487
0.3544566 0.092819 0.519487
0.4244723 0.092819 0.519487
0.4662797 0.092819 0.519487
0.4961862 0.092819 0.519487
0.519487 0.092819 0.519487
0.5385787 0.092819 0.519487
0.5547519 0.092819 0.519487
0.5687816 0.092819 0.519487
0.092819 0.3544566 0.519487
0.3544566 0.3544566 0.519487
0.4244723 0.3544566 0.519487
0.4662797 0.3544566 0.519487
0.4961862 0.3544566 0.519487
0.519487 0.3544566 0.519487
0.5385787 0.3544566 0.519487
0.5547519 0.3544566 0.519487
0.5687816 0.3544566 0.519487
0.092819 0.4244723 0.519487
0.3544566 0.4244723 0.519487
0.4244723 0.4244723 0.519487
0.4662797 0.4244723 0.519487
0.4961862 0.4244723 0.519487
0.519487 0.4244723 0.519487
0.5385787 0.4244723 0.519487
0.5547519 0.4244723 0.519487
0.5687816 0.4244723 0.519487
0.092819 0.4662797 0.519487
0.3544566 0.4662797 0.519487
0.4244723 0.4662797 0.519487
0.4662797 0.4662797 0.519487
0.4961862 0.4662797 0.519487
0.519487 0.4662797 0.519487
0.5385787 0.4662797 0.519487
0.5547519 0.4662797 0.519487
0.5687816 0.4662797 0.519487
0.092819 0.4961862 0.519487
0.3544566 0.4961862 0.519487
0.4244723 0.4961862 0.519487
0.4662797 0.4961862 0.519487
0.4961862 0.4961862 0.519487
0.519487 0.4961862 0.519487
0.5385787 0.4961862 0.519487
0.5547519 0.4961862 0.519487
0.5687816 0.4961862 0.519487
0.092819 0.519487 0.519487
0.3544566 0.519487 0.519487
0.4244723 0.519487 0.519487
0.4662797 0.519487 0.519487
0.4961862 0.519487 0.519487
0.519487 0.519487 0.519487
0.5385787 0.519487 0.519487
0.5547519 0.519487 0.519487
0.5687816 0.519487 0.519487
0.092819 0.5385787 0.519487
0.3544566 0.5385787 0.519487
0.4244723 0.5385787 0.519487
0.4662797 0.5385787 0.519487
0.4961862 0.5385787 0.519487
0.519487 0.5385787 0.519487
0.5385787 0.5385787 0.519487
0.5547519 0.5385787 0.519487
0.5687816 0.5385787 0.519487
0.092819 0.5547519 0.519487
0.3544566 0.5547519 0.519487
0.4244723 0.5547519 0.519487
0.4662797 0.5547519 0.519487
0.4961862 0.5547519 0.519487
0.519487 0.5547519 0.519487
0.5385787 0.5547519 0.519487
0.5547519 0.5547519 0.519487
0.5687816 0.5547519 0.519487
0.092819 0.5687816 0.519487
0.3544566 0.5687816 0.519487
0.4244723 0.5687816 0.519487
0.4662797 0.5687816 0.519487
0.4961862 0.5687816 0.519487
0.519487 0.5687816 0.519487
0.5385787 0.5687816 0.519487
0.5547519 0.5687816 0.519487
0.5687816 0.5687816 0.519487
0.092819 0.092819 0.5385787
0.3544566 0.092819 0.5385787
0.4244723 0.092819 0.5385787
0.4662797 0.092819 0.5385787
0.4961862 0.092819 0.5385787
0.519487 0.092819 0.5385787
0.5385787 0.092819 0.5385787
0.5547519 0.092819 0.5385787
0.5687816 0.092819 0.5385787
0.092819 0.3544566 0.5385787
0.3544566 0.3544566 0.5385787
0.4244723 0.3544566 0.5385787
0.4662797 0.3544566 0.5385787
0.4961862 0.3544566 0.5385787
0.519487 0.3544566 0.5385787
0.5385787 0.3544566 0.5385787
0.5547519 0.3544566 0.5385787
0.5687816 0.3544566 0.5385787
0.092819 0.4244723 0.5385787
0.3544566 0.4244723 0.5385787
0.4244723 0.4244723 0.5385787
0.4662797 0.4244723 0.5385787
0.4961862 0.4244723 0.5385787
0.519487 0.4244723 0.5385787
0.5385787 0.4244723 0.5385787
0.5547519 0.4244723 0.5385787
0.5687816 0.4244723 0.5385787
0.092819 0.4662797 0.5385787
0.3544566 0.4662797 0.5385787
0.4244723 0.4662797 0.5385787
0.4662797 0.4662797 0.5385787
0.4961862 0.4662797 0.5385787
0.519487 0.4662797 0.5385787
0.5385787 0.4662797 0.5385787
0.5547519 0.4662797 0.5385787
0.5687816 0.4662797 0.5385787
0.092819 0.4961862 0.5385787
0.3544566 0.4961862 0.5385787
0.4244723 0.4961862 0.5385787
0.4662797 0.4961862 0.5385787
0.4961862 0.4961862 0.5385787
0.519487 0.4961862 0.5385787
0.5385787 0.4961862 0.5385787
0.5547519 0.4961862 0.5385787
0.5687816 0.4961862 0.5385787
0.092819 0.519487 0.5385787
0.3544566 0.519487 0.5385787
0.4244723 0.519487 0.5385787
0.4662797 0.519487 0.5385787
0.4961862 0.519487 0.5385787
0.519487 0.519487 0.5385787
0.5385787 0.519487 0.5385787
0.5547519 0.519487 0.5385787
0.5687816 0.519487 0.5385787
0.092819 0.5385787 0.5385787
0.3544566 0.5385787 0.5385787
0.4244723 0.5385787 0.5385787
0.4662797 0.5385787 0.5385787
0.4961862 0.5385787 0.5385787
0.519487 0.5385787 0.5385787
0.5385787 0.5385787 0.5385787
0.5547519 0.5385787 0.5385787
0.5687816 0.5385787 0.5385787
0.092819 0.5547519 0.5385787
0.3544566 0.5547519 0.5385787
0.4244723 0.5547519 0.5385787
0.4662797 0.5547519 0.5385787
0.4961862 0.5547519 0.5385787
0.519487 0.5547519 0.5385787
0.5385787 0.5547519 0.5385787
0.5547519 0.5547519 0.5385787
0.5687816 0.5547519 0.5385787
0.092819 0.5687816 0.5385787
0.3544566 0.5687816 0.5385787
0.4244723 0.5687816 0.5385787
0.4662797 0.5687816 0.5385787
0.4961862 0.5687816 0.5385787
0.519487 0.5687816 0.5385787
0.5385787 0.5687816 0.5385787
0.5547519 0.5687816 0.5385787
0.5687816 0.5687816 0.5385787
0.092819 0.092819 0.5547519
0.3544566 0.092819 0.5547519
0.4244723 0.092819 0.5547519
0.4662797 0.092819 0.5547519
0.4961862 0.092819 0.5547519
0.519487 0.092819 0.5547519
0.5385787 0.092819 0.5547519
0.5547519 0.092819 0.5547519
0.5687816 0.092819 0.5547519
0.092819 0.3544566 0.5547519
0.3544566 0.3544566 0.5547519
0.4244723 0.3544566 0.5547519
0.4662797 0.3544566 0.5547519
0.4961862 0.3544566 0.5547519
0.519487 0.3544566 0.5547519
0.5385787 0.3544566 0.5547519
0.5547519 0.3544566 0.5547519
0.5687816 0.3544566 0.5547519
0.092819 0.4244723 0.5547519
0.3544566 0.4244723 0.5547519
0.4244723 0.4244723 0.5547519
0.4662797 0.4244723 0.5547519
0.4961862 0.4244723 0.5547519
0.519487 0.4244723 0.5547519
0.5385787 0.4244723 0.5547519
0.5547519 0.4244723 0.5547519
0.5687816 0.4244723 0.5547519
0.092819 0.4662797 0.5547519
0.3544566 0.4662797 0.5547519
0.4244723 0.4662797 0.5547519
0.4662797 0.4662797 0.5547519
0.4961862 0.4662797 0.5547519
0.519487 0.4662797 0.5547519
0.5385787 0.4662797 0.5547519
0.5547519 0.4662797 0.5547519
0.5687816 0.4662797 0.5547519
0.092819 0.4961862 0.5547519
0.3544566 0.4961862 0.5547519
0.4244723 0.4961862 0.5547519
0.4662797 0.4961862 0.5547519
0.4961862 0.4961862 0.5547519
0.519487 0.4961862 0.5547519
0.5385787 0.4961862 0.5547519
0.5547519 0.4961862 0.5547519
0.5687816 0.4961862 0.5547519
0.092819 0.519487 0.5547519
0.3544566 0.519487 0.5547519
0.4244723 0.519487 0.5547519
0.4662797 0.519487 0.5547519
0.4961862 0.519487 0.5547519
0.519487 0.519487 0.5547519
0.5385787 0.519487 0.5547519
0.5547519 0.519487 0.5547519
0.5687816 0.519487 0.5547519
0.092819 0.5385787 0.5547519
0.3544566 0.5385787 0.5547519
0.4244723 0.5385787 0.5547519
0.4662797 0.5385787 0.5547519
0.4961862 0.5385787 0.5547519
0.519487 0.5385787 0.5547519
0.5385787 0.5385787 0.5547519
0.5547519 0.5385787 0.5547519
0.5687816 0.5385787 0.5547519
0.092819 0.5547519 0.5547519
0.3544566 0.5547519 0.5547519
0.4244723 0.5547519 0.5547519
0.4662797 0.5547519 0.5547519
0.4961862 0.5547519 0.5547519
0.519487 0.5547519 0.5547519
0.5385787 0.5547519 0.5547519
0.5547519 0.5547519 0.5547519
0.5687816 0.5547519 0.5547519
0.092819 0.5687816 0.5547519
0.3544566 0.5687816 0.5547519
0.4244723 0.5687816 0.5547519
0.4662797 0.5687816 0.5547519
0.4961862 0.5687816 0.5547519
0.519487 0.5687816 0.5547519
0.5385787 0.5687816 0.5547519
0.5547519 0.5687816 0.5547519
0.5687816 0.5687816 0.5547519
0.092819 0.092819 0.5687816
0.3544566 0.092819 0.5687816
0.4244723 0.092819 0.5687816
0.4662797 0.092819 0.5687816
0.4961862 0.092819 0.5687816
0.519487 0.092819 0.5687816
0.5385787 0.092819 0.5687816
0.5547519 0.092819 0.5687816
0.5687816 0.092819 0.5687816
0.092819 0.3544566 0.5687816
0.3544566 0.3544566 0.5687816
0.4244723 0.3544566 0.5687816
0.4662797 0.3544566 0.5687816
0.4961862 0.3544566 0.5687816
0.519487 0.3544566 0.5687816
0.5385787 0.3544566 0.5687816
0.5547519 0.3544566 0.5687816
0.5687816 0.3544566 0.5687816
0.092819 0.4244723 0.5687816
0.3544566 0.4244723 0.5687816
0.4244723 0.4244723 0.5687816
0.4662797 0.4244723 0.5687816
0.4961862 0.4244723 0.5687816
0.519487 0.4244723 0.5687816
0.5385787 0.4244723 0.5687816
0.5547519 0.4244723 0.5687816
0.5687816 0.4244723 0.5687816
0.092819 0.4662797 0.5687816
0.3544566 0.4662797 0.5687816
0.4244723 0.4662797 0.5687816
0.4662797 0.4662797 0.5687816
0.4961862 0.4662797 0.5687816
0.519487 0.4662797 0.5687816
0.5385787 0.4662797 0.5687816
0.5547519 0.4662797 0.5687816
0.5687816 0.4662797 0.5687816
0.092819 0.4961862 0.5687816
0.3544566 0.4961862 0.5687816
0.4244723 0.4961862 0.5687816
0.4662797 0.4961862 0.5687816
0.4961862 0.4961862 0.5687816
0.519487 0.4961862 0.5687816
0.5385787 0.4961862 0.5687816
0.5547519 0.4961862 0.5687816
0.5687816 0.4961862 0.5687816
0.092819 0.519487 0.5687816
0.3544566 0.519487 0.5687816
0.4244723 0.519487 0.5687816
0.4662797 0.519487 0.5687816
0.4961862 0.519487 0.5687816
0.519487 0.519487 0.5687816
0.5385787 0.519487 0.5687816
0.5547519 0.519487 0.5687816
0.5687816 0.519487 0.5687816
0.092819 0.5385787 0.5687816
0.3544566 0.5385787 0.5687816
0.4244723 0.5385787 0.5687816
0.4662797 0.5385787 0.5687816
0.4961862 0.5385787 0.5687816
0.519487 0.5385787 0.5687816
0.5385787 0.5385787 0.5687816
0.5547519 0.5385787 0.5687816
0.5687816 0.5385787 0.5687816
0.092819 0.5547519 0.5687816
0.3544566 0.5547519 0.5687816
0.4244723 0.5547519 0.5687816
0.4662797 0.5547519 0.5687816
0.4961862 0.5547519 0.5687816
0.519487 0.5547519 0.5687816
0.5385787 0.5547519 0.5687816
0.5547519 0.5547519 0.5687816
0.5687816 0.5547519 0.5687816
0.092819 0.5687816 0.5687816
0.3544566 0.5687816 0.5687816
0.4244723 0.5687816 0.5687816
0.4662797 0.5687816 0.5687816
0.4961862 0.5687816 0.5687816
0.519487 0.5687816 0.5687816
0.5385787 0.5687816 0.5687816
0.5547519 0.5687816 0.5687816
0.5687816 0.5687816 0.5687816
