com.unity.render-pipelines.high-definition/Samples~/PostProcessingData/Cube LUTs/Linear to sRGB r1.cube
TITLE "Linear to sRGB r1"
LUT_3D_SIZE 33
DOMAIN_MIN 0 0 0
DOMAIN_MAX 1 1 1
0 0 0
0.1939468 0 0
0.2773041 0 0
0.3384659 0 0
0.3885728 0 0
0.4317928 0 0
0.470214 0 0
0.5050551 0 0
0.5370987 0 0
0.5668815 0 0
0.5947903 0 0
0.6211144 0 0
0.6460766 0 0
0.6698526 0 0
0.6925839 0 0
0.7143866 0 0
0.7353569 0 0
0.7555758 0 0
0.7751122 0 0
0.7940252 0 0
0.8123661 0 0
0.8301795 0 0
0.8475045 0 0
0.8643761 0 0
0.880825 0 0
0.8968787 0 0
0.9125621 0 0
0.9278974 0 0
0.9429048 0 0
0.9576028 0 0
0.9720079 0 0
0.9861357 0 0
1 0 0
0 0.1939468 0
0.1939468 0.1939468 0
0.2773041 0.1939468 0
0.3384659 0.1939468 0
0.3885728 0.1939468 0
0.4317928 0.1939468 0
0.470214 0.1939468 0
0.5050551 0.1939468 0
0.5370987 0.1939468 0
0.5668815 0.1939468 0
0.5947903 0.1939468 0
0.6211144 0.1939468 0
0.6460766 0.1939468 0
0.6698526 0.1939468 0
0.6925839 0.1939468 0
0.7143866 0.1939468 0
0.7353569 0.1939468 0
0.7555758 0.1939468 0
0.7751122 0.1939468 0
0.7940252 0.1939468 0
0.8123661 0.1939468 0
0.8301795 0.1939468 0
0.8475045 0.1939468 0
0.8643761 0.1939468 0
0.880825 0.1939468 0
0.8968787 0.1939468 0
0.9125621 0.1939468 0
0.9278974 0.1939468 0
0.9429048 0.1939468 0
0.9576028 0.1939468 0
0.9720079 0.1939468 0
0.9861357 0.1939468 0
1 0.1939468 0
0 0.2773041 0
0.1939468 0.2773041 0
0.2773041 0.2773041 0
0.3384659 0.2773041 0
0.3885728 0.2773041 0
0.4317928 0.2773041 0
0.470214 0.2773041 0
0.5050551 0.2773041 0
0.5370987 0.2773041 0
0.5668815 0.2773041 0
0.5947903 0.2773041 0
0.6211144 0.2773041 0
0.6460766 0.2773041 0
0.6698526 0.2773041 0
0.6925839 0.2773041 0
0.7143866 0.2773041 0
0.7353569 0.2773041 0
0.7555758 0.2773041 0
0.7751122 0.2773041 0
0.7940252 0.2773041 0
0.8123661 0.2773041 0
0.8301795 0.2773041 0
0.8475045 0.2773041 0
0.8643761 0.2773041 0
0.880825 0.2773041 0
0.8968787 0.2773041 0
0.9125621 0.2773041 0
0.9278974 0.2773041 0
0.9429048 0.2773041 0
0.9576028 0.2773041 0
0.9720079 0.2773041 0
0.9861357 0.2773041 0
1 0.2773041 0
0 0.3384659 0
0.1939468 0.3384659 0
0.2773041 0.3384659 0
0.3384659 0.3384659 0
0.3885728 0.3384659 0
0.4317928 0.3384659 0
0.470214 0.3384659 0
0.5050551 0.3384659 0
0.5370987 0.3384659 0
0.5668815 0.3384659 0
0.5947903 0.3384659 0
0.6211144 0.3384659 0
0.6460766 0.3384659 0
0.6698526 0.3384659 0
0.6925839 0.3384659 0
0.7143866 0.3384659 0
0.7353569 0.3384659 0
0.7555758 0.3384659 0
0.7751122 0.3384659 0
0.7940252 0.3384659 0
0.8123661 0.3384659 0
0.8301795 0.3384659 0
0.8475045 0.3384659 0
0.8643761 0.3384659 0
0.880825 0.3384659 0
0.8968787 0.3384659 0
0.9125621 0.3384659 0
0.9278974 0.3384659 0
0.9429048 0.3384659 0
0.9576028 0.3384659 0
0.9720079 0.3384659 0
0.9861357 0.3384659 0
1 0.3384659 0
0 0.3885728 0
0.1939468 0.3885728 0
0.2773041 0.3885728 0
0.3384659 0.3885728 0
0.3885728 0.3885728 0
0.4317928 0.3885728 0
0.470214 0.3885728 0
0.5050551 0.3885728 0
0.5370987 0.3885728 0
0.5668815 0.3885728 0
0.5947903 0.3885728 0
0.6211144 0.3885728 0
0.6460766 0.3885728 0
0.6698526 0.3885728 0
0.6925839 0.3885728 0
0.7143866 0.3885728 0
0.7353569 0.3885728 0
0.7555758 0.3885728 0
0.7751122 0.3885728 0
0.7940252 0.3885728 0
0.8123661 0.3885728 0
0.8301795 0.3885728 0
0.8475045 0.3885728 0
0.8643761 0.3885728 0
0.880825 0.3885728 0
0.8968787 0.3885728 0
0.9125621 0.3885728 0
0.9278974 0.3885728 0
0.9429048 0.3885728 0
0.9576028 0.3885728 0
0.9720079 0.3885728 0
0.9861357 0.3885728 0
1 0.3885728 0
0 0.4317928 0
0.1939468 0.4317928 0
0.2773041 0.4317928 0
0.3384659 0.4317928 0
0.3885728 0.4317928 0
0.4317928 0.4317928 0
0.470214 0.4317928 0
0.5050551 0.4317928 0
0.5370987 0.4317928 0
0.5668815 0.4317928 0
0.5947903 0.4317928 0
0.6211144 0.4317928 0
0.6460766 0.4317928 0
0.6698526 0.4317928 0
0.6925839 0.4317928 0
0.7143866 0.4317928 0
0.7353569 0.4317928 0
0.7555758 0.4317928 0
0.7751122 0.4317928 0
0.7940252 0.4317928 0
0.8123661 0.4317928 0
0.8301795 0.4317928 0
0.8475045 0.4317928 0
0.8643761 0.4317928 0
0.880825 0.4317928 0
0.8968787 0.4317928 0
0.9125621 0.4317928 0
0.9278974 0.4317928 0
0.9429048 0.4317928 0
0.9576028 0.4317928 0
0.9720079 0.4317928 0
0.9861357 0.4317928 0
1 0.4317928 0
0 0.470214 0
0.1939468 0.470214 0
0.2773041 0.470214 0
0.3384659 0.470214 0
0.3885728 0.470214 0
0.4317928 0.470214 0
0.470214 0.470214 0
0.5050551 0.470214 0
0.5370987 0.470214 0
0.5668815 0.470214 0
0.5947903 0.470214 0
0.6211144 0.470214 0
0.6460766 0.470214 0
0.6698526 0.470214 0
0.6925839 0.470214 0
0.7143866 0.470214 0
0.7353569 0.470214 0
0.7555758 0.470214 0
0.7751122 0.470214 0
0.7940252 0.470214 0
0.8123661 0.470214 0
0.8301795 0.470214 0
0.8475045 0.470214 0
0.8643761 0.470214 0
0.880825 0.470214 0
0.8968787 0.470214 0
0.9125621 0.470214 0
0.9278974 0.470214 0
0.9429048 0.470214 0
0.9576028 0.470214 0
0.9720079 0.470214 0
0.9861357 0.470214 0
1 0.470214 0
0 0.5050551 0
0.1939468 0.5050551 0
0.2773041 0.5050551 0
0.3384659 0.5050551 0
0.3885728 0.5050551 0
0.4317928 0.5050551 0
0.470214 0.5050551 0
0.5050551 0.5050551 0
0.5370987 0.5050551 0
0.5668815 0.5050551 0
0.5947903 0.5050551 0
0.6211144 0.5050551 0
0.6460766 0.5050551 0
0.6698526 0.5050551 0
0.6925839 0.5050551 0
0.7143866 0.5050551 0
0.7353569 0.5050551 0
0.7555758 0.5050551 0
0.7751122 0.5050551 0
0.7940252 0.5050551 0
0.8123661 0.5050551 0
0.8301795 0.5050551 0
0.8475045 0.5050551 0
0.8643761 0.5050551 0
0.880825 0.5050551 0
0.8968787 0.5050551 0
0.9125621 0.5050551 0
0.9278974 0.5050551 0
0.9429048 0.5050551 0
0.9576028 0.5050551 0
0.9720079 0.5050551 0
0.9861357 0.5050551 0
1 0.5050551 0
0 0.5370987 0
0.1939468 0.5370987 0
0.2773041 0.5370987 0
0.3384659 0.5370987 0
0.3885728 0.5370987 0
0.4317928 0.5370987 0
0.470214 0.5370987 0
0.5050551 0.5370987 0
0.5370987 0.5370987 0
0.5668815 0.5370987 0
0.5947903 0.5370987 0
0.6211144 0.5370987 0
0.6460766 0.5370987 0
0.6698526 0.5370987 0
0.6925839 0.5370987 0
0.7143866 0.5370987 0
0.7353569 0.5370987 0
0.7555758 0.5370987 0
0.7751122 0.5370987 0
0.7940252 0.5370987 0
0.8123661 0.5370987 0
0.8301795 0.5370987 0
0.8475045 0.5370987 0
0.8643761 0.5370987 0
0.880825 0.5370987 0
0.8968787 0.5370987 0
0.9125621 0.5370987 0
0.9278974 0.5370987 0
0.9429048 0.5370987 0
0.9576028 0.5370987 0
0.9720079 0.5370987 0
0.9861357 0.5370987 0
1 0.5370987 0
0 0.5668815 0
0.1939468 0.5668815 0
0.2773041 0.5668815 0
0.3384659 0.5668815 0
0.3885728 0.5668815 0
0.4317928 0.5668815 0
0.470214 0.5668815 0
0.5050551 0.5668815 0
0.5370987 0.5668815 0
0.5668815 0.5668815 0
0.5947903 0.5668815 0
0.6211144 0.5668815 0
0.6460766 0.5668815 0
0.6698526 0.5668815 0
0.6925839 0.5668815 0
0.7143866 0.5668815 0
0.7353569 0.5668815 0
0.7555758 0.5668815 0
0.7751122 0.5668815 0
0.7940252 0.5668815 0
0.8123661 0.5668815 0
0.8301795 0.5668815 0
0.8475045 0.5668815 0
0.8643761 0.5668815 0
0.880825 0.5668815 0
0.8968787 0.5668815 0
0.9125621 0.5668815 0
0.9278974 0.5668815 0
0.9429048 0.5668815 0
0.9576028 0.5668815 0
0.9720079 0.5668815 0
0.9861357 0.5668815 0
1 0.5668815 0
0 0.5947903 0
0.1939468 0.5947903 0
0.2773041 0.5947903 0
0.3384659 0.5947903 0
0.3885728 0.5947903 0
0.4317928 0.5947903 0
0.470214 0.5947903 0
0.5050551 0.5947903 0
0.5370987 0.5947903 0
0.5668815 0.5947903 0
0.5947903 0.5947903 0
0.6211144 0.5947903 0
0.6460766 0.5947903 0
0.6698526 0.5947903 0
0.6925839 0.5947903 0
0.7143866 0.5947903 0
0.7353569 0.5947903 0
0.7555758 0.5947903 0
0.7751122 0.5947903 0
0.7940252 0.5947903 0
0.8123661 0.5947903 0
0.8301795 0.5947903 0
0.8475045 0.5947903 0
0.8643761 0.5947903 0
0.880825 0.5947903 0
0.8968787 0.5947903 0
0.9125621 0.5947903 0
0.9278974 0.5947903 0
0.9429048 0.5947903 0
0.9576028 0.5947903 0
0.9720079 0.5947903 0
0.9861357 0.5947903 0
1 0.5947903 0
0 0.6211144 0
0.1939468 0.6211144 0
0.2773041 0.6211144 0
0.3384659 0.6211144 0
0.3885728 0.6211144 0
0.4317928 0.6211144 0
0.470214 0.6211144 0
0.5050551 0.6211144 0
0.5370987 0.6211144 0
0.5668815 0.6211144 0
0.5947903 0.6211144 0
0.6211144 0.6211144 0
0.6460766 0.6211144 0
0.6698526 0.6211144 0
0.6925839 0.6211144 0
0.7143866 0.6211144 0
0.7353569 0.6211144 0
0.7555758 0.6211144 0
0.7751122 0.6211144 0
0.7940252 0.6211144 0
0.8123661 0.6211144 0
0.8301795 0.6211144 0
0.8475045 0.6211144 0
0.8643761 0.6211144 0
0.880825 0.6211144 0
0.8968787 0.6211144 0
0.9125621 0.6211144 0
0.9278974 0.6211144 0
0.9429048 0.6211144 0
0.9576028 0.6211144 0
0.9720079 0.6211144 0
0.9861357 0.6211144 0
1 0.6211144 0
0 0.6460766 0
0.1939468 0.6460766 0
0.2773041 0.6460766 0
0.3384659 0.6460766 0
0.3885728 0.6460766 0
0.4317928 0.6460766 0
0.470214 0.6460766 0
0.5050551 0.6460766 0
0.5370987 0.6460766 0
0.5668815 0.6460766 0
0.5947903 0.6460766 0
0.6211144 0.6460766 0
0.6460766 0.6460766 0
0.6698526 0.6460766 0
0.6925839 0.6460766 0
0.7143866 0.6460766 0
0.7353569 0.6460766 0
0.7555758 0.6460766 0
0.7751122 0.6460766 0
0.7940252 0.6460766 0
0.8123661 0.6460766 0
0.8301795 0.6460766 0
0.8475045 0.6460766 0
0.8643761 0.6460766 0
0.880825 0.6460766 0
0.8968787 0.6460766 0
0.9125621 0.6460766 0
0.9278974 0.6460766 0
0.9429048 0.6460766 0
0.9576028 0.6460766 0
0.9720079 0.6460766 0
0.9861357 0.6460766 0
1 0.6460766 0
0 0.6698526 0
0.1939468 0.6698526 0
0.2773041 0.6698526 0
0.3384659 0.6698526 0
0.3885728 0.6698526 0
0.4317928 0.6698526 0
0.470214 0.6698526 0
0.5050551 0.6698526 0
0.5370987 0.6698526 0
0.5668815 0.6698526 0
0.5947903 0.6698526 0
0.6211144 0.6698526 0
0.6460766 0.6698526 0
0.6698526 0.6698526 0
0.6925839 0.6698526 0
0.7143866 0.6698526 0
0.7353569 0.6698526 0
0.7555758 0.6698526 0
0.7751122 0.6698526 0
0.7940252 0.6698526 0
0.8123661 0.6698526 0
0.8301795 0.6698526 0
0.8475045 0.6698526 0
0.8643761 0.6698526 0
0.880825 0.6698526 0
0.8968787 0.6698526 0
0.9125621 0.6698526 0
0.9278974 0.6698526 0
0.9429048 0.6698526 0
0.9576028 0.6698526 0
0.9720079 0.6698526 0
0.9861357 0.6698526 0
1 0.6698526 0
0 0.6925839 0
0.1939468 0.6925839 0
0.2773041 0.6925839 0
0.3384659 0.6925839 0
0.3885728 0.6925839 0
0.4317928 0.6925839 0
0.470214 0.6925839 0
0.5050551 0.6925839 0
0.5370987 0.6925839 0
0.5668815 0.6925839 0
0.5947903 0.6925839 0
0.6211144 0.6925839 0
0.6460766 0.6925839 0
0.6698526 0.6925839 0
0.6925839 0.6925839 0
0.7143866 0.6925839 0
0.7353569 0.6925839 0
0.7555758 0.6925839 0
0.7751122 0.6925839 0
0.7940252 0.6925839 0
0.8123661 0.6925839 0
0.8301795 0.6925839 0
0.8475045 0.6925839 0
0.8643761 0.6925839 0
0.880825 0.6925839 0
0.8968787 0.6925839 0
0.9125621 0.6925839 0
0.9278974 0.6925839 0
0.9429048 0.6925839 0
0.9576028 0.6925839 0
0.9720079 0.6925839 0
0.9861357 0.6925839 0
1 0.6925839 0
0 0.7143866 0
0.1939468 0.7143866 0
0.2773041 0.7143866 0
0.3384659 0.7143866 0
0.3885728 0.7143866 0
0.4317928 0.7143866 0
0.470214 0.7143866 0
0.5050551 0.7143866 0
0.5370987 0.7143866 0
0.5668815 0.7143866 0
0.5947903 0.7143866 0
0.6211144 0.7143866 0
0.6460766 0.7143866 0
0.6698526 0.7143866 0
0.6925839 0.7143866 0
0.7143866 0.7143866 0
0.7353569 0.7143866 0
0.7555758 0.7143866 0
0.7751122 0.7143866 0
0.7940252 0.7143866 0
0.8123661 0.7143866 0
0.8301795 0.7143866 0
0.8475045 0.7143866 0
0.8643761 0.7143866 0
0.880825 0.7143866 0
0.8968787 0.7143866 0
0.9125621 0.7143866 0
0.9278974 0.7143866 0
0.9429048 0.7143866 0
0.9576028 0.7143866 0
0.9720079 0.7143866 0
0.9861357 0.7143866 0
1 0.7143866 0
0 0.7353569 0
0.1939468 0.7353569 0
0.2773041 0.7353569 0
0.3384659 0.7353569 0
0.3885728 0.7353569 0
0.4317928 0.7353569 0
0.470214 0.7353569 0
0.5050551 0.7353569 0
0.5370987 0.7353569 0
0.5668815 0.7353569 0
0.5947903 0.7353569 0
0.6211144 0.7353569 0
0.6460766 0.7353569 0
0.6698526 0.7353569 0
0.6925839 0.7353569 0
0.7143866 0.7353569 0
0.7353569 0.7353569 0
0.7555758 0.7353569 0
0.7751122 0.7353569 0
0.7940252 0.7353569 0
0.8123661 0.7353569 0
0.8301795 0.7353569 0
0.8475045 0.7353569 0
0.8643761 0.7353569 0
0.880825 0.7353569 0
0.8968787 0.7353569 0
0.9125621 0.7353569 0
0.9278974 0.7353569 0
0.9429048 0.7353569 0
0.9576028 0.7353569 0
0.9720079 0.7353569 0
0.9861357 0.7353569 0
1 0.7353569 0
0 0.7555758 0
0.1939468 0.7555758 0
0.2773041 0.7555758 0
0.3384659 0.7555758 0
0.3885728 0.7555758 0
0.4317928 0.7555758 0
0.470214 0.7555758 0
0.5050551 0.7555758 0
0.5370987 0.7555758 0
0.5668815 0.7555758 0
0.5947903 0.7555758 0
0.6211144 0.7555758 0
0.6460766 0.7555758 0
0.6698526 0.7555758 0
0.6925839 0.7555758 0
0.7143866 0.7555758 0
0.7353569 0.7555758 0
0.7555758 0.7555758 0
0.7751122 0.7555758 0
0.7940252 0.7555758 0
0.8123661 0.7555758 0
0.8301795 0.7555758 0
0.8475045 0.7555758 0
0.8643761 0.7555758 0
0.880825 0.7555758 0
0.8968787 0.7555758 0
0.9125621 0.7555758 0
0.9278974 0.7555758 0
0.9429048 0.7555758 0
0.9576028 0.7555758 0
0.9720079 0.7555758 0
0.9861357 0.7555758 0
1 0.7555758 0
0 0.7751122 0
0.1939468 0.7751122 0
0.2773041 0.7751122 0
0.3384659 0.7751122 0
0.3885728 0.7751122 0
0.4317928 0.7751122 0
0.470214 0.7751122 0
0.5050551 0.7751122 0
0.5370987 0.7751122 0
0.5668815 0.7751122 0
0.5947903 0.7751122 0
0.6211144 0.7751122 0
0.6460766 0.7751122 0
0.6698526 0.7751122 0
0.6925839 0.7751122 0
0.7143866 0.7751122 0
0.7353569 0.7751122 0
0.7555758 0.7751122 0
0.7751122 0.7751122 0
0.7940252 0.7751122 0
0.8123661 0.7751122 0
0.8301795 0.7751122 0
0.8475045 0.7751122 0
0.8643761 0.7751122 0
0.880825 0.7751122 0
0.8968787 0.7751122 0
0.9125621 0.7751122 0
0.9278974 0.7751122 0
0.9429048 0.7751122 0
0.9576028 0.7751122 0
0.9720079 0.7751122 0
0.9861357 0.7751122 0
1 0.7751122 0
0 0.7940252 0
0.1939468 0.7940252 0
0.2773041 0.7940252 0
0.3384659 0.7940252 0
0.3885728 0.7940252 0
0.4317928 0.7940252 0
0.470214 0.7940252 0
0.5050551 0.7940252 0
0.5370987 0.7940252 0
0.5668815 0.7940252 0
0.5947903 0.7940252 0
0.6211144 0.7940252 0
0.6460766 0.7940252 0
0.6698526 0.7940252 0
0.6925839 0.7940252 0
0.7143866 0.7940252 0
0.7353569 0.7940252 0
0.7555758 0.7940252 0
0.7751122 0.7940252 0
0.7940252 0.7940252 0
0.8123661 0.7940252 0
0.8301795 0.7940252 0
0.8475045 0.7940252 0
0.8643761 0.7940252 0
0.880825 0.7940252 0
0.8968787 0.7940252 0
0.9125621 0.7940252 0
0.9278974 0.7940252 0
0.9429048 0.7940252 0
0.9576028 0.7940252 0
0.9720079 0.7940252 0
0.9861357 0.7940252 0
1 0.7940252 0
0 0.8123661 0
0.1939468 0.8123661 0
0.2773041 0.8123661 0
0.3384659 0.8123661 0
0.3885728 0.8123661 0
0.4317928 0.8123661 0
0.470214 0.8123661 0
0.5050551 0.8123661 0
0.5370987 0.8123661 0
0.5668815 0.8123661 0
0.5947903 0.8123661 0
0.6211144 0.8123661 0
0.6460766 0.8123661 0
0.6698526 0.8123661 0
0.6925839 0.8123661 0
0.7143866 0.8123661 0
0.7353569 0.8123661 0
0.7555758 0.8123661 0
0.7751122 0.8123661 0
0.7940252 0.8123661 0
0.8123661 0.8123661 0
0.8301795 0.8123661 0
0.8475045 0.8123661 0
0.8643761 0.8123661 0
0.880825 0.8123661 0
0.8968787 0.8123661 0
0.9125621 0.8123661 0
0.9278974 0.8123661 0
0.9429048 0.8123661 0
0.9576028 0.8123661 0
0.9720079 0.8123661 0
0.9861357 0.8123661 0
1 0.8123661 0
0 0.8301795 0
0.1939468 0.8301795 0
0.2773041 0.8301795 0
0.3384659 0.8301795 0
0.3885728 0.8301795 0
0.4317928 0.8301795 0
0.470214 0.8301795 0
0.5050551 0.8301795 0
0.5370987 0.8301795 0
0.5668815 0.8301795 0
0.5947903 0.8301795 0
0.6211144 0.8301795 0
0.6460766 0.8301795 0
0.6698526 0.8301795 0
0.6925839 0.8301795 0
0.7143866 0.8301795 0
0.7353569 0.8301795 0
0.7555758 0.8301795 0
0.7751122 0.8301795 0
0.7940252 0.8301795 0
0.8123661 0.8301795 0
0.8301795 0.8301795 0
0.8475045 0.8301795 0
0.8643761 0.8301795 0
0.880825 0.8301795 0
0.8968787 0.8301795 0
0.9125621 0.8301795 0
0.9278974 0.8301795 0
0.9429048 0.8301795 0
0.9576028 0.8301795 0
0.9720079 0.8301795 0
0.9861357 0.8301795 0
1 0.8301795 0
0 0.8475045 0
0.1939468 0.8475045 0
0.2773041 0.8475045 0
0.3384659 0.8475045 0
0.3885728 0.8475045 0
0.4317928 0.8475045 0
0.470214 0.8475045 0
0.5050551 0.8475045 0
0.5370987 0.8475045 0
0.5668815 0.8475045 0
0.5947903 0.8475045 0
0.6211144 0.8475045 0
0.6460766 0.8475045 0
0.6698526 0.8475045 0
0.6925839 0.8475045 0
0.7143866 0.8475045 0
0.7353569 0.8475045 0
0.7555758 0.8475045 0
0.7751122 0.8475045 0
0.7940252 0.8475045 0
0.8123661 0.8475045 0
0.8301795 0.8475045 0
0.8475045 0.8475045 0
0.8643761 0.8475045 0
0.880825 0.8475045 0
0.8968787 0.8475045 0
0.9125621 0.8475045 0
0.9278974 0.8475045 0
0.9429048 0.8475045 0
0.9576028 0.8475045 0
0.9720079 0.8475045 0
0.9861357 0.8475045 0
1 0.8475045 0
0 0.8643761 0
0.1939468 0.8643761 0
0.2773041 0.8643761 0
0.3384659 0.8643761 0
0.3885728 0.8643761 0
0.4317928 0.8643761 0
0.470214 0.8643761 0
0.5050551 0.8643761 0
0.5370987 0.8643761 0
0.5668815 0.8643761 0
0.5947903 0.8643761 0
0.6211144 0.8643761 0
0.6460766 0.8643761 0
0.6698526 0.8643761 0
0.6925839 0.8643761 0
0.7143866 0.8643761 0
0.7353569 0.8643761 0
0.7555758 0.8643761 0
0.7751122 0.8643761 0
0.7940252 0.8643761 0
0.8123661 0.8643761 0
0.8301795 0.8643761 0
0.8475045 0.8643761 0
0.8643761 0.8643761 0
0.880825 0.8643761 0
0.8968787 0.8643761 0
0.9125621 0.8643761 0
0.9278974 0.8643761 0
0.9429048 0.8643761 0
0.9576028 0.8643761 0
0.9720079 0.8643761 0
0.9861357 0.8643761 0
1 0.8643761 0
0 0.880825 0
0.1939468 0.880825 0
0.2773041 0.880825 0
0.3384659 0.880825 0
0.3885728 0.880825 0
0.4317928 0.880825 0
0.470214 0.880825 0
0.5050551 0.880825 0
0.5370987 0.880825 0
0.5668815 0.880825 0
0.5947903 0.880825 0
0.6211144 0.880825 0
0.6460766 0.880825 0
0.6698526 0.880825 0
0.6925839 0.880825 0
0.7143866 0.880825 0
0.7353569 0.880825 0
0.7555758 0.880825 0
0.7751122 0.880825 0
0.7940252 0.880825 0
0.8123661 0.880825 0
0.8301795 0.880825 0
0.8475045 0.880825 0
0.8643761 0.880825 0
0.880825 0.880825 0
0.8968787 0.880825 0
0.9125621 0.880825 0
0.9278974 0.880825 0
0.9429048 0.880825 0
0.9576028 0.880825 0
0.9720079 0.880825 0
0.9861357 0.880825 0
1 0.880825 0
0 0.8968787 0
0.1939468 0.8968787 0
0.2773041 0.8968787 0
0.3384659 0.8968787 0
0.3885728 0.8968787 0
0.4317928 0.8968787 0
0.470214 0.8968787 0
0.5050551 0.8968787 0
0.5370987 0.8968787 0
0.5668815 0.8968787 0
0.5947903 0.8968787 0
0.6211144 0.8968787 0
0.6460766 0.8968787 0
0.6698526 0.8968787 0
0.6925839 0.8968787 0
0.7143866 0.8968787 0
0.7353569 0.8968787 0
0.7555758 0.8968787 0
0.7751122 0.8968787 0
0.7940252 0.8968787 0
0.8123661 0.8968787 0
0.8301795 0.8968787 0
0.8475045 0.8968787 0
0.8643761 0.8968787 0
0.880825 0.8968787 0
0.8968787 0.8968787 0
0.9125621 0.8968787 0
0.9278974 0.8968787 0
0.9429048 0.8968787 0
0.9576028 0.8968787 0
0.9720079 0.8968787 0
0.9861357 0.8968787 0
1 0.8968787 0
0 0.9125621 0
0.1939468 0.9125621 0
0.2773041 0.9125621 0
0.3384659 0.9125621 0
0.3885728 0.9125621 0
0.4317928 0.9125621 0
0.470214 0.9125621 0
0.5050551 0.9125621 0
0.5370987 0.9125621 0
0.5668815 0.9125621 0
0.5947903 0.9125621 0
0.6211144 0.9125621 0
0.6460766 0.9125621 0
0.6698526 0.9125621 0
0.6925839 0.9125621 0
0.7143866 0.9125621 0
0.7353569 0.9125621 0
0.7555758 0.9125621 0
0.7751122 0.9125621 0
0.7940252 0.9125621 0
0.8123661 0.9125621 0
0.8301795 0.9125621 0
0.8475045 0.9125621 0
0.8643761 0.9125621 0
0.880825 0.9125621 0
0.8968787 0.9125621 0
0.9125621 0.9125621 0
0.9278974 0.9125621 0
0.9429048 0.9125621 0
0.9576028 0.9125621 0
0.9720079 0.9125621 0
0.9861357 0.9125621 0
1 0.9125621 0
0 0.9278974 0
0.1939468 0.9278974 0
0.2773041 0.9278974 0
0.3384659 0.9278974 0
0.3885728 0.9278974 0
0.4317928 0.9278974 0
0.470214 0.9278974 0
0.5050551 0.9278974 0
0.5370987 0.9278974 0
