com.unity.render-pipelines.high-definition/Samples~/PostProcessingData/Cube LUTs/Linear to sRGB r1.cube
TITLE "Linear to sRGB r1"
LUT_3D_SIZE 5
DOMAIN_MIN 0 0 0
DOMAIN_MAX 1 1 1
0 0 0
0.5370987 0 0
0.7353569 0 0
0.880825 0 0
1 0 0
0 0.5370987 0
0.5370987 0.5370987 0
0.7353569 0.5370987 0
0.880825 0.5370987 0
1 0.5370987 0
0 0.7353569 0
0.5370987 0.7353569 0
0.7353569 0.7353569 0
0.880825 0.7353569 0
1 0.7353569 0
0 0.880825 0
0.5370987 0.880825 0
0.7353569 0.880825 0
0.880825 0.880825 0
1 0.880825 0
0 1 0
0.5370987 1 0
0.7353569 1 0
0.880825 1 0
1 1 0
0 0 0.5370987
0.5370987 0 0.5370987
0.7353569 0 0.5370987
0.880825 0 0.5370987
1 0 0.5370987
0 0.5370987 0.5370987
0.5370987 0.5370987 0.5370987
0.7353569 0.5370987 0.5370987
0.880825 0.5370987 0.5370987
1 0.5370987 0.5370987
0 0.7353569 0.5370987
0.5370987 0.7353569 0.5370987
0.7353569 0.7353569 0.5370987
0.880825 0.7353569 0.5370987
1 0.7353569 0.5370987
0 0.880825 0.5370987
0.5370987 0.880825 0.5370987
0.7353569 0.880825 0.5370987
0.880825 0.880825 0.5370987
1 0.880825 0.5370987
0 1 0.5370987
0.5370987 1 0.5370987
0.7353569 1 0.5370987
0.880825 1 0.5370987
1 1 0.5370987
0 0 0.7353569
0.5370987 0 0.7353569
0.7353569 0 0.7353569
0.880825 0 0.7353569
1 0 0.7353569
0 0.5370987 0.7353569
0.5370987 0.5370987 0.7353569
0.7353569 0.5370987 0.7353569
0.880825 0.5370987 0.7353569
1 0.5370987 0.7353569
0 0.7353569 0.7353569
0.5370987 0.7353569 0.7353569
0.7353569 0.7353569 0.7353569
0.880825 0.7353569 0.7353569
1 0.7353569 0.7353569
0 0.880825 0.7353569
0.5370987 0.880825 0.7353569
0.7353569 0.880825 0.7353569
0.880825 0.880825 0.7353569
1 0.880825 0.7353569
0 1 0.7353569
0.5370987 1 0.7353569
0.7353569 1 0.7353569
0.880825 1 0.7353569
1 1 0.7353569
0 0 0.880825
0.5370987 0 0.880825
0.7353569 0 0.880825
0.880825 0 0.880825
1 0 0.880825
0 0.5370987 0.880825
0.5370987 0.5370987 0.880825
0.7353569 0.5370987 0.880825
0.880825 0.5370987 0.880825
1 0.5370987 0.880825
0 0.7353569 0.880825
0.5370987 0.7353569 0.880825
0.7353569 0.7353569 0.880825
0.880825 0.7353569 0.880825
1 0.7353569 0.880825
0 0.880825 0.880825
0.5370987 0.880825 0.880825
0.7353569 0.880825 0.880825
0.880825 0.880825 0.880825
1 0.880825 0.880825
0 1 0.880825
0.5370987 1 0.880825
0.7353569 1 0.880825
0.880825 1 0.880825
1 1 0.880825
0 0 1
0.5370987 0 1
0.7353569 0 1
0.880825 0 1
1 0 1
0 0.5370987 1
0.5370987 0.5370987 1
0.7353569 0.5370987 1
0.880825 0.5370987 1
1 0.5370987 1
0 0.7353569 1
0.5370987 0.7353569 1
0.7353569 0.7353569 1
0.880825 0.7353569 1
1 0.7353569 1
0 0.880825 1
0.5370987 0.880825 1
0.7353569 0.880825 1
0.880825 0.880825 1
1 0.880825 1
0 1 1
0.5370987 1 1
0.7353569 1 1
0.880825 1 1
1 1 1
