com.unity.render-pipelines.high-definition/Samples~/PostProcessingData/Cube LUTs/Linear to Unity Log r1.cube
TITLE "Linear to Unity Log r1"
LUT_3D_SIZE 5
DOMAIN_MIN 0 0 0
DOMAIN_MAX 1 1 1
0.092819 0.092819 0.092819
0.4244723 0.092819 0.092819
0.4961862 0.092819 0.092819
0.5385787 0.092819 0.092819
0.5687816 0.092819 0.092819
0.092819 0.4244723 0.092819
0.4244723 0.4244723 0.092819
0.4961862 0.4244723 0.092819
0.5385787 0.4244723 0.092819
0.5687816 0.4244723 0.092819
0.092819 0.4961862 0.092819
0.4244723 0.4961862 0.092819
0.4961862 0.4961862 0.092819
0.5385787 0.4961862 0.092819
0.5687816 0.4961862 0.092819
0.092819 0.5385787 0.092819
0.4244723 0.5385787 0.092819
0.4961862 0.5385787 0.092819
0.5385787 0.5385787 0.092819
0.5687816 0.5385787 0.092819
0.092819 0.5687816 0.092819
0.4244723 0.5687816 0.092819
0.4961862 0.5687816 0.092819
0.5385787 0.5687816 0.092819
0.5687816 0.5687816 0.092819
0.092819 0.092819 0.4244723
0.4244723 0.092819 0.4244723
0.4961862 0.092819 0.4244723
0.5385787 0.092819 0.4244723
0.5687816 0.092819 0.4244723
0.092819 0.4244723 0.4244723
0.4244723 0.4244723 0.4244723
0.4961862 0.4244723 0.4244723
0.5385787 0.4244723 0.4244723
0.5687816 0.4244723 0.4244723
0.092819 0.4961862 0.4244723
0.4244723 0.4961862 0.4244723
0.4961862 0.4961862 0.4244723
0.5385787 0.4961862 0.4244723
0.5687816 0.4961862 0.4244723
0.092819 0.5385787 0.4244723
0.4244723 0.5385787 0.4244723
0.4961862 0.5385787 0.4244723
0.5385787 0.5385787 0.4244723
0.5687816 0.5385787 0.4244723
0.092819 0.5687816 0.4244723
0.4244723 0.5687816 0.4244723
0.4961862 0.5687816 0.4244723
0.5385787 0.5687816 0.4244723
0.5687816 0.5687816 0.4244723
0.092819 0.092819 0.4961862
0.4244723 0.092819 0.4961862
0.4961862 0.092819 0.4961862
0.5385787 0.092819 0.4961862
0.5687816 0.092819 0.4961862
0.092819 0.4244723 0.4961862
0.4244723 0.4244723 0.4961862
0.4961862 0.4244723 0.4961862
0.5385787 0.4244723 0.4961862
0.5687816 0.4244723 0.4961862
0.092819 0.4961862 0.4961862
0.4244723 0.4961862 0.4961862
0.4961862 0.4961862 0.4961862
0.5385787 0.4961862 0.4961862
0.5687816 0.4961862 0.4961862
0.092819 0.5385787 0.4961862
0.4244723 0.5385787 0.4961862
0.4961862 0.5385787 0.4961862
0.5385787 0.5385787 0.4961862
0.5687816 0.5385787 0.4961862
0.092819 0.5687816 0.4961862
0.4244723 0.5687816 0.4961862
0.4961862 0.5687816 0.4961862
0.5385787 0.5687816 0.4961862
0.5687816 0.5687816 0.4961862
0.092819 0.092819 0.5385787
0.4244723 0.092819 0.5385787
0.4961862 0.092819 0.5385787
0.5385787 0.092819 0.5385787
0.5687816 0.092819 0.5385787
0.092819 0.4244723 0.5385787
0.4244723 0.4244723 0.5385787
0.4961862 0.4244723 0.5385787
0.5385787 0.4244723 0.5385787
0.5687816 0.4244723 0.5385787
0.092819 0.4961862 0.5385787
0.4244723 0.4961862 0.5385787
0.4961862 0.4961862 0.5385787
0.5385787 0.4961862 0.5385787
0.5687816 0.4961862 0.5385787
0.092819 0.5385787 0.5385787
0.4244723 0.5385787 0.5385787
0.4961862 0.5385787 0.5385787
0.5385787 0.5385787 0.5385787
0.5687816 0.5385787 0.5385787
0.092819 0.5687816 0.5385787
0.4244723 0.5687816 0.5385787
0.4961862 0.5687816 0.5385787
0.5385787 0.5687816 0.5385787
0.5687816 0.5687816 0.5385787
0.092819 0.092819 0.5687816
0.4244723 0.092819 0.5687816
0.4961862 0.092819 0.5687816
0.5385787 0.092819 0.5687816
0.5687816 0.092819 0.5687816
0.092819 0.4244723 0.5687816
0.4244723 0.4244723 0.5687816
0.4961862 0.4244723 0.5687816
0.5385787 0.4244723 0.5687816
0.5687816 0.4244723 0.5687816
0.092819 0.4961862 0.5687816
0.4244723 0.4961862 0.5687816
0.4961862 0.4961862 0.5687816
0.5385787 0.4961862 0.5687816
0.5687816 0.4961862 0.5687816
0.092819 0.5385787 0.5687816
0.4244723 0.5385787 0.5687816
0.4961862 0.5385787 0.5687816
0.5385787 0.5385787 0.5687816
0.5687816 0.5385787 0.5687816
0.092819 0.5687816 0.5687816
0.4244723 0.5687816 0.5687816
0.4961862 0.5687816 0.5687816
0.5385787 0.5687816 0.5687816
0.5687816 0.5687816 0.5687816
