com.unity.render-pipelines.high-definition/Samples~/PostProcessingData/Cube LUTs/Linear to sRGB r1.cube
TITLE "Linear to sRGB r1"
LUT_3D_SIZE 9
DOMAIN_MIN 0 0 0
DOMAIN_MAX 1 1 1
0 0 0
0.3885728 0 0
0.5370987 0 0
0.6460766 0 0
0.7353569 0 0
0.8123661 0 0
0.880825 0 0
0.9429048 0 0
1 0 0
0 0.3885728 0
0.3885728 0.3885728 0
0.5370987 0.3885728 0
0.6460766 0.3885728 0
0.7353569 0.3885728 0
0.8123661 0.3885728 0
0.880825 0.3885728 0
0.9429048 0.3885728 0
1 0.3885728 0
0 0.5370987 0
0.3885728 0.5370987 0
0.5370987 0.5370987 0
0.6460766 0.5370987 0
0.7353569 0.5370987 0
0.8123661 0.5370987 0
0.880825 0.5370987 0
0.9429048 0.5370987 0
1 0.5370987 0
0 0.6460766 0
0.3885728 0.6460766 0
0.5370987 0.6460766 0
0.6460766 0.6460766 0
0.7353569 0.6460766 0
0.8123661 0.6460766 0
0.880825 0.6460766 0
0.9429048 0.6460766 0
1 0.6460766 0
0 0.7353569 0
0.3885728 0.7353569 0
0.5370987 0.7353569 0
0.6460766 0.7353569 0
0.7353569 0.7353569 0
0.8123661 0.7353569 0
0.880825 0.7353569 0
0.9429048 0.7353569 0
1 0.7353569 0
0 0.8123661 0
0.3885728 0.8123661 0
0.5370987 0.8123661 0
0.6460766 0.8123661 0
0.7353569 0.8123661 0
0.8123661 0.8123661 0
0.880825 0.8123661 0
0.9429048 0.8123661 0
1 0.8123661 0
0 0.880825 0
0.3885728 0.880825 0
0.5370987 0.880825 0
0.6460766 0.880825 0
0.7353569 0.880825 0
0.8123661 0.880825 0
0.880825 0.880825 0
0.9429048 0.880825 0
1 0.880825 0
0 0.9429048 0
0.3885728 0.9429048 0
0.5370987 0.9429048 0
0.6460766 0.9429048 0
0.7353569 0.9429048 0
0.8123661 0.9429048 0
0.880825 0.9429048 0
0.9429048 0.9429048 0
1 0.9429048 0
0 1 0
0.3885728 1 0
0.5370987 1 0
0.6460766 1 0
0.7353569 1 0
0.8123661 1 0
0.880825 1 0
0.9429048 1 0
1 1 0
0 0 0.3885728
0.3885728 0 0.3885728
0.5370987 0 0.3885728
0.6460766 0 0.3885728
0.7353569 0 0.3885728
0.8123661 0 0.3885728
0.880825 0 0.3885728
0.9429048 0 0.3885728
1 0 0.3885728
0 0.3885728 0.3885728
0.3885728 0.3885728 0.3885728
0.5370987 0.3885728 0.3885728
0.6460766 0.3885728 0.3885728
0.7353569 0.3885728 0.3885728
0.8123661 0.3885728 0.3885728
0.880825 0.3885728 0.3885728
0.9429048 0.3885728 0.3885728
1 0.3885728 0.3885728
0 0.5370987 0.3885728
0.3885728 0.5370987 0.3885728
0.5370987 0.5370987 0.3885728
0.6460766 0.5370987 0.3885728
0.7353569 0.5370987 0.3885728
0.8123661 0.5370987 0.3885728
0.880825 0.5370987 0.3885728
0.9429048 0.5370987 0.3885728
1 0.5370987 0.3885728
0 0.6460766 0.3885728
0.3885728 0.6460766 0.3885728
0.5370987 0.6460766 0.3885728
0.6460766 0.6460766 0.3885728
0.7353569 0.6460766 0.3885728
0.8123661 0.6460766 0.3885728
0.880825 0.6460766 0.3885728
0.9429048 0.6460766 0.3885728
1 0.6460766 0.3885728
0 0.7353569 0.3885728
0.3885728 0.7353569 0.3885728
0.5370987 0.7353569 0.3885728
0.6460766 0.7353569 0.3885728
0.7353569 0.7353569 0.3885728
0.8123661 0.7353569 0.3885728
0.880825 0.7353569 0.3885728
0.9429048 0.7353569 0.3885728
1 0.7353569 0.3885728
0 0.8123661 0.3885728
0.3885728 0.8123661 0.3885728
0.5370987 0.8123661 0.3885728
0.6460766 0.8123661 0.3885728
0.7353569 0.8123661 0.3885728
0.8123661 0.8123661 0.3885728
0.880825 0.8123661 0.3885728
0.9429048 0.8123661 0.3885728
1 0.8123661 0.3885728
0 0.880825 0.3885728
0.3885728 0.880825 0.3885728
0.5370987 0.880825 0.3885728
0.6460766 0.880825 0.3885728
0.7353569 0.880825 0.3885728
0.8123661 0.880825 0.3885728
0.880825 0.880825 0.3885728
0.9429048 0.880825 0.3885728
1 0.880825 0.3885728
0 0.9429048 0.3885728
0.3885728 0.9429048 0.3885728
0.5370987 0.9429048 0.3885728
0.6460766 0.9429048 0.3885728
0.7353569 0.9429048 0.3885728
0.8123661 0.9429048 0.3885728
0.880825 0.9429048 0.3885728
0.9429048 0.9429048 0.3885728
1 0.9429048 0.3885728
0 1 0.3885728
0.3885728 1 0.3885728
0.5370987 1 0.3885728
0.6460766 1 0.3885728
0.7353569 1 0.3885728
0.8123661 1 0.3885728
0.880825 1 0.3885728
0.9429048 1 0.3885728
1 1 0.3885728
0 0 0.5370987
0.3885728 0 0.5370987
0.5370987 0 0.5370987
0.6460766 0 0.5370987
0.7353569 0 0.5370987
0.8123661 0 0.5370987
0.880825 0 0.5370987
0.9429048 0 0.5370987
1 0 0.5370987
0 0.3885728 0.5370987
0.3885728 0.3885728 0.5370987
0.5370987 0.3885728 0.5370987
0.6460766 0.3885728 0.5370987
0.7353569 0.3885728 0.5370987
0.8123661 0.3885728 0.5370987
0.880825 0.3885728 0.5370987
0.9429048 0.3885728 0.5370987
1 0.3885728 0.5370987
0 0.5370987 0.5370987
0.3885728 0.5370987 0.5370987
0.5370987 0.5370987 0.5370987
0.6460766 0.5370987 0.5370987
0.7353569 0.5370987 0.5370987
0.8123661 0.5370987 0.5370987
0.880825 0.5370987 0.5370987
0.9429048 0.5370987 0.5370987
1 0.5370987 0.5370987
0 0.6460766 0.5370987
0.3885728 0.6460766 0.5370987
0.5370987 0.6460766 0.5370987
0.6460766 0.6460766 0.5370987
0.7353569 0.6460766 0.5370987
0.8123661 0.6460766 0.5370987
0.880825 0.6460766 0.5370987
0.9429048 0.6460766 0.5370987
1 0.6460766 0.5370987
0 0.7353569 0.5370987
0.3885728 0.7353569 0.5370987
0.5370987 0.7353569 0.5370987
0.6460766 0.7353569 0.5370987
0.7353569 0.7353569 0.5370987
0.8123661 0.7353569 0.5370987
0.880825 0.7353569 0.5370987
0.9429048 0.7353569 0.5370987
1 0.7353569 0.5370987
0 0.8123661 0.5370987
0.3885728 0.8123661 0.5370987
0.5370987 0.8123661 0.5370987
0.6460766 0.8123661 0.5370987
0.7353569 0.8123661 0.5370987
0.8123661 0.8123661 0.5370987
0.880825 0.8123661 0.5370987
0.9429048 0.8123661 0.5370987
1 0.8123661 0.5370987
0 0.880825 0.5370987
0.3885728 0.880825 0.5370987
0.5370987 0.880825 0.5370987
0.6460766 0.880825 0.5370987
0.7353569 0.880825 0.5370987
0.8123661 0.880825 0.5370987
0.880825 0.880825 0.5370987
0.9429048 0.880825 0.5370987
1 0.880825 0.5370987
0 0.9429048 0.5370987
0.3885728 0.9429048 0.5370987
0.5370987 0.9429048 0.5370987
0.6460766 0.9429048 0.5370987
0.7353569 0.9429048 0.5370987
0.8123661 0.9429048 0.5370987
0.880825 0.9429048 0.5370987
0.9429048 0.9429048 0.5370987
1 0.9429048 0.5370987
0 1 0.5370987
0.3885728 1 0.5370987
0.5370987 1 0.5370987
0.6460766 1 0.5370987
0.7353569 1 0.5370987
0.8123661 1 0.5370987
0.880825 1 0.5370987
0.9429048 1 0.5370987
1 1 0.5370987
0 0 0.6460766
0.3885728 0 0.6460766
0.5370987 0 0.6460766
0.6460766 0 0.6460766
0.7353569 0 0.6460766
0.8123661 0 0.6460766
0.880825 0 0.6460766
0.9429048 0 0.6460766
1 0 0.6460766
0 0.3885728 0.6460766
0.3885728 0.3885728 0.6460766
0.5370987 0.3885728 0.6460766
0.6460766 0.3885728 0.6460766
0.7353569 0.3885728 0.6460766
0.8123661 0.3885728 0.6460766
0.880825 0.3885728 0.6460766
0.9429048 0.3885728 0.6460766
1 0.3885728 0.6460766
0 0.5370987 0.6460766
0.3885728 0.5370987 0.6460766
0.5370987 0.5370987 0.6460766
0.6460766 0.5370987 0.6460766
0.7353569 0.5370987 0.6460766
0.8123661 0.5370987 0.6460766
0.880825 0.5370987 0.6460766
0.9429048 0.5370987 0.6460766
1 0.5370987 0.6460766
0 0.6460766 0.6460766
0.3885728 0.6460766 0.6460766
0.5370987 0.6460766 0.6460766
0.6460766 0.6460766 0.6460766
0.7353569 0.6460766 0.6460766
0.8123661 0.6460766 0.6460766
0.880825 0.6460766 0.6460766
0.9429048 0.6460766 0.6460766
1 0.6460766 0.6460766
0 0.7353569 0.6460766
0.3885728 0.7353569 0.6460766
0.5370987 0.7353569 0.6460766
0.6460766 0.7353569 0.6460766
0.7353569 0.7353569 0.6460766
0.8123661 0.7353569 0.6460766
0.880825 0.7353569 0.6460766
0.9429048 0.7353569 0.6460766
1 0.7353569 0.6460766
0 0.8123661 0.6460766
0.3885728 0.8123661 0.6460766
0.5370987 0.8123661 0.6460766
0.6460766 0.8123661 0.6460766
0.7353569 0.8123661 0.6460766
0.8123661 0.8123661 0.6460766
0.880825 0.8123661 0.6460766
0.9429048 0.8123661 0.6460766
1 0.8123661 0.6460766
0 0.880825 0.6460766
0.3885728 0.880825 0.6460766
0.5370987 0.880825 0.6460766
0.6460766 0.880825 0.6460766
0.7353569 0.880825 0.6460766
0.8123661 0.880825 0.6460766
0.880825 0.880825 0.6460766
0.9429048 0.880825 0.6460766
1 0.880825 0.6460766
0 0.9429048 0.6460766
0.3885728 0.9429048 0.6460766
0.5370987 0.9429048 0.6460766
0.6460766 0.9429048 0.6460766
0.7353569 0.9429048 0.6460766
0.8123661 0.9429048 0.6460766
0.880825 0.9429048 0.6460766
0.9429048 0.9429048 0.6460766
1 0.9429048 0.6460766
0 1 0.6460766
0.3885728 1 0.6460766
0.5370987 1 0.6460766
0.6460766 1 0.6460766
0.7353569 1 0.6460766
0.8123661 1 0.6460766
0.880825 1 0.6460766
0.9429048 1 0.6460766
1 1 0.6460766
0 0 0.7353569
0.3885728 0 0.7353569
0.5370987 0 0.7353569
0.6460766 0 0.7353569
0.7353569 0 0.7353569
0.8123661 0 0.7353569
0.880825 0 0.7353569
0.9429048 0 0.7353569
1 0 0.7353569
0 0.3885728 0.7353569
0.3885728 0.3885728 0.7353569
0.5370987 0.3885728 0.7353569
0.6460766 0.3885728 0.7353569
0.7353569 0.3885728 0.7353569
0.8123661 0.3885728 0.7353569
0.880825 0.3885728 0.7353569
0.9429048 0.3885728 0.7353569
1 0.3885728 0.7353569
0 0.5370987 0.7353569
0.3885728 0.5370987 0.7353569
0.5370987 0.5370987 0.7353569
0.6460766 0.5370987 0.7353569
0.7353569 0.5370987 0.7353569
0.8123661 0.5370987 0.7353569
0.880825 0.5370987 0.7353569
0.9429048 0.5370987 0.7353569
1 0.5370987 0.7353569
0 0.6460766 0.7353569
0.3885728 0.6460766 0.7353569
0.5370987 0.6460766 0.7353569
0.6460766 0.6460766 0.7353569
0.7353569 0.6460766 0.7353569
0.8123661 0.6460766 0.7353569
0.880825 0.6460766 0.7353569
0.9429048 0.6460766 0.7353569
1 0.6460766 0.7353569
0 0.7353569 0.7353569
0.3885728 0.7353569 0.7353569
0.5370987 0.7353569 0.7353569
0.6460766 0.7353569 0.7353569
0.7353569 0.7353569 0.7353569
0.8123661 0.7353569 0.7353569
0.880825 0.7353569 0.7353569
0.9429048 0.7353569 0.7353569
1 0.7353569 0.7353569
0 0.8123661 0.7353569
0.3885728 0.8123661 0.7353569
0.5370987 0.8123661 0.7353569
0.6460766 0.8123661 0.7353569
0.7353569 0.8123661 0.7353569
0.8123661 0.8123661 0.7353569
0.880825 0.8123661 0.7353569
0.9429048 0.8123661 0.7353569
1 0.8123661 0.7353569
0 0.880825 0.7353569
0.3885728 0.880825 0.7353569
0.5370987 0.880825 0.7353569
0.6460766 0.880825 0.7353569
0.7353569 0.880825 0.7353569
0.8123661 0.880825 0.7353569
0.880825 0.880825 0.7353569
0.9429048 0.880825 0.7353569
1 0.880825 0.7353569
0 0.9429048 0.7353569
0.3885728 0.9429048 0.7353569
0.5370987 0.9429048 0.7353569
0.6460766 0.9429048 0.7353569
0.7353569 0.9429048 0.7353569
0.8123661 0.9429048 0.7353569
0.880825 0.9429048 0.7353569
0.9429048 0.9429048 0.7353569
1 0.9429048 0.7353569
0 1 0.7353569
0.3885728 1 0.7353569
0.5370987 1 0.7353569
0.6460766 1 0.7353569
0.7353569 1 0.7353569
0.8123661 1 0.7353569
0.880825 1 0.7353569
0.9429048 1 0.7353569
1 1 0.7353569
0 0 0.8123661
0.3885728 0 0.8123661
0.5370987 0 0.8123661
0.6460766 0 0.8123661
0.7353569 0 0.8123661
0.8123661 0 0.8123661
0.880825 0 0.8123661
0.9429048 0 0.8123661
1 0 0.8123661
0 0.3885728 0.8123661
0.3885728 0.3885728 0.8123661
0.5370987 0.3885728 0.8123661
0.6460766 0.3885728 0.8123661
0.7353569 0.3885728 0.8123661
0.8123661 0.3885728 0.8123661
0.880825 0.3885728 0.8123661
0.9429048 0.3885728 0.8123661
1 0.3885728 0.8123661
0 0.5370987 0.8123661
0.3885728 0.5370987 0.8123661
0.5370987 0.5370987 0.8123661
0.6460766 0.5370987 0.8123661
0.7353569 0.5370987 0.8123661
0.8123661 0.5370987 0.8123661
0.880825 0.5370987 0.8123661
0.9429048 0.5370987 0.8123661
1 0.5370987 0.8123661
0 0.6460766 0.8123661
0.3885728 0.6460766 0.8123661
0.5370987 0.6460766 0.8123661
0.6460766 0.6460766 0.8123661
0.7353569 0.6460766 0.8123661
0.8123661 0.6460766 0.8123661
0.880825 0.6460766 0.8123661
0.9429048 0.6460766 0.8123661
1 0.6460766 0.8123661
0 0.7353569 0.8123661
0.3885728 0.7353569 0.8123661
0.5370987 0.7353569 0.8123661
0.6460766 0.7353569 0.8123661
0.7353569 0.7353569 0.8123661
0.8123661 0.7353569 0.8123661
0.880825 0.7353569 0.8123661
0.9429048 0.7353569 0.8123661
1 0.7353569 0.8123661
0 0.8123661 0.8123661
0.3885728 0.8123661 0.8123661
0.5370987 0.8123661 0.8123661
0.6460766 0.8123661 0.8123661
0.7353569 0.8123661 0.8123661
0.8123661 0.8123661 0.8123661
0.880825 0.8123661 0.8123661
0.9429048 0.8123661 0.8123661
1 0.8123661 0.8123661
0 0.880825 0.8123661
0.3885728 0.880825 0.8123661
0.5370987 0.880825 0.8123661
0.6460766 0.880825 0.8123661
0.7353569 0.880825 0.8123661
0.8123661 0.880825 0.8123661
0.880825 0.880825 0.8123661
0.9429048 0.880825 0.8123661
1 0.880825 0.8123661
0 0.9429048 0.8123661
0.3885728 0.9429048 0.8123661
0.5370987 0.9429048 0.8123661
0.6460766 0.9429048 0.8123661
0.7353569 0.9429048 0.8123661
0.8123661 0.9429048 0.8123661
0.880825 0.9429048 0.8123661
0.9429048 0.9429048 0.8123661
1 0.9429048 0.8123661
0 1 0.8123661
0.3885728 1 0.8123661
0.5370987 1 0.8123661
0.6460766 1 0.8123661
0.7353569 1 0.8123661
0.8123661 1 0.8123661
0.880825 1 0.8123661
0.9429048 1 0.8123661
1 1 0.8123661
0 0 0.880825
0.3885728 0 0.880825
0.5370987 0 0.880825
0.6460766 0 0.880825
0.7353569 0 0.880825
0.8123661 0 0.880825
0.880825 0 0.880825
0.9429048 0 0.880825
1 0 0.880825
0 0.3885728 0.880825
0.3885728 0.3885728 0.880825
0.5370987 0.3885728 0.880825
0.6460766 0.3885728 0.880825
0.7353569 0.3885728 0.880825
0.8123661 0.3885728 0.880825
0.880825 0.3885728 0.880825
0.9429048 0.3885728 0.880825
1 0.3885728 0.880825
0 0.5370987 0.880825
0.3885728 0.5370987 0.880825
0.5370987 0.5370987 0.880825
0.6460766 0.5370987 0.880825
0.7353569 0.5370987 0.880825
0.8123661 0.5370987 0.880825
0.880825 0.5370987 0.880825
0.9429048 0.5370987 0.880825
1 0.5370987 0.880825
0 0.6460766 0.880825
0.3885728 0.6460766 0.880825
0.5370987 0.6460766 0.880825
0.6460766 0.6460766 0.880825
0.7353569 0.6460766 0.880825
0.8123661 0.6460766 0.880825
0.880825 0.6460766 0.880825
0.9429048 0.6460766 0.880825
1 0.6460766 0.880825
0 0.7353569 0.880825
0.3885728 0.7353569 0.880825
0.5370987 0.7353569 0.880825
0.6460766 0.7353569 0.880825
0.7353569 0.7353569 0.880825
0.8123661 0.7353569 0.880825
0.880825 0.7353569 0.880825
0.9429048 0.7353569 0.880825
1 0.7353569 0.880825
0 0.8123661 0.880825
0.3885728 0.8123661 0.880825
0.5370987 0.8123661 0.880825
0.6460766 0.8123661 0.880825
0.7353569 0.8123661 0.880825
0.8123661 0.8123661 0.880825
0.880825 0.8123661 0.880825
0.9429048 0.8123661 0.880825
1 0.8123661 0.880825
0 0.880825 0.880825
0.3885728 0.880825 0.880825
0.5370987 0.880825 0.880825
0.6460766 0.880825 0.880825
0.7353569 0.880825 0.880825
0.8123661 0.880825 0.880825
0.880825 0.880825 0.880825
0.9429048 0.880825 0.880825
1 0.880825 0.880825
0 0.9429048 0.880825
0.3885728 0.9429048 0.880825
0.5370987 0.9429048 0.880825
0.6460766 0.9429048 0.880825
0.7353569 0.9429048 0.880825
0.8123661 0.9429048 0.880825
0.880825 0.9429048 0.880825
0.9429048 0.9429048 0.880825
1 0.9429048 0.880825
0 1 0.880825
0.3885728 1 0.880825
0.5370987 1 0.880825
0.6460766 1 0.880825
0.7353569 1 0.880825
0.8123661 1 0.880825
0.880825 1 0.880825
0.9429048 1 0.880825
1 1 0.880825
0 0 0.9429048
0.3885728 0 0.9429048
0.5370987 0 0.9429048
0.6460766 0 0.9429048
0.7353569 0 0.9429048
0.8123661 0 0.9429048
0.880825 0 0.9429048
0.9429048 0 0.9429048
1 0 0.9429048
0 0.3885728 0.9429048
0.3885728 0.3885728 0.9429048
0.5370987 0.3885728 0.9429048
0.6460766 0.3885728 0.9429048
0.7353569 0.3885728 0.9429048
0.8123661 0.3885728 0.9429048
0.880825 0.3885728 0.9429048
0.9429048 0.3885728 0.9429048
1 0.3885728 0.9429048
0 0.5370987 0.9429048
0.3885728 0.5370987 0.9429048
0.5370987 0.5370987 0.9429048
0.6460766 0.5370987 0.9429048
0.7353569 0.5370987 0.9429048
0.8123661 0.5370987 0.9429048
0.880825 0.5370987 0.9429048
0.9429048 0.5370987 0.9429048
1 0.5370987 0.9429048
0 0.6460766 0.9429048
0.3885728 0.6460766 0.9429048
0.5370987 0.6460766 0.9429048
0.6460766 0.6460766 0.9429048
0.7353569 0.6460766 0.9429048
0.8123661 0.6460766 0.9429048
0.880825 0.6460766 0.9429048
0.9429048 0.6460766 0.9429048
1 0.6460766 0.9429048
0 0.7353569 0.9429048
0.3885728 0.7353569 0.9429048
0.5370987 0.7353569 0.9429048
0.6460766 0.7353569 0.9429048
0.7353569 0.7353569 0.9429048
0.8123661 0.7353569 0.9429048
0.880825 0.7353569 0.9429048
0.9429048 0.7353569 0.9429048
1 0.7353569 0.9429048
0 0.8123661 0.9429048
0.3885728 0.8123661 0.9429048
0.5370987 0.8123661 0.9429048
0.6460766 0.8123661 0.9429048
0.7353569 0.8123661 0.9429048
0.8123661 0.8123661 0.9429048
0.880825 0.8123661 0.9429048
0.9429048 0.8123661 0.9429048
1 0.8123661 0.9429048
0 0.880825 0.9429048
0.3885728 0.880825 0.9429048
0.5370987 0.880825 0.9429048
0.6460766 0.880825 0.9429048
0.7353569 0.880825 0.9429048
0.8123661 0.880825 0.9429048
0.880825 0.880825 0.9429048
0.9429048 0.880825 0.9429048
1 0.880825 0.9429048
0 0.9429048 0.9429048
0.3885728 0.9429048 0.9429048
0.5370987 0.9429048 0.9429048
0.6460766 0.9429048 0.9429048
0.7353569 0.9429048 0.9429048
0.8123661 0.9429048 0.9429048
0.880825 0.9429048 0.9429048
0.9429048 0.9429048 0.9429048
1 0.9429048 0.9429048
0 1 0.9429048
0.3885728 1 0.9429048
0.5370987 1 0.9429048
0.6460766 1 0.9429048
0.7353569 1 0.9429048
0.8123661 1 0.9429048
0.880825 1 0.9429048
0.9429048 1 0.9429048
1 1 0.9429048
0 0 1
0.3885728 0 1
0.5370987 0 1
0.6460766 0 1
0.7353569 0 1
0.8123661 0 1
0.880825 0 1
0.9429048 0 1
1 0 1
0 0.3885728 1
0.3885728 0.3885728 1
0.5370987 0.3885728 1
0.6460766 0.3885728 1
0.7353569 0.3885728 1
0.8123661 0.3885728 1
0.880825 0.3885728 1
0.9429048 0.3885728 1
1 0.3885728 1
0 0.5370987 1
0.3885728 0.5370987 1
0.5370987 0.5370987 1
0.6460766 0.5370987 1
0.7353569 0.5370987 1
0.8123661 0.5370987 1
0.880825 0.5370987 1
0.9429048 0.5370987 1
1 0.5370987 1
0 0.6460766 1
0.3885728 0.6460766 1
0.5370987 0.6460766 1
0.6460766 0.6460766 1
0.7353569 0.6460766 1
0.8123661 0.6460766 1
0.880825 0.6460766 1
0.9429048 0.6460766 1
1 0.6460766 1
0 0.7353569 1
0.3885728 0.7353569 1
0.5370987 0.7353569 1
0.6460766 0.7353569 1
0.7353569 0.7353569 1
0.8123661 0.7353569 1
0.880825 0.7353569 1
0.9429048 0.7353569 1
1 0.7353569 1
0 0.8123661 1
0.3885728 0.8123661 1
0.5370987 0.8123661 1
0.6460766 0.8123661 1
0.7353569 0.8123661 1
0.8123661 0.8123661 1
0.880825 0.8123661 1
0.9429048 0.8123661 1
1 0.8123661 1
0 0.880825 1
0.3885728 0.880825 1
0.5370987 0.880825 1
0.6460766 0.880825 1
0.7353569 0.880825 1
0.8123661 0.880825 1
0.880825 0.880825 1
0.9429048 0.880825 1
1 0.880825 1
0 0.9429048 1
0.3885728 0.9429048 1
0.5370987 0.9429048 1
0.6460766 0.9429048 1
0.7353569 0.9429048 1
0.8123661 0.9429048 1
0.880825 0.9429048 1
0.9429048 0.9429048 1
1 0.9429048 1
0 1 1
0.3885728 1 1
0.5370987 1 1
0.6460766 1 1
0.7353569 1 1
0.8123661 1 1
0.880825 1 1
0.9429048 1 1
1 1 1
