com.unity.render-pipelines.high-definition/Samples~/PostProcessingData/Cube LUTs/sRGB to Linear r1.cube
TITLE "sRGB to Linear r1"
LUT_3D_SIZE 5
DOMAIN_MIN 0 0 0
DOMAIN_MAX 1 1 1
0 0 0
0.05087609 0 0
0.2140411 0 0
0.5225216 0 0
1 0 0
0 0.05087609 0
0.05087609 0.05087609 0
0.2140411 0.05087609 0
0.5225216 0.05087609 0
1 0.05087609 0
0 0.2140411 0
0.05087609 0.2140411 0
0.2140411 0.2140411 0
0.5225216 0.2140411 0
1 0.2140411 0
0 0.5225216 0
0.05087609 0.5225216 0
0.2140411 0.5225216 0
0.5225216 0.5225216 0
1 0.5225216 0
0 1 0
0.05087609 1 0
0.2140411 1 0
0.5225216 1 0
1 1 0
0 0 0.05087609
0.05087609 0 0.05087609
0.2140411 0 0.05087609
0.5225216 0 0.05087609
1 0 0.05087609
0 0.05087609 0.05087609
0.05087609 0.05087609 0.05087609
0.2140411 0.05087609 0.05087609
0.5225216 0.05087609 0.05087609
1 0.05087609 0.05087609
0 0.2140411 0.05087609
0.05087609 0.2140411 0.05087609
0.2140411 0.2140411 0.05087609
0.5225216 0.2140411 0.05087609
1 0.2140411 0.05087609
0 0.5225216 0.05087609
0.05087609 0.5225216 0.05087609
0.2140411 0.5225216 0.05087609
0.5225216 0.5225216 0.05087609
1 0.5225216 0.05087609
0 1 0.05087609
0.05087609 1 0.05087609
0.2140411 1 0.05087609
0.5225216 1 0.05087609
1 1 0.05087609
0 0 0.2140411
0.05087609 0 0.2140411
0.2140411 0 0.2140411
0.5225216 0 0.2140411
1 0 0.2140411
0 0.05087609 0.2140411
0.05087609 0.05087609 0.2140411
0.2140411 0.05087609 0.2140411
0.5225216 0.05087609 0.2140411
1 0.05087609 0.2140411
0 0.2140411 0.2140411
0.05087609 0.2140411 0.2140411
0.2140411 0.2140411 0.2140411
0.5225216 0.2140411 0.2140411
1 0.2140411 0.2140411
0 0.5225216 0.2140411
0.05087609 0.5225216 0.2140411
0.2140411 0.5225216 0.2140411
0.5225216 0.5225216 0.2140411
1 0.5225216 0.2140411
0 1 0.2140411
0.05087609 1 0.2140411
0.2140411 1 0.2140411
0.5225216 1 0.2140411
1 1 0.2140411
0 0 0.5225216
0.05087609 0 0.5225216
0.2140411 0 0.5225216
0.5225216 0 0.5225216
1 0 0.5225216
0 0.05087609 0.5225216
0.05087609 0.05087609 0.5225216
0.2140411 0.05087609 0.5225216
0.5225216 0.05087609 0.5225216
1 0.05087609 0.5225216
0 0.2140411 0.5225216
0.05087609 0.2140411 0.5225216
0.2140411 0.2140411 0.5225216
0.5225216 0.2140411 0.5225216
1 0.2140411 0.5225216
0 0.5225216 0.5225216
0.05087609 0.5225216 0.5225216
0.2140411 0.5225216 0.5225216
0.5225216 0.5225216 0.5225216
1 0.5225216 0.5225216
0 1 0.5225216
0.05087609 1 0.5225216
0.2140411 1 0.5225216
0.5225216 1 0.5225216
1 1 0.5225216
0 0 1
0.05087609 0 1
0.2140411 0 1
0.5225216 0 1
1 0 1
0 0.05087609 1
0.05087609 0.05087609 1
0.2140411 0.05087609 1
0.5225216 0.05087609 1
1 0.05087609 1
0 0.2140411 1
0.05087609 0.2140411 1
0.2140411 0.2140411 1
0.5225216 0.2140411 1
1 0.2140411 1
0 0.5225216 1
0.05087609 0.5225216 1
0.2140411 0.5225216 1
0.5225216 0.5225216 1
1 0.5225216 1
0 1 1
0.05087609 1 1
0.2140411 1 1
0.5225216 1 1
1 1 1
