com.unity.render-pipelines.high-definition/Samples~/PostProcessingData/Cube LUTs/sRGB to Linear r1.cube
TITLE "sRGB to Linear r1"
LUT_3D_SIZE 33
DOMAIN_MIN 0 0 0
DOMAIN_MAX 1 1 1
0 0 0
0.002418731 0 0
0.005155668 0 0
0.009080105 0 0
0.01434988 0 0
0.02107202 0 0
0.02934285 0 0
0.03925039 0 0
0.05087609 0 0
0.06429595 0 0
0.07958143 0 0
0.0968001 0 0
0.1160161 0 0
0.1372908 0 0
0.1606827 0 0
0.1862481 0 0
0.2140411 0 0
0.2441142 0 0
0.2765176 0 0
0.3113005 0 0
0.3485102 0 0
0.388193 0 0
0.4303934 0 0
0.4751555 0 0
0.5225216 0 0
0.5725335 0 0
0.6252316 0 0
0.6806558 0 0
0.7388448 0 0
0.7998369 0 0
0.8636691 0 0
0.9303782 0 0
1 0 0
0 0.002418731 0
0.002418731 0.002418731 0
0.005155668 0.002418731 0
0.009080105 0.002418731 0
0.01434988 0.002418731 0
0.02107202 0.002418731 0
0.02934285 0.002418731 0
0.03925039 0.002418731 0
0.05087609 0.002418731 0
0.06429595 0.002418731 0
0.07958143 0.002418731 0
0.0968001 0.002418731 0
0.1160161 0.002418731 0
0.1372908 0.002418731 0
0.1606827 0.002418731 0
0.1862481 0.002418731 0
0.2140411 0.002418731 0
0.2441142 0.002418731 0
0.2765176 0.002418731 0
0.3113005 0.002418731 0
0.3485102 0.002418731 0
0.388193 0.002418731 0
0.4303934 0.002418731 0
0.4751555 0.002418731 0
0.5225216 0.002418731 0
0.5725335 0.002418731 0
0.6252316 0.002418731 0
0.6806558 0.002418731 0
0.7388448 0.002418731 0
0.7998369 0.002418731 0
0.8636691 0.002418731 0
0.9303782 0.002418731 0
1 0.002418731 0
0 0.005155668 0
0.002418731 0.005155668 0
0.005155668 0.005155668 0
0.009080105 0.005155668 0
0.01434988 0.005155668 0
0.02107202 0.005155668 0
0.02934285 0.005155668 0
0.03925039 0.005155668 0
0.05087609 0.005155668 0
0.06429595 0.005155668 0
0.07958143 0.005155668 0
0.0968001 0.005155668 0
0.1160161 0.005155668 0
0.1372908 0.005155668 0
0.1606827 0.005155668 0
0.1862481 0.005155668 0
0.2140411 0.005155668 0
0.2441142 0.005155668 0
0.2765176 0.005155668 0
0.3113005 0.005155668 0
0.3485102 0.005155668 0
0.388193 0.005155668 0
0.4303934 0.005155668 0
0.4751555 0.005155668 0
0.5225216 0.005155668 0
0.5725335 0.005155668 0
0.6252316 0.005155668 0
0.6806558 0.005155668 0
0.7388448 0.005155668 0
0.7998369 0.005155668 0
0.8636691 0.005155668 0
0.9303782 0.005155668 0
1 0.005155668 0
0 0.009080105 0
0.002418731 0.009080105 0
0.005155668 0.009080105 0
0.009080105 0.009080105 0
0.01434988 0.009080105 0
0.02107202 0.009080105 0
0.02934285 0.009080105 0
0.03925039 0.009080105 0
0.05087609 0.009080105 0
0.06429595 0.009080105 0
0.07958143 0.009080105 0
0.0968001 0.009080105 0
0.1160161 0.009080105 0
0.1372908 0.009080105 0
0.1606827 0.009080105 0
0.1862481 0.009080105 0
0.2140411 0.009080105 0
0.2441142 0.009080105 0
0.2765176 0.009080105 0
0.3113005 0.009080105 0
0.3485102 0.009080105 0
0.388193 0.009080105 0
0.4303934 0.009080105 0
0.4751555 0.009080105 0
0.5225216 0.009080105 0
0.5725335 0.009080105 0
0.6252316 0.009080105 0
0.6806558 0.009080105 0
0.7388448 0.009080105 0
0.7998369 0.009080105 0
0.8636691 0.009080105 0
0.9303782 0.009080105 0
1 0.009080105 0
0 0.01434988 0
0.002418731 0.01434988 0
0.005155668 0.01434988 0
0.009080105 0.01434988 0
0.01434988 0.01434988 0
0.02107202 0.01434988 0
0.02934285 0.01434988 0
0.03925039 0.01434988 0
0.05087609 0.01434988 0
0.06429595 0.01434988 0
0.07958143 0.01434988 0
0.0968001 0.01434988 0
0.1160161 0.01434988 0
0.1372908 0.01434988 0
0.1606827 0.01434988 0
0.1862481 0.01434988 0
0.2140411 0.01434988 0
0.2441142 0.01434988 0
0.2765176 0.01434988 0
0.3113005 0.01434988 0
0.3485102 0.01434988 0
0.388193 0.01434988 0
0.4303934 0.01434988 0
0.4751555 0.01434988 0
0.5225216 0.01434988 0
0.5725335 0.01434988 0
0.6252316 0.01434988 0
0.6806558 0.01434988 0
0.7388448 0.01434988 0
0.7998369 0.01434988 0
0.8636691 0.01434988 0
0.9303782 0.01434988 0
1 0.01434988 0
0 0.02107202 0
0.002418731 0.02107202 0
0.005155668 0.02107202 0
0.009080105 0.02107202 0
0.01434988 0.02107202 0
0.02107202 0.02107202 0
0.02934285 0.02107202 0
0.03925039 0.02107202 0
0.05087609 0.02107202 0
0.06429595 0.02107202 0
0.07958143 0.02107202 0
0.0968001 0.02107202 0
0.1160161 0.02107202 0
0.1372908 0.02107202 0
0.1606827 0.02107202 0
0.1862481 0.02107202 0
0.2140411 0.02107202 0
0.2441142 0.02107202 0
0.2765176 0.02107202 0
0.3113005 0.02107202 0
0.3485102 0.02107202 0
0.388193 0.02107202 0
0.4303934 0.02107202 0
0.4751555 0.02107202 0
0.5225216 0.02107202 0
0.5725335 0.02107202 0
0.6252316 0.02107202 0
0.6806558 0.02107202 0
0.7388448 0.02107202 0
0.7998369 0.02107202 0
0.8636691 0.02107202 0
0.9303782 0.02107202 0
1 0.02107202 0
0 0.02934285 0
0.002418731 0.02934285 0
0.005155668 0.02934285 0
0.009080105 0.02934285 0
0.01434988 0.02934285 0
0.02107202 0.02934285 0
0.02934285 0.02934285 0
0.03925039 0.02934285 0
0.05087609 0.02934285 0
0.06429595 0.02934285 0
0.07958143 0.02934285 0
0.0968001 0.02934285 0
0.1160161 0.02934285 0
0.1372908 0.02934285 0
0.1606827 0.02934285 0
0.1862481 0.02934285 0
0.2140411 0.02934285 0
0.2441142 0.02934285 0
0.2765176 0.02934285 0
0.3113005 0.02934285 0
0.3485102 0.02934285 0
0.388193 0.02934285 0
0.4303934 0.02934285 0
0.4751555 0.02934285 0
0.5225216 0.02934285 0
0.5725335 0.02934285 0
0.6252316 0.02934285 0
0.6806558 0.02934285 0
0.7388448 0.02934285 0
0.7998369 0.02934285 0
0.8636691 0.02934285 0
0.9303782 0.02934285 0
1 0.02934285 0
0 0.03925039 0
0.002418731 0.03925039 0
0.005155668 0.03925039 0
0.009080105 0.03925039 0
0.01434988 0.03925039 0
0.02107202 0.03925039 0
0.02934285 0.03925039 0
0.03925039 0.03925039 0
0.05087609 0.03925039 0
0.06429595 0.03925039 0
0.07958143 0.03925039 0
0.0968001 0.03925039 0
0.1160161 0.03925039 0
0.1372908 0.03925039 0
0.1606827 0.03925039 0
0.1862481 0.03925039 0
0.2140411 0.03925039 0
0.2441142 0.03925039 0
0.2765176 0.03925039 0
0.3113005 0.03925039 0
0.3485102 0.03925039 0
0.388193 0.03925039 0
0.4303934 0.03925039 0
0.4751555 0.03925039 0
0.5225216 0.03925039 0
0.5725335 0.03925039 0
0.6252316 0.03925039 0
0.6806558 0.03925039 0
0.7388448 0.03925039 0
0.7998369 0.03925039 0
0.8636691 0.03925039 0
0.9303782 0.03925039 0
1 0.03925039 0
0 0.05087609 0
0.002418731 0.05087609 0
0.005155668 0.05087609 0
0.009080105 0.05087609 0
0.01434988 0.05087609 0
0.02107202 0.05087609 0
0.02934285 0.05087609 0
0.03925039 0.05087609 0
0.05087609 0.05087609 0
0.06429595 0.05087609 0
0.07958143 0.05087609 0
0.0968001 0.05087609 0
0.1160161 0.05087609 0
0.1372908 0.05087609 0
0.1606827 0.05087609 0
0.1862481 0.05087609 0
0.2140411 0.05087609 0
0.2441142 0.05087609 0
0.2765176 0.05087609 0
0.3113005 0.05087609 0
0.3485102 0.05087609 0
0.388193 0.05087609 0
0.4303934 0.05087609 0
0.4751555 0.05087609 0
0.5225216 0.05087609 0
0.5725335 0.05087609 0
0.6252316 0.05087609 0
0.6806558 0.05087609 0
0.7388448 0.05087609 0
0.7998369 0.05087609 0
0.8636691 0.05087609 0
0.9303782 0.05087609 0
1 0.05087609 0
0 0.06429595 0
0.002418731 0.06429595 0
0.005155668 0.06429595 0
0.009080105 0.06429595 0
0.01434988 0.06429595 0
0.02107202 0.06429595 0
0.02934285 0.06429595 0
0.03925039 0.06429595 0
0.05087609 0.06429595 0
0.06429595 0.06429595 0
0.07958143 0.06429595 0
0.0968001 0.06429595 0
0.1160161 0.06429595 0
0.1372908 0.06429595 0
0.1606827 0.06429595 0
0.1862481 0.06429595 0
0.2140411 0.06429595 0
0.2441142 0.06429595 0
0.2765176 0.06429595 0
0.3113005 0.06429595 0
0.3485102 0.06429595 0
0.388193 0.06429595 0
0.4303934 0.06429595 0
0.4751555 0.06429595 0
0.5225216 0.06429595 0
0.5725335 0.06429595 0
0.6252316 0.06429595 0
0.6806558 0.06429595 0
0.7388448 0.06429595 0
0.7998369 0.06429595 0
0.8636691 0.06429595 0
0.9303782 0.06429595 0
1 0.06429595 0
0 0.07958143 0
0.002418731 0.07958143 0
0.005155668 0.07958143 0
0.009080105 0.07958143 0
0.01434988 0.07958143 0
0.02107202 0.07958143 0
0.02934285 0.07958143 0
0.03925039 0.07958143 0
0.05087609 0.07958143 0
0.06429595 0.07958143 0
0.07958143 0.07958143 0
0.0968001 0.07958143 0
0.1160161 0.07958143 0
0.1372908 0.07958143 0
0.1606827 0.07958143 0
0.1862481 0.07958143 0
0.2140411 0.07958143 0
0.2441142 0.07958143 0
0.2765176 0.07958143 0
0.3113005 0.07958143 0
0.3485102 0.07958143 0
0.388193 0.07958143 0
0.4303934 0.07958143 0
0.4751555 0.07958143 0
0.5225216 0.07958143 0
0.5725335 0.07958143 0
0.6252316 0.07958143 0
0.6806558 0.07958143 0
0.7388448 0.07958143 0
0.7998369 0.07958143 0
0.8636691 0.07958143 0
0.9303782 0.07958143 0
1 0.07958143 0
0 0.0968001 0
0.002418731 0.0968001 0
0.005155668 0.0968001 0
0.009080105 0.0968001 0
0.01434988 0.0968001 0
0.02107202 0.0968001 0
0.02934285 0.0968001 0
0.03925039 0.0968001 0
0.05087609 0.0968001 0
0.06429595 0.0968001 0
0.07958143 0.0968001 0
0.0968001 0.0968001 0
0.1160161 0.0968001 0
0.1372908 0.0968001 0
0.1606827 0.0968001 0
0.1862481 0.0968001 0
0.2140411 0.0968001 0
0.2441142 0.0968001 0
0.2765176 0.0968001 0
0.3113005 0.0968001 0
0.3485102 0.0968001 0
0.388193 0.0968001 0
0.4303934 0.0968001 0
0.4751555 0.0968001 0
0.5225216 0.0968001 0
0.5725335 0.0968001 0
0.6252316 0.0968001 0
0.6806558 0.0968001 0
0.7388448 0.0968001 0
0.7998369 0.0968001 0
0.8636691 0.0968001 0
0.9303782 0.0968001 0
1 0.0968001 0
0 0.1160161 0
0.002418731 0.1160161 0
0.005155668 0.1160161 0
0.009080105 0.1160161 0
0.01434988 0.1160161 0
0.02107202 0.1160161 0
0.02934285 0.1160161 0
0.03925039 0.1160161 0
0.05087609 0.1160161 0
0.06429595 0.1160161 0
0.07958143 0.1160161 0
0.0968001 0.1160161 0
0.1160161 0.1160161 0
0.1372908 0.1160161 0
0.1606827 0.1160161 0
0.1862481 0.1160161 0
0.2140411 0.1160161 0
0.2441142 0.1160161 0
0.2765176 0.1160161 0
0.3113005 0.1160161 0
0.3485102 0.1160161 0
0.388193 0.1160161 0
0.4303934 0.1160161 0
0.4751555 0.1160161 0
0.5225216 0.1160161 0
0.5725335 0.1160161 0
0.6252316 0.1160161 0
0.6806558 0.1160161 0
0.7388448 0.1160161 0
0.7998369 0.1160161 0
0.8636691 0.1160161 0
0.9303782 0.1160161 0
1 0.1160161 0
0 0.1372908 0
0.002418731 0.1372908 0
0.005155668 0.1372908 0
0.009080105 0.1372908 0
0.01434988 0.1372908 0
0.02107202 0.1372908 0
0.02934285 0.1372908 0
0.03925039 0.1372908 0
0.05087609 0.1372908 0
0.06429595 0.1372908 0
0.07958143 0.1372908 0
0.0968001 0.1372908 0
0.1160161 0.1372908 0
0.1372908 0.1372908 0
0.1606827 0.1372908 0
0.1862481 0.1372908 0
0.2140411 0.1372908 0
0.2441142 0.1372908 0
0.2765176 0.1372908 0
0.3113005 0.1372908 0
0.3485102 0.1372908 0
0.388193 0.1372908 0
0.4303934 0.1372908 0
0.4751555 0.1372908 0
0.5225216 0.1372908 0
0.5725335 0.1372908 0
0.6252316 0.1372908 0
0.6806558 0.1372908 0
0.7388448 0.1372908 0
0.7998369 0.1372908 0
0.8636691 0.1372908 0
0.9303782 0.1372908 0
1 0.1372908 0
0 0.1606827 0
0.002418731 0.1606827 0
0.005155668 0.1606827 0
0.009080105 0.1606827 0
0.01434988 0.1606827 0
0.02107202 0.1606827 0
0.02934285 0.1606827 0
0.03925039 0.1606827 0
0.05087609 0.1606827 0
0.06429595 0.1606827 0
0.07958143 0.1606827 0
0.0968001 0.1606827 0
0.1160161 0.1606827 0
0.1372908 0.1606827 0
0.1606827 0.1606827 0
0.1862481 0.1606827 0
0.2140411 0.1606827 0
0.2441142 0.1606827 0
0.2765176 0.1606827 0
0.3113005 0.1606827 0
0.3485102 0.1606827 0
0.388193 0.1606827 0
0.4303934 0.1606827 0
0.4751555 0.1606827 0
0.5225216 0.1606827 0
0.5725335 0.1606827 0
0.6252316 0.1606827 0
0.6806558 0.1606827 0
0.7388448 0.1606827 0
0.7998369 0.1606827 0
0.8636691 0.1606827 0
0.9303782 0.1606827 0
1 0.1606827 0
0 0.1862481 0
0.002418731 0.1862481 0
0.005155668 0.1862481 0
0.009080105 0.1862481 0
0.01434988 0.1862481 0
0.02107202 0.1862481 0
0.02934285 0.1862481 0
0.03925039 0.1862481 0
0.05087609 0.1862481 0
0.06429595 0.1862481 0
0.07958143 0.1862481 0
0.0968001 0.1862481 0
0.1160161 0.1862481 0
0.1372908 0.1862481 0
0.1606827 0.1862481 0
0.1862481 0.1862481 0
0.2140411 0.1862481 0
0.2441142 0.1862481 0
0.2765176 0.1862481 0
0.3113005 0.1862481 0
0.3485102 0.1862481 0
0.388193 0.1862481 0
0.4303934 0.1862481 0
0.4751555 0.1862481 0
0.5225216 0.1862481 0
0.5725335 0.1862481 0
0.6252316 0.1862481 0
0.6806558 0.1862481 0
0.7388448 0.1862481 0
0.7998369 0.1862481 0
0.8636691 0.1862481 0
0.9303782 0.1862481 0
1 0.1862481 0
0 0.2140411 0
0.002418731 0.2140411 0
0.005155668 0.2140411 0
0.009080105 0.2140411 0
0.01434988 0.2140411 0
0.02107202 0.2140411 0
0.02934285 0.2140411 0
0.03925039 0.2140411 0
0.05087609 0.2140411 0
0.06429595 0.2140411 0
0.07958143 0.2140411 0
0.0968001 0.2140411 0
0.1160161 0.2140411 0
0.1372908 0.2140411 0
0.1606827 0.2140411 0
0.1862481 0.2140411 0
0.2140411 0.2140411 0
0.2441142 0.2140411 0
0.2765176 0.2140411 0
0.3113005 0.2140411 0
0.3485102 0.2140411 0
0.388193 0.2140411 0
0.4303934 0.2140411 0
0.4751555 0.2140411 0
0.5225216 0.2140411 0
0.5725335 0.2140411 0
0.6252316 0.2140411 0
0.6806558 0.2140411 0
0.7388448 0.2140411 0
0.7998369 0.2140411 0
0.8636691 0.2140411 0
0.9303782 0.2140411 0
1 0.2140411 0
0 0.2441142 0
0.002418731 0.2441142 0
0.005155668 0.2441142 0
0.009080105 0.2441142 0
0.01434988 0.2441142 0
0.02107202 0.2441142 0
0.02934285 0.2441142 0
0.03925039 0.2441142 0
0.05087609 0.2441142 0
0.06429595 0.2441142 0
0.07958143 0.2441142 0
0.0968001 0.2441142 0
0.1160161 0.2441142 0
0.1372908 0.2441142 0
0.1606827 0.2441142 0
0.1862481 0.2441142 0
0.2140411 0.2441142 0
0.2441142 0.2441142 0
0.2765176 0.2441142 0
0.3113005 0.2441142 0
0.3485102 0.2441142 0
0.388193 0.2441142 0
0.4303934 0.2441142 0
0.4751555 0.2441142 0
0.5225216 0.2441142 0
0.5725335 0.2441142 0
0.6252316 0.2441142 0
0.6806558 0.2441142 0
0.7388448 0.2441142 0
0.7998369 0.2441142 0
0.8636691 0.2441142 0
0.9303782 0.2441142 0
1 0.2441142 0
0 0.2765176 0
0.002418731 0.2765176 0
0.005155668 0.2765176 0
0.009080105 0.2765176 0
0.01434988 0.2765176 0
0.02107202 0.2765176 0
0.02934285 0.2765176 0
0.03925039 0.2765176 0
0.05087609 0.2765176 0
0.06429595 0.2765176 0
0.07958143 0.2765176 0
0.0968001 0.2765176 0
0.1160161 0.2765176 0
0.1372908 0.2765176 0
0.1606827 0.2765176 0
0.1862481 0.2765176 0
0.2140411 0.2765176 0
0.2441142 0.2765176 0
0.2765176 0.2765176 0
0.3113005 0.2765176 0
0.3485102 0.2765176 0
0.388193 0.2765176 0
0.4303934 0.2765176 0
0.4751555 0.2765176 0
0.5225216 0.2765176 0
0.5725335 0.2765176 0
0.6252316 0.2765176 0
0.6806558 0.2765176 0
0.7388448 0.2765176 0
0.7998369 0.2765176 0
0.8636691 0.2765176 0
0.9303782 0.2765176 0
1 0.2765176 0
0 0.3113005 0
0.002418731 0.3113005 0
0.005155668 0.3113005 0
0.009080105 0.3113005 0
0.01434988 0.3113005 0
0.02107202 0.3113005 0
0.02934285 0.3113005 0
0.03925039 0.3113005 0
0.05087609 0.3113005 0
0.06429595 0.3113005 0
0.07958143 0.3113005 0
0.0968001 0.3113005 0
0.1160161 0.3113005 0
0.1372908 0.3113005 0
0.1606827 0.3113005 0
0.1862481 0.3113005 0
0.2140411 0.3113005 0
0.2441142 0.3113005 0
0.2765176 0.3113005 0
0.3113005 0.3113005 0
0.3485102 0.3113005 0
0.388193 0.3113005 0
0.4303934 0.3113005 0
0.4751555 0.3113005 0
0.5225216 0.3113005 0
0.5725335 0.3113005 0
0.6252316 0.3113005 0
0.6806558 0.3113005 0
0.7388448 0.3113005 0
0.7998369 0.3113005 0
0.8636691 0.3113005 0
0.9303782 0.3113005 0
1 0.3113005 0
0 0.3485102 0
0.002418731 0.3485102 0
0.005155668 0.3485102 0
0.009080105 0.3485102 0
0.01434988 0.3485102 0
0.02107202 0.3485102 0
0.02934285 0.3485102 0
0.03925039 0.3485102 0
0.05087609 0.3485102 0
0.06429595 0.3485102 0
0.07958143 0.3485102 0
0.0968001 0.3485102 0
0.1160161 0.3485102 0
0.1372908 0.3485102 0
0.1606827 0.3485102 0
0.1862481 0.3485102 0
0.2140411 0.3485102 0
0.2441142 0.3485102 0
0.2765176 0.3485102 0
0.3113005 0.3485102 0
0.3485102 0.3485102 0
0.388193 0.3485102 0
0.4303934 0.3485102 0
0.4751555 0.3485102 0
0.5225216 0.3485102 0
0.5725335 0.3485102 0
0.6252316 0.3485102 0
0.6806558 0.3485102 0
0.7388448 0.3485102 0
0.7998369 0.3485102 0
0.8636691 0.3485102 0
0.9303782 0.3485102 0
1 0.3485102 0
0 0.388193 0
0.002418731 0.388193 0
0.005155668 0.388193 0
0.009080105 0.388193 0
0.01434988 0.388193 0
0.02107202 0.388193 0
0.02934285 0.388193 0
0.03925039 0.388193 0
0.05087609 0.388193 0
0.06429595 0.388193 0
0.07958143 0.388193 0
0.0968001 0.388193 0
0.1160161 0.388193 0
0.1372908 0.388193 0
0.1606827 0.388193 0
0.1862481 0.388193 0
0.2140411 0.388193 0
0.2441142 0.388193 0
0.2765176 0.388193 0
0.3113005 0.388193 0
0.3485102 0.388193 0
0.388193 0.388193 0
0.4303934 0.388193 0
0.4751555 0.388193 0
0.5225216 0.388193 0
0.5725335 0.388193 0
0.6252316 0.388193 0
0.6806558 0.388193 0
0.7388448 0.388193 0
0.7998369 0.388193 0
0.8636691 0.388193 0
0.9303782 0.388193 0
1 0.388193 0
0 0.4303934 0
0.002418731 0.4303934 0
0.005155668 0.4303934 0
0.009080105 0.4303934 0
0.01434988 0.4303934 0
0.02107202 0.4303934 0
0.02934285 0.4303934 0
0.03925039 0.4303934 0
0.05087609 0.4303934 0
0.06429595 0.4303934 0
0.07958143 0.4303934 0
0.0968001 0.4303934 0
0.1160161 0.4303934 0
0.1372908 0.4303934 0
0.1606827 0.4303934 0
0.1862481 0.4303934 0
0.2140411 0.4303934 0
0.2441142 0.4303934 0
0.2765176 0.4303934 0
0.3113005 0.4303934 0
0.3485102 0.4303934 0
0.388193 0.4303934 0
0.4303934 0.4303934 0
0.4751555 0.4303934 0
0.5225216 0.4303934 0
0.5725335 0.4303934 0
0.6252316 0.4303934 0
0.6806558 0.4303934 0
0.7388448 0.4303934 0
0.7998369 0.4303934 0
0.8636691 0.4303934 0
0.9303782 0.4303934 0
1 0.4303934 0
0 0.4751555 0
0.002418731 0.4751555 0
0.005155668 0.4751555 0
0.009080105 0.4751555 0
0.01434988 0.4751555 0
0.02107202 0.4751555 0
0.02934285 0.4751555 0
0.03925039 0.4751555 0
0.05087609 0.4751555 0
0.06429595 0.4751555 0
0.07958143 0.4751555 0
0.0968001 0.4751555 0
0.1160161 0.4751555 0
0.1372908 0.4751555 0
0.1606827 0.4751555 0
0.1862481 0.4751555 0
0.2140411 0.4751555 0
0.2441142 0.4751555 0
0.2765176 0.4751555 0
0.3113005 0.4751555 0
0.3485102 0.4751555 0
0.388193 0.4751555 0
0.4303934 0.4751555 0
0.4751555 0.4751555 0
0.5225216 0.4751555 0
0.5725335 0.4751555 0
0.6252316 0.4751555 0
0.6806558 0.4751555 0
0.7388448 0.4751555 0
0.7998369 0.4751555 0
0.8636691 0.4751555 0
0.9303782 0.4751555 0
1 0.4751555 0
0 0.5225216 0
0.002418731 0.5225216 0
0.005155668 0.5225216 0
0.009080105 0.5225216 0
0.01434988 0.5225216 0
0.02107202 0.5225216 0
0.02934285 0.5225216 0
0.03925039 0.5225216 0
0.05087609 0.5225216 0
0.06429595 0.5225216 0
0.07958143 0.5225216 0
0.0968001 0.5225216 0
0.1160161 0.5225216 0
0.1372908 0.5225216 0
0.1606827 0.5225216 0
0.1862481 0.5225216 0
0.2140411 0.5225216 0
0.2441142 0.5225216 0
0.2765176 0.5225216 0
0.3113005 0.5225216 0
0.3485102 0.5225216 0
0.388193 0.5225216 0
0.4303934 0.5225216 0
0.4751555 0.5225216 0
0.5225216 0.5225216 0
0.5725335 0.5225216 0
0.6252316 0.5225216 0
0.6806558 0.5225216 0
0.7388448 0.5225216 0
0.7998369 0.5225216 0
0.8636691 0.5225216 0
0.9303782 0.5225216 0
1 0.5225216 0
0 0.5725335 0
0.002418731 0.5725335 0
0.005155668 0.5725335 0
0.009080105 0.5725335 0
0.01434988 0.5725335 0
0.02107202 0.5725335 0
0.02934285 0.5725335 0
0.03925039 0.5725335 0
0.05087609 0.5725335 0
0.06429595 0.5725335 0
0.07958143 0.5725335 0
0.0968001 0.5725335 0
0.1160161 0.5725335 0
0.1372908 0.5725335 0
0.1606827 0.5725335 0
0.1862481 0.5725335 0
0.2140411 0.5725335 0
0.2441142 0.5725335 0
0.2765176 0.5725335 0
0.3113005 0.5725335 0
0.3485102 0.5725335 0
0.388193 0.5725335 0
0.4303934 0.5725335 0
0.4751555 0.5725335 0
0.5225216 0.5725335 0
0.5725335 0.5725335 0
0.6252316 0.5725335 0
0.6806558 0.5725335 0
0.7388448 0.5725335 0
0.7998369 0.5725335 0
0.8636691 0.5725335 0
0.9303782 0.5725335 0
1 0.5725335 0
0 0.6252316 0
0.002418731 0.6252316 0
0.005155668 0.6252316 0
0.009080105 0.6252316 0
0.01434988 0.6252316 0
0.02107202 0.6252316 0
0.02934285 0.6252316 0
0.03925039 0.6252316 0
0.05087609 0.6252316 0
0.06429595 0.6252316 0
0.07958143 0.6252316 0
0.0968001 0.6252316 0
0.1160161 0.6252316 0
0.1372908 0.6252316 0
0.1606827 0.6252316 0
0.1862481 0.6252316 0
0.2140411 0.6252316 0
0.2441142 0.6252316 0
0.2765176 0.6252316 0
0.3113005 0.6252316 0
0.3485102 0.6252316 0
0.388193 0.6252316 0
0.4303934 0.6252316 0
0.4751555 0.6252316 0
0.5225216 0.6252316 0
0.5725335 0.6252316 0
0.6252316 0.6252316 0
0.6806558 0.6252316 0
0.7388448 0.6252316 0
0.7998369 0.6252316 0
0.8636691 0.6252316 0
0.9303782 0.6252316 0
1 0.6252316 0
0 0.6806558 0
0.002418731 0.6806558 0
0.005155668 0.6806558 0
0.009080105 0.6806558 0
0.01434988 0.6806558 0
0.02107202 0.6806558 0
0.02934285 0.6806558 0
0.03925039 0.6806558 0
0.05087609 0.6806558 0
