com.unity.render-pipelines.high-definition/Samples~/PostProcessingData/Cube LUTs/Unity Log to Linear r1.cube
TITLE "Unity Log to Linear r1"
LUT_3D_SIZE 5
DOMAIN_MIN 0 0 0
DOMAIN_MAX 1 1 1
-0.0175068 -0.0175068 -0.0175068
0.04126244 -0.0175068 -0.0175068
0.518627 -0.0175068 -0.0175068
5.562508 -0.0175068 -0.0175068
58.85664 -0.0175068 -0.0175068
-0.0175068 0.04126244 -0.0175068
0.04126244 0.04126244 -0.0175068
0.518627 0.04126244 -0.0175068
5.562508 0.04126244 -0.0175068
58.85664 0.04126244 -0.0175068
-0.0175068 0.518627 -0.0175068
0.04126244 0.518627 -0.0175068
0.518627 0.518627 -0.0175068
5.562508 0.518627 -0.0175068
58.85664 0.518627 -0.0175068
-0.0175068 5.562508 -0.0175068
0.04126244 5.562508 -0.0175068
0.518627 5.562508 -0.0175068
5.562508 5.562508 -0.0175068
58.85664 5.562508 -0.0175068
-0.0175068 58.85664 -0.0175068
0.04126244 58.85664 -0.0175068
0.518627 58.85664 -0.0175068
5.562508 58.85664 -0.0175068
58.85664 58.85664 -0.0175068
-0.0175068 -0.0175068 0.04126244
0.04126244 -0.0175068 0.04126244
0.518627 -0.0175068 0.04126244
5.562508 -0.0175068 0.04126244
58.85664 -0.0175068 0.04126244
-0.0175068 0.04126244 0.04126244
0.04126244 0.04126244 0.04126244
0.518627 0.04126244 0.04126244
5.562508 0.04126244 0.04126244
58.85664 0.04126244 0.04126244
-0.0175068 0.518627 0.04126244
0.04126244 0.518627 0.04126244
0.518627 0.518627 0.04126244
5.562508 0.518627 0.04126244
58.85664 0.518627 0.04126244
-0.0175068 5.562508 0.04126244
0.04126244 5.562508 0.04126244
0.518627 5.562508 0.04126244
5.562508 5.562508 0.04126244
58.85664 5.562508 0.04126244
-0.0175068 58.85664 0.04126244
0.04126244 58.85664 0.04126244
0.518627 58.85664 0.04126244
5.562508 58.85664 0.04126244
58.85664 58.85664 0.04126244
-0.0175068 -0.0175068 0.518627
0.04126244 -0.0175068 0.518627
0.518627 -0.0175068 0.518627
5.562508 -0.0175068 0.518627
58.85664 -0.0175068 0.518627
-0.0175068 0.04126244 0.518627
0.04126244 0.04126244 0.518627
0.518627 0.04126244 0.518627
5.562508 0.04126244 0.518627
58.85664 0.04126244 0.518627
-0.0175068 0.518627 0.518627
0.04126244 0.518627 0.518627
0.518627 0.518627 0.518627
5.562508 0.518627 0.518627
58.85664 0.518627 0.518627
-0.0175068 5.562508 0.518627
0.04126244 5.562508 0.518627
0.518627 5.562508 0.518627
5.562508 5.562508 0.518627
58.85664 5.562508 0.518627
-0.0175068 58.85664 0.518627
0.04126244 58.85664 0.518627
0.518627 58.85664 0.518627
5.562508 58.85664 0.518627
58.85664 58.85664 0.518627
-0.0175068 -0.0175068 5.562508
0.04126244 -0.0175068 5.562508
0.518627 -0.0175068 5.562508
5.562508 -0.0175068 5.562508
58.85664 -0.0175068 5.562508
-0.0175068 0.04126244 5.562508
0.04126244 0.04126244 5.562508
0.518627 0.04126244 5.562508
5.562508 0.04126244 5.562508
58.85664 0.04126244 5.562508
-0.0175068 0.518627 5.562508
0.04126244 0.518627 5.562508
0.518627 0.518627 5.562508
5.562508 0.518627 5.562508
58.85664 0.518627 5.562508
-0.0175068 5.562508 5.562508
0.04126244 5.562508 5.562508
0.518627 5.562508 5.562508
5.562508 5.562508 5.562508
58.85664 5.562508 5.562508
-0.0175068 58.85664 5.562508
0.04126244 58.85664 5.562508
0.518627 58.85664 5.562508
5.562508 58.85664 5.562508
58.85664 58.85664 5.562508
-0.0175068 -0.0175068 58.85664
0.04126244 -0.0175068 58.85664
0.518627 -0.0175068 58.85664
5.562508 -0.0175068 58.85664
58.85664 -0.0175068 58.85664
-0.0175068 0.04126244 58.85664
0.04126244 0.04126244 58.85664
0.518627 0.04126244 58.85664
5.562508 0.04126244 58.85664
58.85664 0.04126244 58.85664
-0.0175068 0.518627 58.85664
0.04126244 0.518627 58.85664
0.518627 0.518627 58.85664
5.562508 0.518627 58.85664
58.85664 0.518627 58.85664
-0.0175068 5.562508 58.85664
0.04126244 5.562508 58.85664
0.518627 5.562508 58.85664
5.562508 5.562508 58.85664
58.85664 5.562508 58.85664
-0.0175068 58.85664 58.85664
0.04126244 58.85664 58.85664
0.518627 58.85664 58.85664
5.562508 58.85664 58.85664
58.85664 58.85664 58.85664
