com.unity.render-pipelines.high-definition/Samples~/PostProcessingData/Cube LUTs/Unity Log to Linear r1.cube
TITLE "Unity Log to Linear r1"
LUT_3D_SIZE 9
DOMAIN_MIN 0 0 0
DOMAIN_MAX 1 1 1
-0.0175068 -0.0175068 -0.0175068
0.006069731 -0.0175068 -0.0175068
0.04126244 -0.0175068 -0.0175068
0.1535689 -0.0175068 -0.0175068
0.518627 -0.0175068 -0.0175068
1.705268 -0.0175068 -0.0175068
5.562508 -0.0175068 -0.0175068
18.10068 -0.0175068 -0.0175068
58.85664 -0.0175068 -0.0175068
-0.0175068 0.006069731 -0.0175068
0.006069731 0.006069731 -0.0175068
0.04126244 0.006069731 -0.0175068
0.1535689 0.006069731 -0.0175068
0.518627 0.006069731 -0.0175068
1.705268 0.006069731 -0.0175068
5.562508 0.006069731 -0.0175068
18.10068 0.006069731 -0.0175068
58.85664 0.006069731 -0.0175068
-0.0175068 0.04126244 -0.0175068
0.006069731 0.04126244 -0.0175068
0.04126244 0.04126244 -0.0175068
0.1535689 0.04126244 -0.0175068
0.518627 0.04126244 -0.0175068
1.705268 0.04126244 -0.0175068
5.562508 0.04126244 -0.0175068
18.10068 0.04126244 -0.0175068
58.85664 0.04126244 -0.0175068
-0.0175068 0.1535689 -0.0175068
0.006069731 0.1535689 -0.0175068
0.04126244 0.1535689 -0.0175068
0.1535689 0.1535689 -0.0175068
0.518627 0.1535689 -0.0175068
1.705268 0.1535689 -0.0175068
5.562508 0.1535689 -0.0175068
18.10068 0.1535689 -0.0175068
58.85664 0.1535689 -0.0175068
-0.0175068 0.518627 -0.0175068
0.006069731 0.518627 -0.0175068
0.04126244 0.518627 -0.0175068
0.1535689 0.518627 -0.0175068
0.518627 0.518627 -0.0175068
1.705268 0.518627 -0.0175068
5.562508 0.518627 -0.0175068
18.10068 0.518627 -0.0175068
58.85664 0.518627 -0.0175068
-0.0175068 1.705268 -0.0175068
0.006069731 1.705268 -0.0175068
0.04126244 1.705268 -0.0175068
0.1535689 1.705268 -0.0175068
0.518627 1.705268 -0.0175068
1.705268 1.705268 -0.0175068
5.562508 1.705268 -0.0175068
18.10068 1.705268 -0.0175068
58.85664 1.705268 -0.0175068
-0.0175068 5.562508 -0.0175068
0.006069731 5.562508 -0.0175068
0.04126244 5.562508 -0.0175068
0.1535689 5.562508 -0.0175068
0.518627 5.562508 -0.0175068
1.705268 5.562508 -0.0175068
5.562508 5.562508 -0.0175068
18.10068 5.562508 -0.0175068
58.85664 5.562508 -0.0175068
-0.0175068 18.10068 -0.0175068
0.006069731 18.10068 -0.0175068
0.04126244 18.10068 -0.0175068
0.1535689 18.10068 -0.0175068
0.518627 18.10068 -0.0175068
1.705268 18.10068 -0.0175068
5.562508 18.10068 -0.0175068
18.10068 18.10068 -0.0175068
58.85664 18.10068 -0.0175068
-0.0175068 58.85664 -0.0175068
0.006069731 58.85664 -0.0175068
0.04126244 58.85664 -0.0175068
0.1535689 58.85664 -0.0175068
0.518627 58.85664 -0.0175068
1.705268 58.85664 -0.0175068
5.562508 58.85664 -0.0175068
18.10068 58.85664 -0.0175068
58.85664 58.85664 -0.0175068
-0.0175068 -0.0175068 0.006069731
0.006069731 -0.0175068 0.006069731
0.04126244 -0.0175068 0.006069731
0.1535689 -0.0175068 0.006069731
0.518627 -0.0175068 0.006069731
1.705268 -0.0175068 0.006069731
5.562508 -0.0175068 0.006069731
18.10068 -0.0175068 0.006069731
58.85664 -0.0175068 0.006069731
-0.0175068 0.006069731 0.006069731
0.006069731 0.006069731 0.006069731
0.04126244 0.006069731 0.006069731
0.1535689 0.006069731 0.006069731
0.518627 0.006069731 0.006069731
1.705268 0.006069731 0.006069731
5.562508 0.006069731 0.006069731
18.10068 0.006069731 0.006069731
58.85664 0.006069731 0.006069731
-0.0175068 0.04126244 0.006069731
0.006069731 0.04126244 0.006069731
0.04126244 0.04126244 0.006069731
0.1535689 0.04126244 0.006069731
0.518627 0.04126244 0.006069731
1.705268 0.04126244 0.006069731
5.562508 0.04126244 0.006069731
18.10068 0.04126244 0.006069731
58.85664 0.04126244 0.006069731
-0.0175068 0.1535689 0.006069731
0.006069731 0.1535689 0.006069731
0.04126244 0.1535689 0.006069731
0.1535689 0.1535689 0.006069731
0.518627 0.1535689 0.006069731
1.705268 0.1535689 0.006069731
5.562508 0.1535689 0.006069731
18.10068 0.1535689 0.006069731
58.85664 0.1535689 0.006069731
-0.0175068 0.518627 0.006069731
0.006069731 0.518627 0.006069731
0.04126244 0.518627 0.006069731
0.1535689 0.518627 0.006069731
0.518627 0.518627 0.006069731
1.705268 0.518627 0.006069731
5.562508 0.518627 0.006069731
18.10068 0.518627 0.006069731
58.85664 0.518627 0.006069731
-0.0175068 1.705268 0.006069731
0.006069731 1.705268 0.006069731
0.04126244 1.705268 0.006069731
0.1535689 1.705268 0.006069731
0.518627 1.705268 0.006069731
1.705268 1.705268 0.006069731
5.562508 1.705268 0.006069731
18.10068 1.705268 0.006069731
58.85664 1.705268 0.006069731
-0.0175068 5.562508 0.006069731
0.006069731 5.562508 0.006069731
0.04126244 5.562508 0.006069731
0.1535689 5.562508 0.006069731
0.518627 5.562508 0.006069731
1.705268 5.562508 0.006069731
5.562508 5.562508 0.006069731
18.10068 5.562508 0.006069731
58.85664 5.562508 0.006069731
-0.0175068 18.10068 0.006069731
0.006069731 18.10068 0.006069731
0.04126244 18.10068 0.006069731
0.1535689 18.10068 0.006069731
0.518627 18.10068 0.006069731
1.705268 18.10068 0.006069731
5.562508 18.10068 0.006069731
18.10068 18.10068 0.006069731
58.85664 18.10068 0.006069731
-0.0175068 58.85664 0.006069731
0.006069731 58.85664 0.006069731
0.04126244 58.85664 0.006069731
0.1535689 58.85664 0.006069731
0.518627 58.85664 0.006069731
1.705268 58.85664 0.006069731
5.562508 58.85664 0.006069731
18.10068 58.85664 0.006069731
58.85664 58.85664 0.006069731
-0.0175068 -0.0175068 0.04126244
0.006069731 -0.0175068 0.04126244
0.04126244 -0.0175068 0.04126244
0.1535689 -0.0175068 0.04126244
0.518627 -0.0175068 0.04126244
1.705268 -0.0175068 0.04126244
5.562508 -0.0175068 0.04126244
18.10068 -0.0175068 0.04126244
58.85664 -0.0175068 0.04126244
-0.0175068 0.006069731 0.04126244
0.006069731 0.006069731 0.04126244
0.04126244 0.006069731 0.04126244
0.1535689 0.006069731 0.04126244
0.518627 0.006069731 0.04126244
1.705268 0.006069731 0.04126244
5.562508 0.006069731 0.04126244
18.10068 0.006069731 0.04126244
58.85664 0.006069731 0.04126244
-0.0175068 0.04126244 0.04126244
0.006069731 0.04126244 0.04126244
0.04126244 0.04126244 0.04126244
0.1535689 0.04126244 0.04126244
0.518627 0.04126244 0.04126244
1.705268 0.04126244 0.04126244
5.562508 0.04126244 0.04126244
18.10068 0.04126244 0.04126244
58.85664 0.04126244 0.04126244
-0.0175068 0.1535689 0.04126244
0.006069731 0.1535689 0.04126244
0.04126244 0.1535689 0.04126244
0.1535689 0.1535689 0.04126244
0.518627 0.1535689 0.04126244
1.705268 0.1535689 0.04126244
5.562508 0.1535689 0.04126244
18.10068 0.1535689 0.04126244
58.85664 0.1535689 0.04126244
-0.0175068 0.518627 0.04126244
0.006069731 0.518627 0.04126244
0.04126244 0.518627 0.04126244
0.1535689 0.518627 0.04126244
0.518627 0.518627 0.04126244
1.705268 0.518627 0.04126244
5.562508 0.518627 0.04126244
18.10068 0.518627 0.04126244
58.85664 0.518627 0.04126244
-0.0175068 1.705268 0.04126244
0.006069731 1.705268 0.04126244
0.04126244 1.705268 0.04126244
0.1535689 1.705268 0.04126244
0.518627 1.705268 0.04126244
1.705268 1.705268 0.04126244
5.562508 1.705268 0.04126244
18.10068 1.705268 0.04126244
58.85664 1.705268 0.04126244
-0.0175068 5.562508 0.04126244
0.006069731 5.562508 0.04126244
0.04126244 5.562508 0.04126244
0.1535689 5.562508 0.04126244
0.518627 5.562508 0.04126244
1.705268 5.562508 0.04126244
5.562508 5.562508 0.04126244
18.10068 5.562508 0.04126244
58.85664 5.562508 0.04126244
-0.0175068 18.10068 0.04126244
0.006069731 18.10068 0.04126244
0.04126244 18.10068 0.04126244
0.1535689 18.10068 0.04126244
0.518627 18.10068 0.04126244
1.705268 18.10068 0.04126244
5.562508 18.10068 0.04126244
18.10068 18.10068 0.04126244
58.85664 18.10068 0.04126244
-0.0175068 58.85664 0.04126244
0.006069731 58.85664 0.04126244
0.04126244 58.85664 0.04126244
0.1535689 58.85664 0.04126244
0.518627 58.85664 0.04126244
1.705268 58.85664 0.04126244
5.562508 58.85664 0.04126244
18.10068 58.85664 0.04126244
58.85664 58.85664 0.04126244
-0.0175068 -0.0175068 0.1535689
0.006069731 -0.0175068 0.1535689
0.04126244 -0.0175068 0.1535689
0.1535689 -0.0175068 0.1535689
0.518627 -0.0175068 0.1535689
1.705268 -0.0175068 0.1535689
5.562508 -0.0175068 0.1535689
18.10068 -0.0175068 0.1535689
58.85664 -0.0175068 0.1535689
-0.0175068 0.006069731 0.1535689
0.006069731 0.006069731 0.1535689
0.04126244 0.006069731 0.1535689
0.1535689 0.006069731 0.1535689
0.518627 0.006069731 0.1535689
1.705268 0.006069731 0.1535689
5.562508 0.006069731 0.1535689
18.10068 0.006069731 0.1535689
58.85664 0.006069731 0.1535689
-0.0175068 0.04126244 0.1535689
0.006069731 0.04126244 0.1535689
0.04126244 0.04126244 0.1535689
0.1535689 0.04126244 0.1535689
0.518627 0.04126244 0.1535689
1.705268 0.04126244 0.1535689
5.562508 0.04126244 0.1535689
18.10068 0.04126244 0.1535689
58.85664 0.04126244 0.1535689
-0.0175068 0.1535689 0.1535689
0.006069731 0.1535689 0.1535689
0.04126244 0.1535689 0.1535689
0.1535689 0.1535689 0.1535689
0.518627 0.1535689 0.1535689
1.705268 0.1535689 0.1535689
5.562508 0.1535689 0.1535689
18.10068 0.1535689 0.1535689
58.85664 0.1535689 0.1535689
-0.0175068 0.518627 0.1535689
0.006069731 0.518627 0.1535689
0.04126244 0.518627 0.1535689
0.1535689 0.518627 0.1535689
0.518627 0.518627 0.1535689
1.705268 0.518627 0.1535689
5.562508 0.518627 0.1535689
18.10068 0.518627 0.1535689
58.85664 0.518627 0.1535689
-0.0175068 1.705268 0.1535689
0.006069731 1.705268 0.1535689
0.04126244 1.705268 0.1535689
0.1535689 1.705268 0.1535689
0.518627 1.705268 0.1535689
1.705268 1.705268 0.1535689
5.562508 1.705268 0.1535689
18.10068 1.705268 0.1535689
58.85664 1.705268 0.1535689
-0.0175068 5.562508 0.1535689
0.006069731 5.562508 0.1535689
0.04126244 5.562508 0.1535689
0.1535689 5.562508 0.1535689
0.518627 5.562508 0.1535689
1.705268 5.562508 0.1535689
5.562508 5.562508 0.1535689
18.10068 5.562508 0.1535689
58.85664 5.562508 0.1535689
-0.0175068 18.10068 0.1535689
0.006069731 18.10068 0.1535689
0.04126244 18.10068 0.1535689
0.1535689 18.10068 0.1535689
0.518627 18.10068 0.1535689
1.705268 18.10068 0.1535689
5.562508 18.10068 0.1535689
18.10068 18.10068 0.1535689
58.85664 18.10068 0.1535689
-0.0175068 58.85664 0.1535689
0.006069731 58.85664 0.1535689
0.04126244 58.85664 0.1535689
0.1535689 58.85664 0.1535689
0.518627 58.85664 0.1535689
1.705268 58.85664 0.1535689
5.562508 58.85664 0.1535689
18.10068 58.85664 0.1535689
58.85664 58.85664 0.1535689
-0.0175068 -0.0175068 0.518627
0.006069731 -0.0175068 0.518627
0.04126244 -0.0175068 0.518627
0.1535689 -0.0175068 0.518627
0.518627 -0.0175068 0.518627
1.705268 -0.0175068 0.518627
5.562508 -0.0175068 0.518627
18.10068 -0.0175068 0.518627
58.85664 -0.0175068 0.518627
-0.0175068 0.006069731 0.518627
0.006069731 0.006069731 0.518627
0.04126244 0.006069731 0.518627
0.1535689 0.006069731 0.518627
0.518627 0.006069731 0.518627
1.705268 0.006069731 0.518627
5.562508 0.006069731 0.518627
18.10068 0.006069731 0.518627
58.85664 0.006069731 0.518627
-0.0175068 0.04126244 0.518627
0.006069731 0.04126244 0.518627
0.04126244 0.04126244 0.518627
0.1535689 0.04126244 0.518627
0.518627 0.04126244 0.518627
1.705268 0.04126244 0.518627
5.562508 0.04126244 0.518627
18.10068 0.04126244 0.518627
58.85664 0.04126244 0.518627
-0.0175068 0.1535689 0.518627
0.006069731 0.1535689 0.518627
0.04126244 0.1535689 0.518627
0.1535689 0.1535689 0.518627
0.518627 0.1535689 0.518627
1.705268 0.1535689 0.518627
5.562508 0.1535689 0.518627
18.10068 0.1535689 0.518627
58.85664 0.1535689 0.518627
-0.0175068 0.518627 0.518627
0.006069731 0.518627 0.518627
0.04126244 0.518627 0.518627
0.1535689 0.518627 0.518627
0.518627 0.518627 0.518627
1.705268 0.518627 0.518627
5.562508 0.518627 0.518627
18.10068 0.518627 0.518627
58.85664 0.518627 0.518627
-0.0175068 1.705268 0.518627
0.006069731 1.705268 0.518627
0.04126244 1.705268 0.518627
0.1535689 1.705268 0.518627
0.518627 1.705268 0.518627
1.705268 1.705268 0.518627
5.562508 1.705268 0.518627
18.10068 1.705268 0.518627
58.85664 1.705268 0.518627
-0.0175068 5.562508 0.518627
0.006069731 5.562508 0.518627
0.04126244 5.562508 0.518627
0.1535689 5.562508 0.518627
0.518627 5.562508 0.518627
1.705268 5.562508 0.518627
5.562508 5.562508 0.518627
18.10068 5.562508 0.518627
58.85664 5.562508 0.518627
-0.0175068 18.10068 0.518627
0.006069731 18.10068 0.518627
0.04126244 18.10068 0.518627
0.1535689 18.10068 0.518627
0.518627 18.10068 0.518627
1.705268 18.10068 0.518627
5.562508 18.10068 0.518627
18.10068 18.10068 0.518627
58.85664 18.10068 0.518627
-0.0175068 58.85664 0.518627
0.006069731 58.85664 0.518627
0.04126244 58.85664 0.518627
0.1535689 58.85664 0.518627
0.518627 58.85664 0.518627
1.705268 58.85664 0.518627
5.562508 58.85664 0.518627
18.10068 58.85664 0.518627
58.85664 58.85664 0.518627
-0.0175068 -0.0175068 1.705268
0.006069731 -0.0175068 1.705268
0.04126244 -0.0175068 1.705268
0.1535689 -0.0175068 1.705268
0.518627 -0.0175068 1.705268
1.705268 -0.0175068 1.705268
5.562508 -0.0175068 1.705268
18.10068 -0.0175068 1.705268
58.85664 -0.0175068 1.705268
-0.0175068 0.006069731 1.705268
0.006069731 0.006069731 1.705268
0.04126244 0.006069731 1.705268
0.1535689 0.006069731 1.705268
0.518627 0.006069731 1.705268
1.705268 0.006069731 1.705268
5.562508 0.006069731 1.705268
18.10068 0.006069731 1.705268
58.85664 0.006069731 1.705268
-0.0175068 0.04126244 1.705268
0.006069731 0.04126244 1.705268
0.04126244 0.04126244 1.705268
0.1535689 0.04126244 1.705268
0.518627 0.04126244 1.705268
1.705268 0.04126244 1.705268
5.562508 0.04126244 1.705268
18.10068 0.04126244 1.705268
58.85664 0.04126244 1.705268
-0.0175068 0.1535689 1.705268
0.006069731 0.1535689 1.705268
0.04126244 0.1535689 1.705268
0.1535689 0.1535689 1.705268
0.518627 0.1535689 1.705268
1.705268 0.1535689 1.705268
5.562508 0.1535689 1.705268
18.10068 0.1535689 1.705268
58.85664 0.1535689 1.705268
-0.0175068 0.518627 1.705268
0.006069731 0.518627 1.705268
0.04126244 0.518627 1.705268
0.1535689 0.518627 1.705268
0.518627 0.518627 1.705268
1.705268 0.518627 1.705268
5.562508 0.518627 1.705268
18.10068 0.518627 1.705268
58.85664 0.518627 1.705268
-0.0175068 1.705268 1.705268
0.006069731 1.705268 1.705268
0.04126244 1.705268 1.705268
0.1535689 1.705268 1.705268
0.518627 1.705268 1.705268
1.705268 1.705268 1.705268
5.562508 1.705268 1.705268
18.10068 1.705268 1.705268
58.85664 1.705268 1.705268
-0.0175068 5.562508 1.705268
0.006069731 5.562508 1.705268
0.04126244 5.562508 1.705268
0.1535689 5.562508 1.705268
0.518627 5.562508 1.705268
1.705268 5.562508 1.705268
5.562508 5.562508 1.705268
18.10068 5.562508 1.705268
58.85664 5.562508 1.705268
-0.0175068 18.10068 1.705268
0.006069731 18.10068 1.705268
0.04126244 18.10068 1.705268
0.1535689 18.10068 1.705268
0.518627 18.10068 1.705268
1.705268 18.10068 1.705268
5.562508 18.10068 1.705268
18.10068 18.10068 1.705268
58.85664 18.10068 1.705268
-0.0175068 58.85664 1.705268
0.006069731 58.85664 1.705268
0.04126244 58.85664 1.705268
0.1535689 58.85664 1.705268
0.518627 58.85664 1.705268
1.705268 58.85664 1.705268
5.562508 58.85664 1.705268
18.10068 58.85664 1.705268
58.85664 58.85664 1.705268
-0.0175068 -0.0175068 5.562508
0.006069731 -0.0175068 5.562508
0.04126244 -0.0175068 5.562508
0.1535689 -0.0175068 5.562508
0.518627 -0.0175068 5.562508
1.705268 -0.0175068 5.562508
5.562508 -0.0175068 5.562508
18.10068 -0.0175068 5.562508
58.85664 -0.0175068 5.562508
-0.0175068 0.006069731 5.562508
0.006069731 0.006069731 5.562508
0.04126244 0.006069731 5.562508
0.1535689 0.006069731 5.562508
0.518627 0.006069731 5.562508
1.705268 0.006069731 5.562508
5.562508 0.006069731 5.562508
18.10068 0.006069731 5.562508
58.85664 0.006069731 5.562508
-0.0175068 0.04126244 5.562508
0.006069731 0.04126244 5.562508
0.04126244 0.04126244 5.562508
0.1535689 0.04126244 5.562508
0.518627 0.04126244 5.562508
1.705268 0.04126244 5.562508
5.562508 0.04126244 5.562508
18.10068 0.04126244 5.562508
58.85664 0.04126244 5.562508
-0.0175068 0.1535689 5.562508
0.006069731 0.1535689 5.562508
0.04126244 0.1535689 5.562508
0.1535689 0.1535689 5.562508
0.518627 0.1535689 5.562508
1.705268 0.1535689 5.562508
5.562508 0.1535689 5.562508
18.10068 0.1535689 5.562508
58.85664 0.1535689 5.562508
-0.0175068 0.518627 5.562508
0.006069731 0.518627 5.562508
0.04126244 0.518627 5.562508
0.1535689 0.518627 5.562508
0.518627 0.518627 5.562508
1.705268 0.518627 5.562508
5.562508 0.518627 5.562508
18.10068 0.518627 5.562508
58.85664 0.518627 5.562508
-0.0175068 1.705268 5.562508
0.006069731 1.705268 5.562508
0.04126244 1.705268 5.562508
0.1535689 1.705268 5.562508
0.518627 1.705268 5.562508
1.705268 1.705268 5.562508
5.562508 1.705268 5.562508
18.10068 1.705268 5.562508
58.85664 1.705268 5.562508
-0.0175068 5.562508 5.562508
0.006069731 5.562508 5.562508
0.04126244 5.562508 5.562508
0.1535689 5.562508 5.562508
0.518627 5.562508 5.562508
1.705268 5.562508 5.562508
5.562508 5.562508 5.562508
18.10068 5.562508 5.562508
58.85664 5.562508 5.562508
-0.0175068 18.10068 5.562508
0.006069731 18.10068 5.562508
0.04126244 18.10068 5.562508
0.1535689 18.10068 5.562508
0.518627 18.10068 5.562508
1.705268 18.10068 5.562508
5.562508 18.10068 5.562508
18.10068 18.10068 5.562508
58.85664 18.10068 5.562508
-0.0175068 58.85664 5.562508
0.006069731 58.85664 5.562508
0.04126244 58.85664 5.562508
0.1535689 58.85664 5.562508
0.518627 58.85664 5.562508
1.705268 58.85664 5.562508
5.562508 58.85664 5.562508
18.10068 58.85664 5.562508
58.85664 58.85664 5.562508
-0.0175068 -0.0175068 18.10068
0.006069731 -0.0175068 18.10068
0.04126244 -0.0175068 18.10068
0.1535689 -0.0175068 18.10068
0.518627 -0.0175068 18.10068
1.705268 -0.0175068 18.10068
5.562508 -0.0175068 18.10068
18.10068 -0.0175068 18.10068
58.85664 -0.0175068 18.10068
-0.0175068 0.006069731 18.10068
0.006069731 0.006069731 18.10068
0.04126244 0.006069731 18.10068
0.1535689 0.006069731 18.10068
0.518627 0.006069731 18.10068
1.705268 0.006069731 18.10068
5.562508 0.006069731 18.10068
18.10068 0.006069731 18.10068
58.85664 0.006069731 18.10068
-0.0175068 0.04126244 18.10068
0.006069731 0.04126244 18.10068
0.04126244 0.04126244 18.10068
0.1535689 0.04126244 18.10068
0.518627 0.04126244 18.10068
1.705268 0.04126244 18.10068
5.562508 0.04126244 18.10068
18.10068 0.04126244 18.10068
58.85664 0.04126244 18.10068
-0.0175068 0.1535689 18.10068
0.006069731 0.1535689 18.10068
0.04126244 0.1535689 18.10068
0.1535689 0.1535689 18.10068
0.518627 0.1535689 18.10068
1.705268 0.1535689 18.10068
5.562508 0.1535689 18.10068
18.10068 0.1535689 18.10068
58.85664 0.1535689 18.10068
-0.0175068 0.518627 18.10068
0.006069731 0.518627 18.10068
0.04126244 0.518627 18.10068
0.1535689 0.518627 18.10068
0.518627 0.518627 18.10068
1.705268 0.518627 18.10068
5.562508 0.518627 18.10068
18.10068 0.518627 18.10068
58.85664 0.518627 18.10068
-0.0175068 1.705268 18.10068
0.006069731 1.705268 18.10068
0.04126244 1.705268 18.10068
0.1535689 1.705268 18.10068
0.518627 1.705268 18.10068
1.705268 1.705268 18.10068
5.562508 1.705268 18.10068
18.10068 1.705268 18.10068
58.85664 1.705268 18.10068
-0.0175068 5.562508 18.10068
0.006069731 5.562508 18.10068
0.04126244 5.562508 18.10068
0.1535689 5.562508 18.10068
0.518627 5.562508 18.10068
1.705268 5.562508 18.10068
5.562508 5.562508 18.10068
18.10068 5.562508 18.10068
58.85664 5.562508 18.10068
-0.0175068 18.10068 18.10068
0.006069731 18.10068 18.10068
0.04126244 18.10068 18.10068
0.1535689 18.10068 18.10068
0.518627 18.10068 18.10068
1.705268 18.10068 18.10068
5.562508 18.10068 18.10068
18.10068 18.10068 18.10068
58.85664 18.10068 18.10068
-0.0175068 58.85664 18.10068
0.006069731 58.85664 18.10068
0.04126244 58.85664 18.10068
0.1535689 58.85664 18.10068
0.518627 58.85664 18.10068
1.705268 58.85664 18.10068
5.562508 58.85664 18.10068
18.10068 58.85664 18.10068
58.85664 58.85664 18.10068
-0.0175068 -0.0175068 58.85664
0.006069731 -0.0175068 58.85664
0.04126244 -0.0175068 58.85664
0.1535689 -0.0175068 58.85664
0.518627 -0.0175068 58.85664
1.705268 -0.0175068 58.85664
5.562508 -0.0175068 58.85664
18.10068 -0.0175068 58.85664
58.85664 -0.0175068 58.85664
-0.0175068 0.006069731 58.85664
0.006069731 0.006069731 58.85664
0.04126244 0.006069731 58.85664
0.1535689 0.006069731 58.85664
0.518627 0.006069731 58.85664
1.705268 0.006069731 58.85664
5.562508 0.006069731 58.85664
18.10068 0.006069731 58.85664
58.85664 0.006069731 58.85664
-0.0175068 0.04126244 58.85664
0.006069731 0.04126244 58.85664
0.04126244 0.04126244 58.85664
0.1535689 0.04126244 58.85664
0.518627 0.04126244 58.85664
1.705268 0.04126244 58.85664
5.562508 0.04126244 58.85664
18.10068 0.04126244 58.85664
58.85664 0.04126244 58.85664
-0.0175068 0.1535689 58.85664
0.006069731 0.1535689 58.85664
0.04126244 0.1535689 58.85664
0.1535689 0.1535689 58.85664
0.518627 0.1535689 58.85664
1.705268 0.1535689 58.85664
5.562508 0.1535689 58.85664
18.10068 0.1535689 58.85664
58.85664 0.1535689 58.85664
-0.0175068 0.518627 58.85664
0.006069731 0.518627 58.85664
0.04126244 0.518627 58.85664
0.1535689 0.518627 58.85664
0.518627 0.518627 58.85664
1.705268 0.518627 58.85664
5.562508 0.518627 58.85664
18.10068 0.518627 58.85664
58.85664 0.518627 58.85664
-0.0175068 1.705268 58.85664
0.006069731 1.705268 58.85664
0.04126244 1.705268 58.85664
0.1535689 1.705268 58.85664
0.518627 1.705268 58.85664
1.705268 1.705268 58.85664
5.562508 1.705268 58.85664
18.10068 1.705268 58.85664
58.85664 1.705268 58.85664
-0.0175068 5.562508 58.85664
0.006069731 5.562508 58.85664
0.04126244 5.562508 58.85664
0.1535689 5.562508 58.85664
0.518627 5.562508 58.85664
1.705268 5.562508 58.85664
5.562508 5.562508 58.85664
18.10068 5.562508 58.85664
58.85664 5.562508 58.85664
-0.0175068 18.10068 58.85664
0.006069731 18.10068 58.85664
0.04126244 18.10068 58.85664
0.1535689 18.10068 58.85664
0.518627 18.10068 58.85664
1.705268 18.10068 58.85664
5.562508 18.10068 58.85664
18.10068 18.10068 58.85664
58.85664 18.10068 58.85664
-0.0175068 58.85664 58.85664
0.006069731 58.85664 58.85664
0.04126244 58.85664 58.85664
0.1535689 58.85664 58.85664
0.518627 58.85664 58.85664
1.705268 58.85664 58.85664
5.562508 58.85664 58.85664
18.10068 58.85664 58.85664
58.85664 58.85664 58.85664
