com.unity.render-pipelines.high-definition/Samples~/PostProcessingData/Cube LUTs/Unity Log to Linear r1.cube
TITLE "Unity Log to Linear r1"
LUT_3D_SIZE 33
DOMAIN_MIN 0 0 0
DOMAIN_MAX 1 1 1
-0.0175068 -0.0175068 -0.0175068
-0.01161267 -0.0175068 -0.0175068
-0.005718534 -0.0175068 -0.0175068
0.0001755984 -0.0175068 -0.0175068
0.006069731 -0.0175068 -0.0175068
0.01197402 -0.0175068 -0.0175068
0.01903886 -0.0175068 -0.0175068
0.02852504 -0.0175068 -0.0175068
0.04126244 -0.0175068 -0.0175068
0.05836535 -0.0175068 -0.0175068
0.08132997 -0.0175068 -0.0175068
0.1121653 -0.0175068 -0.0175068
0.1535689 -0.0175068 -0.0175068
0.2091628 -0.0175068 -0.0175068
0.2838106 -0.0175068 -0.0175068
0.3840425 -0.0175068 -0.0175068
0.518627 -0.0175068 -0.0175068
0.6993381 -0.0175068 -0.0175068
0.9419845 -0.0175068 -0.0175068
1.267794 -0.0175068 -0.0175068
1.705268 -0.0175068 -0.0175068
2.292679 -0.0175068 -0.0175068
3.081414 -0.0175068 -0.0175068
4.140474 -0.0175068 -0.0175068
5.562508 -0.0175068 -0.0175068
7.471917 -0.0175068 -0.0175068
10.03574 -0.0175068 -0.0175068
13.47828 -0.0175068 -0.0175068
18.10068 -0.0175068 -0.0175068
24.30731 -0.0175068 -0.0175068
32.64117 -0.0175068 -0.0175068
43.83129 -0.0175068 -0.0175068
58.85664 -0.0175068 -0.0175068
-0.0175068 -0.01161267 -0.0175068
-0.01161267 -0.01161267 -0.0175068
-0.005718534 -0.01161267 -0.0175068
0.0001755984 -0.01161267 -0.0175068
0.006069731 -0.01161267 -0.0175068
0.01197402 -0.01161267 -0.0175068
0.01903886 -0.01161267 -0.0175068
0.02852504 -0.01161267 -0.0175068
0.04126244 -0.01161267 -0.0175068
0.05836535 -0.01161267 -0.0175068
0.08132997 -0.01161267 -0.0175068
0.1121653 -0.01161267 -0.0175068
0.1535689 -0.01161267 -0.0175068
0.2091628 -0.01161267 -0.0175068
0.2838106 -0.01161267 -0.0175068
0.3840425 -0.01161267 -0.0175068
0.518627 -0.01161267 -0.0175068
0.6993381 -0.01161267 -0.0175068
0.9419845 -0.01161267 -0.0175068
1.267794 -0.01161267 -0.0175068
1.705268 -0.01161267 -0.0175068
2.292679 -0.01161267 -0.0175068
3.081414 -0.01161267 -0.0175068
4.140474 -0.01161267 -0.0175068
5.562508 -0.01161267 -0.0175068
7.471917 -0.01161267 -0.0175068
10.03574 -0.01161267 -0.0175068
13.47828 -0.01161267 -0.0175068
18.10068 -0.01161267 -0.0175068
24.30731 -0.01161267 -0.0175068
32.64117 -0.01161267 -0.0175068
43.83129 -0.01161267 -0.0175068
58.85664 -0.01161267 -0.0175068
-0.0175068 -0.005718534 -0.0175068
-0.01161267 -0.005718534 -0.0175068
-0.005718534 -0.005718534 -0.0175068
0.0001755984 -0.005718534 -0.0175068
0.006069731 -0.005718534 -0.0175068
0.01197402 -0.005718534 -0.0175068
0.01903886 -0.005718534 -0.0175068
0.02852504 -0.005718534 -0.0175068
0.04126244 -0.005718534 -0.0175068
0.05836535 -0.005718534 -0.0175068
0.08132997 -0.005718534 -0.0175068
0.1121653 -0.005718534 -0.0175068
0.1535689 -0.005718534 -0.0175068
0.2091628 -0.005718534 -0.0175068
0.2838106 -0.005718534 -0.0175068
0.3840425 -0.005718534 -0.0175068
0.518627 -0.005718534 -0.0175068
0.6993381 -0.005718534 -0.0175068
0.9419845 -0.005718534 -0.0175068
1.267794 -0.005718534 -0.0175068
1.705268 -0.005718534 -0.0175068
2.292679 -0.005718534 -0.0175068
3.081414 -0.005718534 -0.0175068
4.140474 -0.005718534 -0.0175068
5.562508 -0.005718534 -0.0175068
7.471917 -0.005718534 -0.0175068
10.03574 -0.005718534 -0.0175068
13.47828 -0.005718534 -0.0175068
18.10068 -0.005718534 -0.0175068
24.30731 -0.005718534 -0.0175068
32.64117 -0.005718534 -0.0175068
43.83129 -0.005718534 -0.0175068
58.85664 -0.005718534 -0.0175068
-0.0175068 0.0001755984 -0.0175068
-0.01161267 0.0001755984 -0.0175068
-0.005718534 0.0001755984 -0.0175068
0.0001755984 0.0001755984 -0.0175068
0.006069731 0.0001755984 -0.0175068
0.01197402 0.0001755984 -0.0175068
0.01903886 0.0001755984 -0.0175068
0.02852504 0.0001755984 -0.0175068
0.04126244 0.0001755984 -0.0175068
0.05836535 0.0001755984 -0.0175068
0.08132997 0.0001755984 -0.0175068
0.1121653 0.0001755984 -0.0175068
0.1535689 0.0001755984 -0.0175068
0.2091628 0.0001755984 -0.0175068
0.2838106 0.0001755984 -0.0175068
0.3840425 0.0001755984 -0.0175068
0.518627 0.0001755984 -0.0175068
0.6993381 0.0001755984 -0.0175068
0.9419845 0.0001755984 -0.0175068
1.267794 0.0001755984 -0.0175068
1.705268 0.0001755984 -0.0175068
2.292679 0.0001755984 -0.0175068
3.081414 0.0001755984 -0.0175068
4.140474 0.0001755984 -0.0175068
5.562508 0.0001755984 -0.0175068
7.471917 0.0001755984 -0.0175068
10.03574 0.0001755984 -0.0175068
13.47828 0.0001755984 -0.0175068
18.10068 0.0001755984 -0.0175068
24.30731 0.0001755984 -0.0175068
32.64117 0.0001755984 -0.0175068
43.83129 0.0001755984 -0.0175068
58.85664 0.0001755984 -0.0175068
-0.0175068 0.006069731 -0.0175068
-0.01161267 0.006069731 -0.0175068
-0.005718534 0.006069731 -0.0175068
0.0001755984 0.006069731 -0.0175068
0.006069731 0.006069731 -0.0175068
0.01197402 0.006069731 -0.0175068
0.01903886 0.006069731 -0.0175068
0.02852504 0.006069731 -0.0175068
0.04126244 0.006069731 -0.0175068
0.05836535 0.006069731 -0.0175068
0.08132997 0.006069731 -0.0175068
0.1121653 0.006069731 -0.0175068
0.1535689 0.006069731 -0.0175068
0.2091628 0.006069731 -0.0175068
0.2838106 0.006069731 -0.0175068
0.3840425 0.006069731 -0.0175068
0.518627 0.006069731 -0.0175068
0.6993381 0.006069731 -0.0175068
0.9419845 0.006069731 -0.0175068
1.267794 0.006069731 -0.0175068
1.705268 0.006069731 -0.0175068
2.292679 0.006069731 -0.0175068
3.081414 0.006069731 -0.0175068
4.140474 0.006069731 -0.0175068
5.562508 0.006069731 -0.0175068
7.471917 0.006069731 -0.0175068
10.03574 0.006069731 -0.0175068
13.47828 0.006069731 -0.0175068
18.10068 0.006069731 -0.0175068
24.30731 0.006069731 -0.0175068
32.64117 0.006069731 -0.0175068
43.83129 0.006069731 -0.0175068
58.85664 0.006069731 -0.0175068
-0.0175068 0.01197402 -0.0175068
-0.01161267 0.01197402 -0.0175068
-0.005718534 0.01197402 -0.0175068
0.0001755984 0.01197402 -0.0175068
0.006069731 0.01197402 -0.0175068
0.01197402 0.01197402 -0.0175068
0.01903886 0.01197402 -0.0175068
0.02852504 0.01197402 -0.0175068
0.04126244 0.01197402 -0.0175068
0.05836535 0.01197402 -0.0175068
0.08132997 0.01197402 -0.0175068
0.1121653 0.01197402 -0.0175068
0.1535689 0.01197402 -0.0175068
0.2091628 0.01197402 -0.0175068
0.2838106 0.01197402 -0.0175068
0.3840425 0.01197402 -0.0175068
0.518627 0.01197402 -0.0175068
0.6993381 0.01197402 -0.0175068
0.9419845 0.01197402 -0.0175068
1.267794 0.01197402 -0.0175068
1.705268 0.01197402 -0.0175068
2.292679 0.01197402 -0.0175068
3.081414 0.01197402 -0.0175068
4.140474 0.01197402 -0.0175068
5.562508 0.01197402 -0.0175068
7.471917 0.01197402 -0.0175068
10.03574 0.01197402 -0.0175068
13.47828 0.01197402 -0.0175068
18.10068 0.01197402 -0.0175068
24.30731 0.01197402 -0.0175068
32.64117 0.01197402 -0.0175068
43.83129 0.01197402 -0.0175068
58.85664 0.01197402 -0.0175068
-0.0175068 0.01903886 -0.0175068
-0.01161267 0.01903886 -0.0175068
-0.005718534 0.01903886 -0.0175068
0.0001755984 0.01903886 -0.0175068
0.006069731 0.01903886 -0.0175068
0.01197402 0.01903886 -0.0175068
0.01903886 0.01903886 -0.0175068
0.02852504 0.01903886 -0.0175068
0.04126244 0.01903886 -0.0175068
0.05836535 0.01903886 -0.0175068
0.08132997 0.01903886 -0.0175068
0.1121653 0.01903886 -0.0175068
0.1535689 0.01903886 -0.0175068
0.2091628 0.01903886 -0.0175068
0.2838106 0.01903886 -0.0175068
0.3840425 0.01903886 -0.0175068
0.518627 0.01903886 -0.0175068
0.6993381 0.01903886 -0.0175068
0.9419845 0.01903886 -0.0175068
1.267794 0.01903886 -0.0175068
1.705268 0.01903886 -0.0175068
2.292679 0.01903886 -0.0175068
3.081414 0.01903886 -0.0175068
4.140474 0.01903886 -0.0175068
5.562508 0.01903886 -0.0175068
7.471917 0.01903886 -0.0175068
10.03574 0.01903886 -0.0175068
13.47828 0.01903886 -0.0175068
18.10068 0.01903886 -0.0175068
24.30731 0.01903886 -0.0175068
32.64117 0.01903886 -0.0175068
43.83129 0.01903886 -0.0175068
58.85664 0.01903886 -0.0175068
-0.0175068 0.02852504 -0.0175068
-0.01161267 0.02852504 -0.0175068
-0.005718534 0.02852504 -0.0175068
0.0001755984 0.02852504 -0.0175068
0.006069731 0.02852504 -0.0175068
0.01197402 0.02852504 -0.0175068
0.01903886 0.02852504 -0.0175068
0.02852504 0.02852504 -0.0175068
0.04126244 0.02852504 -0.0175068
0.05836535 0.02852504 -0.0175068
0.08132997 0.02852504 -0.0175068
0.1121653 0.02852504 -0.0175068
0.1535689 0.02852504 -0.0175068
0.2091628 0.02852504 -0.0175068
0.2838106 0.02852504 -0.0175068
0.3840425 0.02852504 -0.0175068
0.518627 0.02852504 -0.0175068
0.6993381 0.02852504 -0.0175068
0.9419845 0.02852504 -0.0175068
1.267794 0.02852504 -0.0175068
1.705268 0.02852504 -0.0175068
2.292679 0.02852504 -0.0175068
3.081414 0.02852504 -0.0175068
4.140474 0.02852504 -0.0175068
5.562508 0.02852504 -0.0175068
7.471917 0.02852504 -0.0175068
10.03574 0.02852504 -0.0175068
13.47828 0.02852504 -0.0175068
18.10068 0.02852504 -0.0175068
24.30731 0.02852504 -0.0175068
32.64117 0.02852504 -0.0175068
43.83129 0.02852504 -0.0175068
58.85664 0.02852504 -0.0175068
-0.0175068 0.04126244 -0.0175068
-0.01161267 0.04126244 -0.0175068
-0.005718534 0.04126244 -0.0175068
0.0001755984 0.04126244 -0.0175068
0.006069731 0.04126244 -0.0175068
0.01197402 0.04126244 -0.0175068
0.01903886 0.04126244 -0.0175068
0.02852504 0.04126244 -0.0175068
0.04126244 0.04126244 -0.0175068
0.05836535 0.04126244 -0.0175068
0.08132997 0.04126244 -0.0175068
0.1121653 0.04126244 -0.0175068
0.1535689 0.04126244 -0.0175068
0.2091628 0.04126244 -0.0175068
0.2838106 0.04126244 -0.0175068
0.3840425 0.04126244 -0.0175068
0.518627 0.04126244 -0.0175068
0.6993381 0.04126244 -0.0175068
0.9419845 0.04126244 -0.0175068
1.267794 0.04126244 -0.0175068
1.705268 0.04126244 -0.0175068
2.292679 0.04126244 -0.0175068
3.081414 0.04126244 -0.0175068
4.140474 0.04126244 -0.0175068
5.562508 0.04126244 -0.0175068
7.471917 0.04126244 -0.0175068
10.03574 0.04126244 -0.0175068
13.47828 0.04126244 -0.0175068
18.10068 0.04126244 -0.0175068
24.30731 0.04126244 -0.0175068
32.64117 0.04126244 -0.0175068
43.83129 0.04126244 -0.0175068
58.85664 0.04126244 -0.0175068
-0.0175068 0.05836535 -0.0175068
-0.01161267 0.05836535 -0.0175068
-0.005718534 0.05836535 -0.0175068
0.0001755984 0.05836535 -0.0175068
0.006069731 0.05836535 -0.0175068
0.01197402 0.05836535 -0.0175068
0.01903886 0.05836535 -0.0175068
0.02852504 0.05836535 -0.0175068
0.04126244 0.05836535 -0.0175068
0.05836535 0.05836535 -0.0175068
0.08132997 0.05836535 -0.0175068
0.1121653 0.05836535 -0.0175068
0.1535689 0.05836535 -0.0175068
0.2091628 0.05836535 -0.0175068
0.2838106 0.05836535 -0.0175068
0.3840425 0.05836535 -0.0175068
0.518627 0.05836535 -0.0175068
0.6993381 0.05836535 -0.0175068
0.9419845 0.05836535 -0.0175068
1.267794 0.05836535 -0.0175068
1.705268 0.05836535 -0.0175068
2.292679 0.05836535 -0.0175068
3.081414 0.05836535 -0.0175068
4.140474 0.05836535 -0.0175068
5.562508 0.05836535 -0.0175068
7.471917 0.05836535 -0.0175068
10.03574 0.05836535 -0.0175068
13.47828 0.05836535 -0.0175068
18.10068 0.05836535 -0.0175068
24.30731 0.05836535 -0.0175068
32.64117 0.05836535 -0.0175068
43.83129 0.05836535 -0.0175068
58.85664 0.05836535 -0.0175068
-0.0175068 0.08132997 -0.0175068
-0.01161267 0.08132997 -0.0175068
-0.005718534 0.08132997 -0.0175068
0.0001755984 0.08132997 -0.0175068
0.006069731 0.08132997 -0.0175068
0.01197402 0.08132997 -0.0175068
0.01903886 0.08132997 -0.0175068
0.02852504 0.08132997 -0.0175068
0.04126244 0.08132997 -0.0175068
0.05836535 0.08132997 -0.0175068
0.08132997 0.08132997 -0.0175068
0.1121653 0.08132997 -0.0175068
0.1535689 0.08132997 -0.0175068
0.2091628 0.08132997 -0.0175068
0.2838106 0.08132997 -0.0175068
0.3840425 0.08132997 -0.0175068
0.518627 0.08132997 -0.0175068
0.6993381 0.08132997 -0.0175068
0.9419845 0.08132997 -0.0175068
1.267794 0.08132997 -0.0175068
1.705268 0.08132997 -0.0175068
2.292679 0.08132997 -0.0175068
3.081414 0.08132997 -0.0175068
4.140474 0.08132997 -0.0175068
5.562508 0.08132997 -0.0175068
7.471917 0.08132997 -0.0175068
10.03574 0.08132997 -0.0175068
13.47828 0.08132997 -0.0175068
18.10068 0.08132997 -0.0175068
24.30731 0.08132997 -0.0175068
32.64117 0.08132997 -0.0175068
43.83129 0.08132997 -0.0175068
58.85664 0.08132997 -0.0175068
-0.0175068 0.1121653 -0.0175068
-0.01161267 0.1121653 -0.0175068
-0.005718534 0.1121653 -0.0175068
0.0001755984 0.1121653 -0.0175068
0.006069731 0.1121653 -0.0175068
0.01197402 0.1121653 -0.0175068
0.01903886 0.1121653 -0.0175068
0.02852504 0.1121653 -0.0175068
0.04126244 0.1121653 -0.0175068
0.05836535 0.1121653 -0.0175068
0.08132997 0.1121653 -0.0175068
0.1121653 0.1121653 -0.0175068
0.1535689 0.1121653 -0.0175068
0.2091628 0.1121653 -0.0175068
0.2838106 0.1121653 -0.0175068
0.3840425 0.1121653 -0.0175068
0.518627 0.1121653 -0.0175068
0.6993381 0.1121653 -0.0175068
0.9419845 0.1121653 -0.0175068
1.267794 0.1121653 -0.0175068
1.705268 0.1121653 -0.0175068
2.292679 0.1121653 -0.0175068
3.081414 0.1121653 -0.0175068
4.140474 0.1121653 -0.0175068
5.562508 0.1121653 -0.0175068
7.471917 0.1121653 -0.0175068
10.03574 0.1121653 -0.0175068
13.47828 0.1121653 -0.0175068
18.10068 0.1121653 -0.0175068
24.30731 0.1121653 -0.0175068
32.64117 0.1121653 -0.0175068
43.83129 0.1121653 -0.0175068
58.85664 0.1121653 -0.0175068
-0.0175068 0.1535689 -0.0175068
-0.01161267 0.1535689 -0.0175068
-0.005718534 0.1535689 -0.0175068
0.0001755984 0.1535689 -0.0175068
0.006069731 0.1535689 -0.0175068
0.01197402 0.1535689 -0.0175068
0.01903886 0.1535689 -0.0175068
0.02852504 0.1535689 -0.0175068
0.04126244 0.1535689 -0.0175068
0.05836535 0.1535689 -0.0175068
0.08132997 0.1535689 -0.0175068
0.1121653 0.1535689 -0.0175068
0.1535689 0.1535689 -0.0175068
0.2091628 0.1535689 -0.0175068
0.2838106 0.1535689 -0.0175068
0.3840425 0.1535689 -0.0175068
0.518627 0.1535689 -0.0175068
0.6993381 0.1535689 -0.0175068
0.9419845 0.1535689 -0.0175068
1.267794 0.1535689 -0.0175068
1.705268 0.1535689 -0.0175068
2.292679 0.1535689 -0.0175068
3.081414 0.1535689 -0.0175068
4.140474 0.1535689 -0.0175068
5.562508 0.1535689 -0.0175068
7.471917 0.1535689 -0.0175068
10.03574 0.1535689 -0.0175068
13.47828 0.1535689 -0.0175068
18.10068 0.1535689 -0.0175068
24.30731 0.1535689 -0.0175068
32.64117 0.1535689 -0.0175068
43.83129 0.1535689 -0.0175068
58.85664 0.1535689 -0.0175068
-0.0175068 0.2091628 -0.0175068
-0.01161267 0.2091628 -0.0175068
-0.005718534 0.2091628 -0.0175068
0.0001755984 0.2091628 -0.0175068
0.006069731 0.2091628 -0.0175068
0.01197402 0.2091628 -0.0175068
0.01903886 0.2091628 -0.0175068
0.02852504 0.2091628 -0.0175068
0.04126244 0.2091628 -0.0175068
0.05836535 0.2091628 -0.0175068
0.08132997 0.2091628 -0.0175068
0.1121653 0.2091628 -0.0175068
0.1535689 0.2091628 -0.0175068
0.2091628 0.2091628 -0.0175068
0.2838106 0.2091628 -0.0175068
0.3840425 0.2091628 -0.0175068
0.518627 0.2091628 -0.0175068
0.6993381 0.2091628 -0.0175068
0.9419845 0.2091628 -0.0175068
1.267794 0.2091628 -0.0175068
1.705268 0.2091628 -0.0175068
2.292679 0.2091628 -0.0175068
3.081414 0.2091628 -0.0175068
4.140474 0.2091628 -0.0175068
5.562508 0.2091628 -0.0175068
7.471917 0.2091628 -0.0175068
10.03574 0.2091628 -0.0175068
13.47828 0.2091628 -0.0175068
18.10068 0.2091628 -0.0175068
24.30731 0.2091628 -0.0175068
32.64117 0.2091628 -0.0175068
43.83129 0.2091628 -0.0175068
58.85664 0.2091628 -0.0175068
-0.0175068 0.2838106 -0.0175068
-0.01161267 0.2838106 -0.0175068
-0.005718534 0.2838106 -0.0175068
0.0001755984 0.2838106 -0.0175068
0.006069731 0.2838106 -0.0175068
0.01197402 0.2838106 -0.0175068
0.01903886 0.2838106 -0.0175068
0.02852504 0.2838106 -0.0175068
0.04126244 0.2838106 -0.0175068
0.05836535 0.2838106 -0.0175068
0.08132997 0.2838106 -0.0175068
0.1121653 0.2838106 -0.0175068
0.1535689 0.2838106 -0.0175068
0.2091628 0.2838106 -0.0175068
0.2838106 0.2838106 -0.0175068
0.3840425 0.2838106 -0.0175068
0.518627 0.2838106 -0.0175068
0.6993381 0.2838106 -0.0175068
0.9419845 0.2838106 -0.0175068
1.267794 0.2838106 -0.0175068
1.705268 0.2838106 -0.0175068
2.292679 0.2838106 -0.0175068
3.081414 0.2838106 -0.0175068
4.140474 0.2838106 -0.0175068
5.562508 0.2838106 -0.0175068
7.471917 0.2838106 -0.0175068
10.03574 0.2838106 -0.0175068
13.47828 0.2838106 -0.0175068
18.10068 0.2838106 -0.0175068
24.30731 0.2838106 -0.0175068
32.64117 0.2838106 -0.0175068
43.83129 0.2838106 -0.0175068
58.85664 0.2838106 -0.0175068
-0.0175068 0.3840425 -0.0175068
-0.01161267 0.3840425 -0.0175068
-0.005718534 0.3840425 -0.0175068
0.0001755984 0.3840425 -0.0175068
0.006069731 0.3840425 -0.0175068
0.01197402 0.3840425 -0.0175068
0.01903886 0.3840425 -0.0175068
0.02852504 0.3840425 -0.0175068
0.04126244 0.3840425 -0.0175068
0.05836535 0.3840425 -0.0175068
0.08132997 0.3840425 -0.0175068
0.1121653 0.3840425 -0.0175068
0.1535689 0.3840425 -0.0175068
0.2091628 0.3840425 -0.0175068
0.2838106 0.3840425 -0.0175068
0.3840425 0.3840425 -0.0175068
0.518627 0.3840425 -0.0175068
0.6993381 0.3840425 -0.0175068
0.9419845 0.3840425 -0.0175068
1.267794 0.3840425 -0.0175068
1.705268 0.3840425 -0.0175068
2.292679 0.3840425 -0.0175068
3.081414 0.3840425 -0.0175068
4.140474 0.3840425 -0.0175068
5.562508 0.3840425 -0.0175068
7.471917 0.3840425 -0.0175068
10.03574 0.3840425 -0.0175068
13.47828 0.3840425 -0.0175068
18.10068 0.3840425 -0.0175068
24.30731 0.3840425 -0.0175068
32.64117 0.3840425 -0.0175068
43.83129 0.3840425 -0.0175068
58.85664 0.3840425 -0.0175068
-0.0175068 0.518627 -0.0175068
-0.01161267 0.518627 -0.0175068
-0.005718534 0.518627 -0.0175068
0.0001755984 0.518627 -0.0175068
0.006069731 0.518627 -0.0175068
0.01197402 0.518627 -0.0175068
0.01903886 0.518627 -0.0175068
0.02852504 0.518627 -0.0175068
0.04126244 0.518627 -0.0175068
0.05836535 0.518627 -0.0175068
0.08132997 0.518627 -0.0175068
0.1121653 0.518627 -0.0175068
0.1535689 0.518627 -0.0175068
0.2091628 0.518627 -0.0175068
0.2838106 0.518627 -0.0175068
0.3840425 0.518627 -0.0175068
0.518627 0.518627 -0.0175068
0.6993381 0.518627 -0.0175068
0.9419845 0.518627 -0.0175068
1.267794 0.518627 -0.0175068
1.705268 0.518627 -0.0175068
2.292679 0.518627 -0.0175068
3.081414 0.518627 -0.0175068
4.140474 0.518627 -0.0175068
5.562508 0.518627 -0.0175068
7.471917 0.518627 -0.0175068
10.03574 0.518627 -0.0175068
13.47828 0.518627 -0.0175068
18.10068 0.518627 -0.0175068
24.30731 0.518627 -0.0175068
32.64117 0.518627 -0.0175068
43.83129 0.518627 -0.0175068
58.85664 0.518627 -0.0175068
-0.0175068 0.6993381 -0.0175068
-0.01161267 0.6993381 -0.0175068
-0.005718534 0.6993381 -0.0175068
0.0001755984 0.6993381 -0.0175068
0.006069731 0.6993381 -0.0175068
0.01197402 0.6993381 -0.0175068
0.01903886 0.6993381 -0.0175068
0.02852504 0.6993381 -0.0175068
0.04126244 0.6993381 -0.0175068
0.05836535 0.6993381 -0.0175068
0.08132997 0.6993381 -0.0175068
0.1121653 0.6993381 -0.0175068
0.1535689 0.6993381 -0.0175068
0.2091628 0.6993381 -0.0175068
0.2838106 0.6993381 -0.0175068
0.3840425 0.6993381 -0.0175068
0.518627 0.6993381 -0.0175068
0.6993381 0.6993381 -0.0175068
0.9419845 0.6993381 -0.0175068
1.267794 0.6993381 -0.0175068
1.705268 0.6993381 -0.0175068
2.292679 0.6993381 -0.0175068
3.081414 0.6993381 -0.0175068
4.140474 0.6993381 -0.0175068
5.562508 0.6993381 -0.0175068
7.471917 0.6993381 -0.0175068
10.03574 0.6993381 -0.0175068
13.47828 0.6993381 -0.0175068
18.10068 0.6993381 -0.0175068
24.30731 0.6993381 -0.0175068
32.64117 0.6993381 -0.0175068
43.83129 0.6993381 -0.0175068
58.85664 0.6993381 -0.0175068
-0.0175068 0.9419845 -0.0175068
-0.01161267 0.9419845 -0.0175068
-0.005718534 0.9419845 -0.0175068
0.0001755984 0.9419845 -0.0175068
0.006069731 0.9419845 -0.0175068
0.01197402 0.9419845 -0.0175068
0.01903886 0.9419845 -0.0175068
0.02852504 0.9419845 -0.0175068
0.04126244 0.9419845 -0.0175068
0.05836535 0.9419845 -0.0175068
0.08132997 0.9419845 -0.0175068
0.1121653 0.9419845 -0.0175068
0.1535689 0.9419845 -0.0175068
0.2091628 0.9419845 -0.0175068
0.2838106 0.9419845 -0.0175068
0.3840425 0.9419845 -0.0175068
0.518627 0.9419845 -0.0175068
0.6993381 0.9419845 -0.0175068
0.9419845 0.9419845 -0.0175068
1.267794 0.9419845 -0.0175068
1.705268 0.9419845 -0.0175068
2.292679 0.9419845 -0.0175068
3.081414 0.9419845 -0.0175068
4.140474 0.9419845 -0.0175068
5.562508 0.9419845 -0.0175068
7.471917 0.9419845 -0.0175068
10.03574 0.9419845 -0.0175068
13.47828 0.9419845 -0.0175068
18.10068 0.9419845 -0.0175068
24.30731 0.9419845 -0.0175068
32.64117 0.9419845 -0.0175068
43.83129 0.9419845 -0.0175068
58.85664 0.9419845 -0.0175068
-0.0175068 1.267794 -0.0175068
-0.01161267 1.267794 -0.0175068
-0.005718534 1.267794 -0.0175068
0.0001755984 1.267794 -0.0175068
0.006069731 1.267794 -0.0175068
0.01197402 1.267794 -0.0175068
0.01903886 1.267794 -0.0175068
0.02852504 1.267794 -0.0175068
0.04126244 1.267794 -0.0175068
0.05836535 1.267794 -0.0175068
0.08132997 1.267794 -0.0175068
0.1121653 1.267794 -0.0175068
0.1535689 1.267794 -0.0175068
0.2091628 1.267794 -0.0175068
0.2838106 1.267794 -0.0175068
0.3840425 1.267794 -0.0175068
0.518627 1.267794 -0.0175068
0.6993381 1.267794 -0.0175068
0.9419845 1.267794 -0.0175068
1.267794 1.267794 -0.0175068
1.705268 1.267794 -0.0175068
2.292679 1.267794 -0.0175068
3.081414 1.267794 -0.0175068
4.140474 1.267794 -0.0175068
5.562508 1.267794 -0.0175068
7.471917 1.267794 -0.0175068
10.03574 1.267794 -0.0175068
13.47828 1.267794 -0.0175068
18.10068 1.267794 -0.0175068
24.30731 1.267794 -0.0175068
32.64117 1.267794 -0.0175068
43.83129 1.267794 -0.0175068
58.85664 1.267794 -0.0175068
-0.0175068 1.705268 -0.0175068
-0.01161267 1.705268 -0.0175068
-0.005718534 1.705268 -0.0175068
0.0001755984 1.705268 -0.0175068
0.006069731 1.705268 -0.0175068
0.01197402 1.705268 -0.0175068
0.01903886 1.705268 -0.0175068
0.02852504 1.705268 -0.0175068
0.04126244 1.705268 -0.0175068
0.05836535 1.705268 -0.0175068
0.08132997 1.705268 -0.0175068
0.1121653 1.705268 -0.0175068
0.1535689 1.705268 -0.0175068
0.2091628 1.705268 -0.0175068
0.2838106 1.705268 -0.0175068
0.3840425 1.705268 -0.0175068
0.518627 1.705268 -0.0175068
0.6993381 1.705268 -0.0175068
0.9419845 1.705268 -0.0175068
1.267794 1.705268 -0.0175068
1.705268 1.705268 -0.0175068
2.292679 1.705268 -0.0175068
3.081414 1.705268 -0.0175068
4.140474 1.705268 -0.0175068
5.562508 1.705268 -0.0175068
7.471917 1.705268 -0.0175068
10.03574 1.705268 -0.0175068
13.47828 1.705268 -0.0175068
18.10068 1.705268 -0.0175068
24.30731 1.705268 -0.0175068
32.64117 1.705268 -0.0175068
43.83129 1.705268 -0.0175068
58.85664 1.705268 -0.0175068
-0.0175068 2.292679 -0.0175068
-0.01161267 2.292679 -0.0175068
-0.005718534 2.292679 -0.0175068
0.0001755984 2.292679 -0.0175068
0.006069731 2.292679 -0.0175068
0.01197402 2.292679 -0.0175068
0.01903886 2.292679 -0.0175068
0.02852504 2.292679 -0.0175068
0.04126244 2.292679 -0.0175068
0.05836535 2.292679 -0.0175068
0.08132997 2.292679 -0.0175068
0.1121653 2.292679 -0.0175068
0.1535689 2.292679 -0.0175068
0.2091628 2.292679 -0.0175068
0.2838106 2.292679 -0.0175068
0.3840425 2.292679 -0.0175068
0.518627 2.292679 -0.0175068
0.6993381 2.292679 -0.0175068
0.9419845 2.292679 -0.0175068
1.267794 2.292679 -0.0175068
1.705268 2.292679 -0.0175068
2.292679 2.292679 -0.0175068
3.081414 2.292679 -0.0175068
4.140474 2.292679 -0.0175068
5.562508 2.292679 -0.0175068
7.471917 2.292679 -0.0175068
10.03574 2.292679 -0.0175068
13.47828 2.292679 -0.0175068
18.10068 2.292679 -0.0175068
24.30731 2.292679 -0.0175068
32.64117 2.292679 -0.0175068
43.83129 2.292679 -0.0175068
58.85664 2.292679 -0.0175068
-0.0175068 3.081414 -0.0175068
-0.01161267 3.081414 -0.0175068
-0.005718534 3.081414 -0.0175068
0.0001755984 3.081414 -0.0175068
0.006069731 3.081414 -0.0175068
0.01197402 3.081414 -0.0175068
0.01903886 3.081414 -0.0175068
0.02852504 3.081414 -0.0175068
0.04126244 3.081414 -0.0175068
0.05836535 3.081414 -0.0175068
0.08132997 3.081414 -0.0175068
0.1121653 3.081414 -0.0175068
0.1535689 3.081414 -0.0175068
0.2091628 3.081414 -0.0175068
0.2838106 3.081414 -0.0175068
0.3840425 3.081414 -0.0175068
0.518627 3.081414 -0.0175068
0.6993381 3.081414 -0.0175068
0.9419845 3.081414 -0.0175068
1.267794 3.081414 -0.0175068
1.705268 3.081414 -0.0175068
2.292679 3.081414 -0.0175068
3.081414 3.081414 -0.0175068
4.140474 3.081414 -0.0175068
5.562508 3.081414 -0.0175068
7.471917 3.081414 -0.0175068
10.03574 3.081414 -0.0175068
13.47828 3.081414 -0.0175068
18.10068 3.081414 -0.0175068
24.30731 3.081414 -0.0175068
32.64117 3.081414 -0.0175068
