TestProjects/HDRP_DXR_PerformanceTests/Assets/Common/Luts/LutTest.cube
#Created by: Adobe Photoshop Export Color Lookup Plugin
TITLE "Frame.exr"
#LUT size
LUT_3D_SIZE 8
#data domain
#LUT data points
DOMAIN_MIN 0.000000 0.000000 0.000000
DOMAIN_MAX 0.903226 0.903226 0.903226
0.000000 0.000000 0.000000
0.009393 0.000000 0.000000
0.036610 0.000000 0.019457
0.108334 0.000000 0.086636
0.302824 0.000000 0.263065
0.831771 0.027322 0.739729
1.000000 0.100545 1.000000
1.000000 0.294200 1.000000
0.000000 0.007409 0.000000
0.011279 0.000000 0.000000
0.041649 0.000000 0.000000
0.111438 0.000000 0.064010
0.305230 0.000000 0.245526
0.833699 0.027174 0.725677
1.000000 0.100425 1.000000
1.000000 0.294103 1.000000
0.016967 0.038396 0.000000
0.035994 0.038326 0.000000
0.042247 0.015408 0.000000
0.117039 0.000000 0.023185
0.309155 0.000000 0.216919
0.836797 0.026936 0.703098
1.000000 0.100234 1.000000
1.000000 0.293948 1.000000
0.062352 0.118239 0.000000
0.077502 0.118183 0.000000
0.100503 0.118099 0.000000
0.122009 0.063822 0.000000
0.323319 0.000000 0.113669
0.847339 0.026126 0.626252
1.000000 0.099589 1.000000
1.000000 0.293429 1.000000
0.180876 0.334028 0.010207
0.193102 0.333983 0.010316
0.212321 0.333912 0.010486
0.274358 0.333684 0.011034
0.337152 0.191395 0.003914
0.885479 0.023196 0.348239
1.000000 0.097380 1.000000
1.000000 0.291667 1.000000
0.499230 0.920640 0.087268
0.509123 0.920604 0.087356
0.524856 0.920546 0.087495
0.576903 0.920354 0.087955
0.746323 0.919729 0.089454
0.920439 0.536145 0.070301
1.000000 0.089421 0.979192
1.000000 0.285644 1.000000
1.000000 1.000000 0.275492
1.000000 1.000000 0.275563
1.000000 1.000000 0.275677
1.000000 1.000000 0.276054
1.000000 1.000000 0.277313
1.000000 1.000000 0.281400
1.000000 1.000000 0.229389
1.000000 0.263970 1.000000
1.000000 1.000000 0.779872
1.000000 1.000000 0.779929
1.000000 1.000000 0.780021
1.000000 1.000000 0.780328
1.000000 1.000000 0.781361
1.000000 1.000000 0.784796
1.000000 1.000000 0.795937
1.000000 1.000000 0.654364
0.000000 0.000000 0.010388
0.000000 0.000000 0.009928
0.032918 0.000000 0.046370
0.105394 0.000000 0.108065
0.300451 0.000000 0.280360
0.829852 0.027469 0.753724
1.000000 0.100664 1.000000
1.000000 0.294297 1.000000
0.000000 0.007617 0.000000
0.006511 0.008219 0.012131
0.034545 0.009103 0.035879
0.106658 0.011903 0.099680
0.301420 0.020475 0.273761
0.830674 0.045337 0.748222
1.000000 0.114826 1.000000
1.000000 0.305710 1.000000
0.000000 0.038492 0.000000
0.022509 0.039089 0.015022
0.037386 0.025495 0.014422
0.111555 0.011527 0.063985
0.305253 0.020181 0.245822
0.833752 0.045101 0.725784
1.000000 0.114635 1.000000
1.000000 0.305555 1.000000
0.046357 0.118298 0.000000
0.065455 0.118873 0.023205
0.088847 0.118787 0.023412
0.117062 0.071749 0.021126
0.318920 0.019131 0.146203
0.844222 0.044296 0.649471
1.000000 0.113992 1.000000
1.000000 0.305036 1.000000
0.168476 0.334074 0.010098
0.182457 0.334606 0.046750
0.201787 0.334535 0.046921
0.264114 0.334305 0.047472
0.332287 0.197817 0.040714
0.881966 0.041397 0.374344
1.000000 0.111787 1.000000
1.000000 0.303275 1.000000
0.489296 0.920677 0.087180
0.501028 0.921067 0.112974
0.516789 0.921009 0.113113
0.568924 0.920817 0.113574
0.738572 0.920191 0.115075
0.917032 0.541291 0.096215
1.000000 0.103853 1.000000
1.000000 0.297255 1.000000
1.000000 1.000000 0.275422
1.000000 1.000000 0.295870
1.000000 1.000000 0.295983
1.000000 1.000000 0.296361
1.000000 1.000000 0.297621
1.000000 1.000000 0.301709
1.000000 1.000000 0.249934
1.000000 0.275601 1.000000
1.000000 1.000000 0.779815
1.000000 1.000000 0.796294
1.000000 1.000000 0.796386
1.000000 1.000000 0.796693
1.000000 1.000000 0.797726
1.000000 1.000000 0.801161
1.000000 1.000000 0.812303
1.000000 1.000000 0.670922
0.000000 0.014651 0.055950
0.000000 0.000000 0.054565
0.008618 0.000000 0.054572
0.100930 0.000000 0.140601
0.296722 0.000000 0.307545
0.826798 0.027704 0.775978
1.000000 0.100855 1.000000
1.000000 0.294451 1.000000
0.000000 0.033473 0.056965
0.000984 0.025067 0.057237
0.018005 0.009373 0.056543
0.102119 0.012252 0.132769
0.297669 0.020763 0.301104
0.827616 0.045572 0.770516
1.000000 0.115017 1.000000
1.000000 0.305864 1.000000
0.000000 0.039006 0.024540
0.003444 0.039398 0.038658
0.031722 0.040042 0.059106
0.104215 0.042188 0.119330
0.299361 0.049182 0.290061
0.828965 0.071153 0.761603
1.000000 0.136846 1.000000
1.000000 0.323901 1.000000
0.017495 0.118405 0.000000
0.040221 0.118966 0.022982
0.072286 0.119712 0.066379
0.111436 0.083915 0.064799
0.312428 0.048178 0.194813
0.839325 0.070357 0.686089
1.000000 0.136205 1.000000
1.000000 0.323383 1.000000
0.148253 0.334149 0.009919
0.162706 0.334679 0.046575
0.187283 0.335346 0.087690
0.250093 0.335114 0.088246
0.326908 0.207819 0.082062
0.876491 0.067502 0.415174
1.000000 0.134007 1.000000
1.000000 0.321623 1.000000
0.473333 0.920736 0.087039
0.485166 0.921125 0.112833
0.504463 0.921704 0.149801
0.556739 0.921511 0.150263
0.726760 0.920885 0.151768
0.912171 0.549453 0.133374
1.000000 0.126112 1.000000
1.000000 0.315609 1.000000
1.000000 1.000000 0.275308
1.000000 1.000000 0.295756
1.000000 1.000000 0.327285
1.000000 1.000000 0.327663
1.000000 1.000000 0.328924
1.000000 1.000000 0.333015
1.000000 1.000000 0.281619
1.000000 0.293986 1.000000
1.000000 1.000000 0.779723
1.000000 1.000000 0.796202
1.000000 1.000000 0.822249
1.000000 1.000000 0.822556
1.000000 1.000000 0.823589
1.000000 1.000000 0.827025
1.000000 1.000000 0.838170
1.000000 1.000000 0.697095
0.000000 0.062244 0.172844
0.000000 0.046422 0.171991
0.000000 0.017872 0.170452
0.042107 0.000000 0.169500
0.284683 0.000000 0.395299
0.816698 0.028480 0.849601
1.000000 0.101491 1.000000
1.000000 0.294969 1.000000
0.000000 0.077230 0.173652
0.000000 0.070287 0.173903
0.000000 0.045326 0.172557
0.049318 0.012838 0.171361
0.285574 0.021693 0.389268
0.817498 0.046349 0.844263
1.000000 0.115654 1.000000
1.000000 0.306382 1.000000
0.000000 0.099983 0.174879
0.000000 0.093427 0.175151
0.017343 0.082786 0.175470
0.060668 0.042898 0.173707
0.287172 0.050118 0.378908
0.818821 0.071932 0.835549
1.000000 0.137483 1.000000
1.000000 0.324419 1.000000
0.000000 0.119714 0.098481
0.000000 0.120001 0.109504
0.023819 0.120498 0.126548
0.096815 0.122208 0.180390
0.292847 0.127951 0.342641
0.823427 0.146669 0.805563
1.000000 0.205729 1.000000
1.000000 0.383265 1.000000
0.075260 0.334418 0.009273
0.092280 0.334939 0.045952
0.119948 0.335594 0.087094
0.206095 0.337565 0.199971
0.312307 0.240437 0.195683
0.859019 0.143935 0.546127
1.000000 0.203554 1.000000
1.000000 0.381511 1.000000
0.419007 0.920936 0.086558
0.431216 0.921324 0.112356
0.451078 0.921901 0.149329
0.517927 0.923675 0.257490
0.689235 0.923043 0.259006
0.898041 0.576472 0.242167
1.000000 0.195777 1.000000
1.000000 0.375516 1.000000
1.000000 1.000000 0.274926
1.000000 1.000000 0.295375
1.000000 1.000000 0.326905
1.000000 1.000000 0.425544
1.000000 1.000000 0.426808
1.000000 1.000000 0.430908
1.000000 1.000000 0.380776
1.000000 0.353996 1.000000
1.000000 1.000000 0.779414
1.000000 1.000000 0.795894
1.000000 1.000000 0.821941
1.000000 1.000000 0.906941
1.000000 1.000000 0.907975
1.000000 1.000000 0.911414
1.000000 1.000000 0.922565
1.000000 1.000000 0.782517
0.000000 0.187191 0.488525
0.000000 0.174926 0.487864
0.000000 0.154921 0.486785
0.000000 0.082717 0.482892
0.129255 0.000000 0.480132
0.783821 0.031005 1.000000
1.000000 0.103613 1.000000
1.000000 0.296709 1.000000
0.000000 0.199285 0.489177
0.000000 0.193616 0.489416
0.000000 0.174078 0.488363
0.000000 0.104413 0.484607
0.134972 0.023189 0.481873
0.784577 0.048878 1.000000
1.000000 0.117776 1.000000
1.000000 0.308123 1.000000
0.000000 0.218297 0.490202
0.000000 0.212738 0.490447
0.000000 0.203835 0.490726
0.000000 0.137227 0.487134
0.144194 0.051711 0.483995
0.785827 0.074467 1.000000
1.000000 0.139608 1.000000
1.000000 0.326160 1.000000
0.000000 0.279664 0.493511
0.000000 0.274392 0.493771
0.000000 0.265967 0.494075
0.057897 0.237373 0.494915
0.174692 0.129876 0.490163
0.790184 0.149223 1.000000
1.000000 0.207859 1.000000
1.000000 0.385007 1.000000
0.000000 0.337736 0.293609
0.000000 0.337950 0.302484
0.002537 0.338336 0.316447
0.075471 0.339684 0.362173
0.272785 0.344332 0.508265
0.805689 0.359897 0.948860
1.000000 0.410644 1.000000
1.000000 0.570845 1.000000
0.222466 0.921661 0.084819
0.236715 0.922042 0.110635
0.259556 0.922607 0.147634
0.334519 0.924351 0.255868
0.569532 0.929707 0.561428
0.858538 0.665407 0.549760
1.000000 0.403196 1.000000
1.000000 0.564913 1.000000
1.000000 1.000000 0.273614
1.000000 1.000000 0.294066
1.000000 1.000000 0.325600
1.000000 1.000000 0.424253
1.000000 1.000000 0.717760
1.000000 1.000000 0.721890
1.000000 1.000000 0.676009
1.000000 0.543718 1.000000
1.000000 1.000000 0.778369
1.000000 1.000000 0.794849
1.000000 1.000000 0.820897
1.000000 1.000000 0.905900
1.000000 1.000000 1.000000
1.000000 1.000000 1.000000
1.000000 1.000000 1.000000
1.000000 1.000000 1.000000
0.000000 0.524477 1.000000
0.000000 0.514651 1.000000
0.000000 0.498860 1.000000
0.000000 0.445121 1.000000
0.000000 0.250703 1.000000
0.363897 0.034951 1.000000
1.000000 0.110499 1.000000
1.000000 0.302497 1.000000
0.000000 0.534264 1.000000
0.000000 0.529675 1.000000
0.000000 0.513984 1.000000
0.000000 0.460617 1.000000
0.000000 0.268217 1.000000
0.368549 0.052873 1.000000
1.000000 0.124665 1.000000
1.000000 0.313911 1.000000
0.000000 0.549827 1.000000
0.000000 0.545265 1.000000
0.000000 0.537970 1.000000
0.000000 0.485162 1.000000
0.000000 0.295708 1.000000
0.376006 0.078539 1.000000
1.000000 0.146501 1.000000
1.000000 0.331950 1.000000
0.000000 0.601312 1.000000
0.000000 0.596837 1.000000
0.000000 0.589682 1.000000
0.000000 0.565609 1.000000
0.000000 0.384182 1.000000
0.400979 0.153555 1.000000
1.000000 0.214767 1.000000
1.000000 0.390802 1.000000
0.000000 0.768902 1.000000
0.000000 0.764654 1.000000
0.000000 0.757867 1.000000
0.000000 0.735067 1.000000
0.166964 0.657069 1.000000
0.484176 0.365134 1.000000
1.000000 0.417605 1.000000
1.000000 0.576655 1.000000
0.000000 0.930237 0.821019
0.000000 0.930420 0.828163
0.000000 0.930722 0.839526
0.017486 0.931775 0.877272
0.214784 0.935461 1.000000
0.751112 0.948116 1.000000
1.000000 0.990471 1.000000
1.000000 1.000000 1.000000
0.621345 1.000000 0.268891
0.632935 1.000000 0.289358
0.651489 1.000000 0.320915
0.713544 1.000000 0.419638
0.918521 1.000000 0.713339
1.000000 1.000000 1.000000
1.000000 1.000000 1.000000
1.000000 1.000000 1.000000
1.000000 1.000000 0.774794
1.000000 1.000000 0.791276
1.000000 1.000000 0.817328
1.000000 1.000000 0.902342
1.000000 1.000000 1.000000
1.000000 1.000000 1.000000
1.000000 1.000000 1.000000
1.000000 1.000000 1.000000
0.000000 1.000000 1.000000
0.000000 1.000000 1.000000
0.000000 1.000000 1.000000
0.000000 1.000000 1.000000
0.000000 1.000000 1.000000
0.000000 0.703316 1.000000
1.000000 0.121276 1.000000
1.000000 0.321269 1.000000
0.000000 1.000000 1.000000
0.000000 1.000000 1.000000
0.000000 1.000000 1.000000
0.000000 1.000000 1.000000
0.000000 1.000000 1.000000
0.000000 0.717492 1.000000
1.000000 0.135481 1.000000
1.000000 0.332685 1.000000
0.000000 1.000000 1.000000
0.000000 1.000000 1.000000
0.000000 1.000000 1.000000
0.000000 1.000000 1.000000
0.000000 1.000000 1.000000
0.000000 0.740024 1.000000
1.000000 0.157379 1.000000
1.000000 0.350728 1.000000
0.000000 1.000000 1.000000
0.000000 1.000000 1.000000
0.000000 1.000000 1.000000
0.000000 1.000000 1.000000
0.000000 1.000000 1.000000
0.000000 0.814475 1.000000
1.000000 0.225855 1.000000
1.000000 0.409592 1.000000
0.000000 1.000000 1.000000
0.000000 1.000000 1.000000
0.000000 1.000000 1.000000
0.000000 1.000000 1.000000
0.000000 1.000000 1.000000
0.000000 1.000000 1.000000
1.000000 0.429406 1.000000
1.000000 0.595486 1.000000
0.000000 1.000000 1.000000
0.000000 1.000000 1.000000
0.000000 1.000000 1.000000
0.000000 1.000000 1.000000
0.000000 1.000000 1.000000
0.462880 1.000000 1.000000
1.000000 1.000000 1.000000
1.000000 1.000000 1.000000
0.000000 1.000000 1.000000
0.000000 1.000000 1.000000
0.000000 1.000000 1.000000
0.000000 1.000000 1.000000
0.056765 1.000000 1.000000
0.593161 1.000000 1.000000
1.000000 1.000000 1.000000
1.000000 1.000000 1.000000
1.000000 1.000000 0.761931
1.000000 1.000000 0.778425
1.000000 1.000000 0.804495
1.000000 1.000000 0.889571
1.000000 1.000000 1.000000
1.000000 1.000000 1.000000
1.000000 1.000000 1.000000
1.000000 1.000000 1.000000
0.000000 1.000000 1.000000
0.000000 1.000000 1.000000
0.000000 1.000000 1.000000
0.000000 1.000000 1.000000
0.000000 1.000000 1.000000
0.000000 1.000000 1.000000
0.000000 1.000000 1.000000
1.000000 0.350635 1.000000
0.000000 1.000000 1.000000
0.000000 1.000000 1.000000
0.000000 1.000000 1.000000
0.000000 1.000000 1.000000
0.000000 1.000000 1.000000
0.000000 1.000000 1.000000
0.000000 1.000000 1.000000
1.000000 0.362083 1.000000
0.000000 1.000000 1.000000
0.000000 1.000000 1.000000
0.000000 1.000000 1.000000
0.000000 1.000000 1.000000
0.000000 1.000000 1.000000
0.000000 1.000000 1.000000
0.000000 1.000000 1.000000
1.000000 0.380176 1.000000
0.000000 1.000000 1.000000
0.000000 1.000000 1.000000
0.000000 1.000000 1.000000
0.000000 1.000000 1.000000
0.000000 1.000000 1.000000
0.000000 1.000000 1.000000
0.000000 1.000000 1.000000
1.000000 0.439209 1.000000
0.000000 1.000000 1.000000
0.000000 1.000000 1.000000
0.000000 1.000000 1.000000
0.000000 1.000000 1.000000
0.000000 1.000000 1.000000
0.000000 1.000000 1.000000
0.000000 1.000000 1.000000
1.000000 0.625676 1.000000
0.000000 1.000000 1.000000
0.000000 1.000000 1.000000
0.000000 1.000000 1.000000
0.000000 1.000000 1.000000
0.000000 1.000000 1.000000
0.000000 1.000000 1.000000
0.000000 1.000000 1.000000
1.000000 1.000000 1.000000
0.000000 1.000000 1.000000
0.000000 1.000000 1.000000
0.000000 1.000000 1.000000
0.000000 1.000000 1.000000
0.000000 1.000000 1.000000
0.000000 1.000000 1.000000
1.000000 1.000000 1.000000
1.000000 1.000000 1.000000
0.000000 1.000000 1.000000
0.000000 1.000000 1.000000
0.000000 1.000000 1.000000
0.000000 1.000000 1.000000
0.000000 1.000000 1.000000
0.162748 1.000000 1.000000
1.000000 1.000000 1.000000
1.000000 1.000000 1.000000
