TestProjects/HDRP_DXR_PerformanceTests/Assets/Common/Luts/LutTest.cube
#Created by: Adobe Photoshop Export Color Lookup Plugin
TITLE "Frame.exr"
#LUT size
LUT_3D_SIZE 32
#data domain
DOMAIN_MIN 0.0 0.0 0.0
DOMAIN_MAX 1.0 1.0 1.0
#LUT data points
0.000000 0.000000 0.000000
0.000000 0.000000 0.000000
0.000000 0.000000 0.000000
0.003362 0.000000 0.000000
0.009393 0.000000 0.000000
0.014964 0.000000 0.000000
0.020492 0.000000 0.001983
0.027398 0.000000 0.010032
0.036610 0.000000 0.019457
0.048567 0.000000 0.031075
0.063907 0.000000 0.045576
0.083304 0.000000 0.063610
0.108334 0.000000 0.086636
0.140470 0.000000 0.115990
0.181760 0.000000 0.153521
0.234829 0.000000 0.201599
0.302824 0.000000 0.263065
0.390106 0.000398 0.341886
0.502329 0.008879 0.443186
0.646529 0.017265 0.573058
0.831771 0.027322 0.739729
1.000000 0.039788 0.953715
1.000000 0.055448 1.000000
1.000000 0.075291 1.000000
1.000000 0.100545 1.000000
1.000000 0.132761 1.000000
1.000000 0.173944 1.000000
1.000000 0.226657 1.000000
1.000000 0.294200 1.000000
1.000000 0.380795 1.000000
1.000000 0.491858 1.000000
1.000000 0.634352 1.000000
0.000000 0.000000 0.000000
0.000000 0.000000 0.000000
0.000000 0.000000 0.000000
0.004479 0.000000 0.000000
0.010565 0.000000 0.000000
0.016239 0.000000 0.000000
0.022135 0.000000 0.000000
0.028944 0.000000 0.000000
0.037762 0.000000 0.011056
0.049589 0.000000 0.023622
0.064843 0.000000 0.038759
0.084172 0.000000 0.057283
0.109145 0.000000 0.080722
0.141232 0.000000 0.110437
0.182478 0.000000 0.148291
0.235506 0.000000 0.196664
0.303464 0.000000 0.258401
0.390711 0.000352 0.337472
0.502902 0.008835 0.439007
0.647072 0.017223 0.569099
0.832286 0.027282 0.735977
1.000000 0.039750 0.950158
1.000000 0.055413 1.000000
1.000000 0.075257 1.000000
1.000000 0.100513 1.000000
1.000000 0.132731 1.000000
1.000000 0.173915 1.000000
1.000000 0.226630 1.000000
1.000000 0.294174 1.000000
1.000000 0.380771 1.000000
1.000000 0.491835 1.000000
1.000000 0.634330 1.000000
0.000000 0.000000 0.000000
0.000000 0.000000 0.000000
0.000000 0.000000 0.000000
0.004846 0.000000 0.000000
0.011426 0.000000 0.000000
0.017212 0.000000 0.000000
0.023180 0.000000 0.000000
0.030242 0.000000 0.000000
0.038953 0.000000 0.002379
0.050537 0.000000 0.016716
0.065685 0.000000 0.032618
0.084944 0.000000 0.051657
0.109861 0.000000 0.075503
0.141901 0.000000 0.105558
0.183106 0.000000 0.143710
0.236098 0.000000 0.192349
0.304023 0.000000 0.254328
0.391239 0.000311 0.333623
0.503402 0.008797 0.435365
0.647545 0.017187 0.565651
0.832734 0.027248 0.732710
1.000000 0.039718 0.947062
1.000000 0.055382 1.000000
1.000000 0.075228 1.000000
1.000000 0.100485 1.000000
1.000000 0.132705 1.000000
1.000000 0.173890 1.000000
1.000000 0.226606 1.000000
1.000000 0.294152 1.000000
1.000000 0.380749 1.000000
1.000000 0.491815 1.000000
1.000000 0.634311 1.000000
0.000000 0.000920 0.000000
0.000000 0.000896 0.000000
0.004679 0.000000 0.000000
0.004769 0.000000 0.000000
0.011352 0.000000 0.000000
0.017630 0.000000 0.000000
0.024257 0.000000 0.000000
0.031410 0.000000 0.000000
0.040590 0.000000 0.000000
0.051733 0.000000 0.007999
0.066688 0.000000 0.025310
0.085845 0.000000 0.045086
0.110690 0.000000 0.069462
0.142672 0.000000 0.099941
0.183828 0.000000 0.138453
0.236776 0.000000 0.187408
0.304661 0.000000 0.249671
0.391843 0.000265 0.329226
0.503972 0.008753 0.431207
0.648085 0.017145 0.561717
0.833245 0.027209 0.728985
1.000000 0.039680 0.943533
1.000000 0.055346 1.000000
1.000000 0.075195 1.000000
1.000000 0.100453 1.000000
1.000000 0.132675 1.000000
1.000000 0.173862 1.000000
1.000000 0.226579 1.000000
1.000000 0.294126 1.000000
1.000000 0.380725 1.000000
1.000000 0.491792 1.000000
1.000000 0.634289 1.000000
0.000000 0.007409 0.000000
0.004162 0.007379 0.000000
0.010683 0.007355 0.000000
0.011180 0.000552 0.000000
0.011279 0.000000 0.000000
0.017561 0.000000 0.000000
0.024217 0.000000 0.000000
0.032240 0.000000 0.000000
0.041649 0.000000 0.000000
0.053204 0.000000 0.000000
0.067630 0.000000 0.018438
0.086668 0.000000 0.039086
0.111438 0.000000 0.064010
0.143363 0.000000 0.094903
0.184472 0.000000 0.133755
0.237380 0.000000 0.183003
0.305230 0.000000 0.245526
0.392379 0.000223 0.325315
0.504479 0.008714 0.427514
0.648565 0.017108 0.558223
0.833699 0.027174 0.725677
1.000000 0.039647 0.940400
1.000000 0.055315 1.000000
1.000000 0.075165 1.000000
1.000000 0.100425 1.000000
1.000000 0.132648 1.000000
1.000000 0.173836 1.000000
1.000000 0.226555 1.000000
1.000000 0.294103 1.000000
1.000000 0.380703 1.000000
1.000000 0.491771 1.000000
1.000000 0.634269 1.000000
0.000000 0.013593 0.000000
0.008202 0.013561 0.000000
0.013792 0.013541 0.000000
0.017277 0.011265 0.000000
0.017350 0.005853 0.000000
0.017467 0.000000 0.000000
0.024133 0.000000 0.000000
0.032162 0.000000 0.000000
0.042685 0.000000 0.000000
0.054610 0.000000 0.000000
0.068840 0.000000 0.009618
0.087665 0.000000 0.031817
0.112329 0.000000 0.057513
0.144181 0.000000 0.088944
0.185231 0.000000 0.128221
0.238090 0.000000 0.177828
0.305897 0.000000 0.240664
0.393008 0.000175 0.320734
0.505072 0.008668 0.423189
0.649125 0.017065 0.554135
0.834230 0.027133 0.721809
1.000000 0.039609 0.936737
1.000000 0.055278 1.000000
1.000000 0.075130 1.000000
1.000000 0.100392 1.000000
1.000000 0.132617 1.000000
1.000000 0.173807 1.000000
1.000000 0.226527 1.000000
1.000000 0.294077 1.000000
1.000000 0.380678 1.000000
1.000000 0.491747 1.000000
1.000000 0.634246 1.000000
0.005073 0.020140 0.000000
0.012061 0.020114 0.000000
0.017196 0.020095 0.000000
0.022595 0.020076 0.000000
0.023816 0.016630 0.000000
0.023893 0.010902 0.000000
0.023998 0.003165 0.000000
0.032056 0.000000 0.000000
0.042593 0.000000 0.000000
0.055967 0.000000 0.000000
0.070782 0.000000 0.000000
0.088899 0.000000 0.022828
0.113400 0.000000 0.049706
0.145152 0.000000 0.081861
0.186129 0.000000 0.121680
0.238927 0.000000 0.171731
0.306681 0.000000 0.234948
0.393746 0.000119 0.315355
0.505768 0.008615 0.418116
0.649783 0.017015 0.549343
0.834852 0.027085 0.717276
1.000000 0.039563 0.932446
1.000000 0.055236 1.000000
1.000000 0.075090 1.000000
1.000000 0.100354 1.000000
1.000000 0.132580 1.000000
1.000000 0.173772 1.000000
1.000000 0.226494 1.000000
1.000000 0.294045 1.000000
1.000000 0.380649 1.000000
1.000000 0.491719 1.000000
1.000000 0.634220 1.000000
0.010566 0.028037 0.000000
0.016578 0.028015 0.000000
0.021365 0.027997 0.000000
0.026516 0.027978 0.000000
0.030891 0.027962 0.000000
0.031688 0.023675 0.000000
0.031772 0.017510 0.000000
0.031891 0.008704 0.000000
0.042432 0.001737 0.000000
0.056052 0.000000 0.000000
0.072729 0.000000 0.000000
0.090690 0.000000 0.009771
0.114848 0.000000 0.039155
0.146442 0.000000 0.072463
0.187310 0.000000 0.113072
0.240022 0.000000 0.163744
0.307706 0.000000 0.227480
0.394708 0.000045 0.308341
0.506675 0.008545 0.411509
0.650639 0.016949 0.543106
0.835660 0.027023 0.711381
1.000000 0.039505 0.926868
1.000000 0.055180 1.000000
1.000000 0.075037 1.000000
1.000000 0.100304 1.000000
1.000000 0.132533 1.000000
1.000000 0.173727 1.000000
1.000000 0.226452 1.000000
1.000000 0.294005 1.000000
1.000000 0.380610 1.000000
1.000000 0.491683 1.000000
1.000000 0.634185 1.000000
0.016967 0.038396 0.000000
0.022407 0.038376 0.000000
0.026889 0.038360 0.000000
0.031790 0.038342 0.000000
0.035994 0.038326 0.000000
0.040768 0.038309 0.000000
0.041995 0.033988 0.000000
0.042095 0.026600 0.000000
0.042247 0.015408 0.000000
0.055828 0.007275 0.000000
0.073250 0.000000 0.000000
0.093919 0.000000 0.000000
0.117039 0.000000 0.023185
0.148313 0.000000 0.058822
0.188999 0.000000 0.100760
0.241578 0.000000 0.152401
0.309155 0.000000 0.216919
0.396065 0.000000 0.298448
0.507951 0.008447 0.402206
0.651842 0.016857 0.534335
0.836797 0.026936 0.703098
1.000000 0.039422 0.919035
1.000000 0.055102 1.000000
1.000000 0.074963 1.000000
1.000000 0.100234 1.000000
1.000000 0.132466 1.000000
1.000000 0.173664 1.000000
1.000000 0.226392 1.000000
1.000000 0.293948 1.000000
1.000000 0.380557 1.000000
1.000000 0.491632 1.000000
1.000000 0.634137 1.000000
0.024838 0.051762 0.000000
0.029854 0.051743 0.000000
0.034064 0.051728 0.000000
0.038721 0.051711 0.000000
0.042747 0.051696 0.000000
0.047346 0.051679 0.000000
0.052606 0.051659 0.000000
0.055282 0.047586 0.000000
0.055413 0.037945 0.000000
0.055605 0.023742 0.000000
0.072963 0.013786 0.000000
0.094935 0.000000 0.000000
0.121123 0.000000 0.000000
0.151056 0.000000 0.038830
0.191397 0.000000 0.083279
0.243759 0.000000 0.136503
0.311172 0.000000 0.202216
0.397947 0.000000 0.284730
0.509716 0.008312 0.389338
0.653503 0.016729 0.522225
0.838364 0.026815 0.691673
1.000000 0.039308 0.908240
1.000000 0.054994 1.000000
1.000000 0.074861 1.000000
1.000000 0.100137 1.000000
1.000000 0.132375 1.000000
1.000000 0.173577 1.000000
1.000000 0.226310 1.000000
1.000000 0.293870 1.000000
1.000000 0.380483 1.000000
1.000000 0.491562 1.000000
1.000000 0.634070 1.000000
0.034644 0.068856 0.000000
0.039316 0.068839 0.000000
0.043282 0.068824 0.000000
0.047704 0.068808 0.000000
0.051551 0.068793 0.000000
0.055968 0.068777 0.000000
0.061042 0.068758 0.000000
0.067498 0.068735 0.000000
0.072275 0.064597 0.000000
0.072443 0.052175 0.000000
0.072687 0.034182 0.000000
0.094581 0.021933 0.000000
0.122851 0.001603 0.000000
0.155532 0.000000 0.006198
0.194847 0.000000 0.058133
0.246815 0.000000 0.114229
0.313965 0.000000 0.181856
0.400537 0.000000 0.265853
0.512136 0.008126 0.371702
0.655775 0.016555 0.505667
0.840503 0.026651 0.676080
1.000000 0.039153 0.893524
1.000000 0.054848 1.000000
1.000000 0.074722 1.000000
1.000000 0.100006 1.000000
1.000000 0.132251 1.000000
1.000000 0.173460 1.000000
1.000000 0.226198 1.000000
1.000000 0.293764 1.000000
1.000000 0.380382 1.000000
1.000000 0.491466 1.000000
1.000000 0.633980 1.000000
0.046822 0.090430 0.000000
0.051203 0.090414 0.000000
0.054949 0.090400 0.000000
0.059150 0.090385 0.000000
0.062822 0.090371 0.000000
0.067055 0.090356 0.000000
0.071936 0.090338 0.000000
0.078170 0.090315 0.000000
0.086738 0.090283 0.000000
0.093718 0.085683 0.000000
0.093933 0.069780 0.000000
0.094239 0.047192 0.000000
0.122445 0.031628 0.000000
0.158679 0.006981 0.000000
0.200130 0.000000 0.019619
0.251120 0.000000 0.082847
0.317811 0.000000 0.153823
0.404064 0.000000 0.240143
0.515411 0.007874 0.347826
0.658838 0.016319 0.483336
0.843381 0.026430 0.655100
1.000000 0.038945 0.873758
1.000000 0.054651 1.000000
1.000000 0.074536 1.000000
1.000000 0.099830 1.000000
1.000000 0.132084 1.000000
1.000000 0.173302 1.000000
1.000000 0.226048 1.000000
1.000000 0.293623 1.000000
1.000000 0.380248 1.000000
1.000000 0.491339 1.000000
1.000000 0.633859 1.000000
0.062352 0.118239 0.000000
0.066474 0.118224 0.000000
0.070015 0.118211 0.000000
0.074003 0.118196 0.000000
0.077502 0.118183 0.000000
0.081547 0.118169 0.000000
0.086228 0.118151 0.000000
0.092227 0.118129 0.000000
0.100503 0.118099 0.000000
0.111652 0.118058 0.000000
0.121345 0.112867 0.000000
0.121617 0.092804 0.000000
0.122009 0.063822 0.000000
0.158177 0.044050 0.000000
0.204672 0.013345 0.000000
0.257711 0.000000 0.034808
0.323319 0.000000 0.113669
0.409011 0.000000 0.204084
0.519958 0.007525 0.314680
0.663066 0.015994 0.452516
0.847339 0.026126 0.626252
1.000000 0.038659 0.846642
1.000000 0.054382 1.000000
1.000000 0.074282 1.000000
1.000000 0.099589 1.000000
1.000000 0.131856 1.000000
1.000000 0.173086 1.000000
1.000000 0.225844 1.000000
1.000000 0.293429 1.000000
1.000000 0.380064 1.000000
1.000000 0.491165 1.000000
1.000000 0.633694 1.000000
0.082126 0.153918 0.000000
0.086012 0.153903 0.000000
0.089363 0.153891 0.000000
0.093148 0.153877 0.000000
0.096478 0.153865 0.000000
0.100338 0.153850 0.000000
0.104816 0.153834 0.000000
0.110572 0.153813 0.000000
0.118538 0.153783 0.000000
0.129312 0.153744 0.000000
0.143660 0.153691 0.000000
0.156770 0.147956 0.000000
0.157120 0.122110 0.000000
0.157622 0.085036 0.000000
0.204043 0.059817 0.000000
0.263734 0.021086 0.000000
0.331619 0.000000 0.053171
0.416045 0.000000 0.152807
0.526297 0.007038 0.268475
0.668902 0.015546 0.409976
0.852771 0.025709 0.586661
1.000000 0.038268 0.809563
1.000000 0.054014 1.000000
1.000000 0.073936 1.000000
1.000000 0.099262 1.000000
1.000000 0.131547 1.000000
1.000000 0.172793 1.000000
1.000000 0.225567 1.000000
1.000000 0.293166 1.000000
1.000000 0.379815 1.000000
1.000000 0.490929 1.000000
1.000000 0.633470 1.000000
0.107375 0.199736 0.000000
0.111046 0.199723 0.000000
0.114219 0.199711 0.000000
0.117811 0.199698 0.000000
0.120977 0.199686 0.000000
0.124655 0.199673 0.000000
0.128931 0.199657 0.000000
0.134439 0.199637 0.000000
0.142084 0.199608 0.000000
0.152459 0.199570 0.000000
0.166328 0.199519 0.000000
0.184513 0.199452 0.000000
0.202242 0.192836 0.000000
0.202691 0.159684 0.000000
0.203334 0.112171 0.000000
0.262937 0.079924 0.000000
0.339325 0.030932 0.000000
0.426579 0.000000 0.076021
0.535302 0.006346 0.202838
0.677036 0.014921 0.350687
0.860268 0.025133 0.532012
1.000000 0.037732 0.758671
1.000000 0.053512 1.000000
1.000000 0.073463 1.000000
1.000000 0.098817 1.000000
1.000000 0.131126 1.000000
1.000000 0.172395 1.000000
1.000000 0.225190 1.000000
1.000000 0.292809 1.000000
1.000000 0.379477 1.000000
1.000000 0.490608 1.000000
1.000000 0.633166 1.000000
0.139671 0.258608 0.001184
0.143142 0.258595 0.001214
0.146148 0.258584 0.001241
0.149556 0.258572 0.001271
0.152565 0.258561 0.001298
0.156065 0.258548 0.001329
0.160141 0.258533 0.001365
0.165401 0.258513 0.001411
0.172720 0.258486 0.001476
0.182680 0.258450 0.001564
0.196039 0.258400 0.001682
0.213620 0.258336 0.001838
0.237127 0.258249 0.002046
0.260628 0.250463 0.001838
0.261205 0.207895 0.000000
0.262030 0.146940 0.000000
0.338311 0.105782 0.000000
0.436164 0.043476 0.004069
0.548730 0.005314 0.104958
0.688581 0.014034 0.266535
0.870714 0.024330 0.455868
1.000000 0.036992 0.688430
1.000000 0.052822 0.979163
1.000000 0.072817 1.000000
1.000000 0.098208 1.000000
1.000000 0.130553 1.000000
1.000000 0.171854 1.000000
1.000000 0.224678 1.000000
1.000000 0.292324 1.000000
1.000000 0.379017 1.000000
1.000000 0.490173 1.000000
1.000000 0.632754 1.000000
0.180876 0.334028 0.010207
0.184161 0.334016 0.010236
0.187009 0.334006 0.010262
0.190243 0.333994 0.010290
0.193102 0.333983 0.010316
0.196431 0.333971 0.010345
0.200312 0.333957 0.010379
0.205328 0.333938 0.010424
0.212321 0.333912 0.010486
0.221858 0.333877 0.010570
0.234687 0.333830 0.010683
0.251627 0.333767 0.010833
0.274358 0.333684 0.011034
0.304583 0.333572 0.011302
0.335355 0.324109 0.011069
0.336096 0.269408 0.008120
0.337152 0.191395 0.003914
0.434875 0.138708 0.009203
0.560415 0.059074 0.017332
0.705686 0.012720 0.141852
0.885479 0.023196 0.348239
1.000000 0.035964 0.590923
1.000000 0.051873 0.889157
1.000000 0.071932 1.000000
1.000000 0.097380 1.000000
1.000000 0.129773 1.000000
1.000000 0.171118 1.000000
1.000000 0.223983 1.000000
1.000000 0.291667 1.000000
1.000000 0.378395 1.000000
1.000000 0.489584 1.000000
1.000000 0.632195 1.000000
0.233484 0.430851 0.023168
0.236596 0.430840 0.023196
0.239296 0.430830 0.023220
0.242365 0.430818 0.023247
0.245079 0.430808 0.023271
0.248243 0.430797 0.023299
0.251936 0.430783 0.023332
0.256714 0.430765 0.023374
0.263383 0.430741 0.023433
0.272497 0.430707 0.023514
0.284786 0.430662 0.023622
0.301056 0.430602 0.023766
0.322961 0.430521 0.023960
0.352194 0.430413 0.024219
0.391073 0.430270 0.024563
0.431086 0.418532 0.024290
0.432035 0.348451 0.020512
0.433390 0.248387 0.015117
0.558767 0.180776 0.023894
0.720511 0.078849 0.030772
0.907345 0.021516 0.188853
1.000000 0.034510 0.452940
1.000000 0.050555 0.764032
1.000000 0.070715 1.000000
1.000000 0.096245 1.000000
1.000000 0.128709 1.000000
1.000000 0.170117 1.000000
1.000000 0.223038 1.000000
1.000000 0.290775 1.000000
1.000000 0.377551 1.000000
1.000000 0.488785 1.000000
1.000000 0.631438 1.000000
0.300773 0.555365 0.041802
0.303721 0.555354 0.041828
0.306281 0.555345 0.041851
0.309192 0.555334 0.041876
0.311770 0.555324 0.041899
0.314775 0.555313 0.041926
0.318285 0.555300 0.041957
0.322831 0.555284 0.041997
0.329184 0.555260 0.042053
0.337879 0.555228 0.042130
0.349623 0.555185 0.042234
0.365210 0.555127 0.042372
0.386252 0.555050 0.042558
0.414424 0.554946 0.042807
0.452028 0.554807 0.043140
0.502043 0.554623 0.043583
0.553902 0.540141 0.043269
0.555120 0.450194 0.038420
0.556861 0.321611 0.031487
0.718399 0.234837 0.039182
0.926285 0.104307 0.047018
1.000000 0.032356 0.248582
1.000000 0.048686 0.586753
1.000000 0.069019 0.986148
1.000000 0.094679 1.000000
1.000000 0.127249 1.000000
1.000000 0.168748 1.000000
1.000000 0.221750 1.000000
1.000000 0.289560 1.000000
1.000000 0.376403 1.000000
1.000000 0.487699 1.000000
1.000000 0.630410 1.000000
0.387617 0.715266 0.062151
0.390412 0.715256 0.062176
0.392839 0.715247 0.062197
0.395601 0.715237 0.062222
0.398047 0.715228 0.062243
0.400902 0.715217 0.062268
0.404237 0.715205 0.062298
0.408559 0.715189 0.062336
0.414604 0.715167 0.062390
0.422888 0.715136 0.062463
0.434093 0.715095 0.062562
0.448991 0.715040 0.062694
0.469151 0.714966 0.062872
0.496216 0.714866 0.063112
0.532460 0.714732 0.063432
0.580839 0.714554 0.063860
0.644964 0.714317 0.064428
0.712151 0.696307 0.064062
0.713717 0.580658 0.057827
0.715953 0.415556 0.048925
0.923579 0.304195 0.057796
1.000000 0.136881 0.067236
1.000000 0.045925 0.324734
1.000000 0.066621 0.758553
1.000000 0.092501 1.000000
1.000000 0.125237 1.000000
1.000000 0.166872 1.000000
1.000000 0.219991 1.000000
1.000000 0.287904 1.000000
1.000000 0.374842 1.000000
1.000000 0.486223 1.000000
1.000000 0.629014 1.000000
0.499230 0.920640 0.087268
0.501879 0.920631 0.087292
0.504181 0.920622 0.087312
0.506801 0.920612 0.087335
0.509123 0.920604 0.087356
0.511833 0.920594 0.087380
0.515000 0.920582 0.087408
0.519107 0.920567 0.087444
0.524856 0.920546 0.087495
0.532739 0.920517 0.087565
0.543416 0.920477 0.087659
0.557632 0.920425 0.087785
0.576903 0.920354 0.087955
0.602836 0.920258 0.088185
0.637659 0.920130 0.088493
0.684290 0.919958 0.088905
0.746323 0.919729 0.089454
0.828684 0.919425 0.090183
0.915557 0.896708 0.089741
0.917568 0.748151 0.081732
0.920439 0.536145 0.070301
1.000000 0.393179 0.081054
1.000000 0.178719 0.092703
1.000000 0.063079 0.422474
1.000000 0.089421 0.979192
1.000000 0.122440 1.000000
1.000000 0.164287 1.000000
1.000000 0.217581 1.000000
1.000000 0.285644 1.000000
1.000000 0.372714 1.000000
1.000000 0.484216 1.000000
1.000000 0.627118 1.000000
0.642628 1.000000 0.118887
0.645141 1.000000 0.118909
0.647324 1.000000 0.118928
0.649810 1.000000 0.118950
0.652013 1.000000 0.118970
0.654585 1.000000 0.118992
0.657593 1.000000 0.119019
0.661494 1.000000 0.119054
0.666957 1.000000 0.119102
0.674453 1.000000 0.119168
0.684615 1.000000 0.119258
0.698162 1.000000 0.119378
0.716552 1.000000 0.119541
0.741344 1.000000 0.119760
0.774713 1.000000 0.120055
0.819519 1.000000 0.120452
0.879314 1.000000 0.120981
0.958991 1.000000 0.121686
1.000000 1.000000 0.122623
1.000000 1.000000 0.122080
1.000000 0.963280 0.111792
1.000000 0.690986 0.097111
1.000000 0.507521 0.110430
1.000000 0.232223 0.125014
1.000000 0.084876 0.547906
1.000000 0.118485 1.000000
1.000000 0.160695 1.000000
1.000000 0.214260 1.000000
1.000000 0.282547 1.000000
1.000000 0.369810 1.000000
1.000000 0.481483 1.000000
1.000000 0.624540 1.000000
0.826744 1.000000 0.158990
0.829127 1.000000 0.159012
0.831198 1.000000 0.159030
0.833557 1.000000 0.159051
0.835647 1.000000 0.159069
0.838088 1.000000 0.159091
0.840944 1.000000 0.159116
0.844648 1.000000 0.159149
0.849837 1.000000 0.159195
0.856962 1.000000 0.159258
0.866627 1.000000 0.159343
0.879521 1.000000 0.159457
0.897047 1.000000 0.159612
0.920707 1.000000 0.159822
0.952611 1.000000 0.160104
0.995550 1.000000 0.160484
1.000000 1.000000 0.160992
1.000000 1.000000 0.161672
1.000000 1.000000 0.162579
1.000000 1.000000 0.163783
1.000000 1.000000 0.163102
1.000000 1.000000 0.149884
1.000000 0.889727 0.131037
1.000000 0.654002 0.147755
1.000000 0.300474 0.166159
1.000000 0.112653 0.708919
1.000000 0.155617 1.000000
1.000000 0.209647 1.000000
1.000000 0.278283 1.000000
1.000000 0.365833 1.000000
1.000000 0.477753 1.000000
1.000000 0.621029 1.000000
1.000000 1.000000 0.210128
1.000000 1.000000 0.210148
1.000000 1.000000 0.210165
1.000000 1.000000 0.210185
1.000000 1.000000 0.210202
1.000000 1.000000 0.210223
1.000000 1.000000 0.210247
1.000000 1.000000 0.210278
1.000000 1.000000 0.210322
1.000000 1.000000 0.210381
1.000000 1.000000 0.210463
1.000000 1.000000 0.210571
1.000000 1.000000 0.210719
1.000000 1.000000 0.210918
1.000000 1.000000 0.211188
1.000000 1.000000 0.211551
1.000000 1.000000 0.212038
1.000000 1.000000 0.212691
1.000000 1.000000 0.213565
1.000000 1.000000 0.214731
1.000000 1.000000 0.216278
1.000000 1.000000 0.215423
1.000000 1.000000 0.198453
1.000000 1.000000 0.174232
1.000000 0.842242 0.195369
1.000000 0.388450 0.218711
1.000000 0.148126 0.914945
1.000000 0.203123 1.000000
1.000000 0.272355 1.000000
1.000000 0.360353 1.000000
1.000000 0.472641 1.000000
1.000000 0.616235 1.000000
1.000000 1.000000 0.275492
1.000000 1.000000 0.275511
1.000000 1.000000 0.275528
1.000000 1.000000 0.275547
1.000000 1.000000 0.275563
1.000000 1.000000 0.275583
1.000000 1.000000 0.275606
1.000000 1.000000 0.275635
1.000000 1.000000 0.275677
1.000000 1.000000 0.275733
1.000000 1.000000 0.275811
1.000000 1.000000 0.275914
1.000000 1.000000 0.276054
1.000000 1.000000 0.276244
1.000000 1.000000 0.276501
1.000000 1.000000 0.276847
1.000000 1.000000 0.277313
1.000000 1.000000 0.277939
1.000000 1.000000 0.278779
1.000000 1.000000 0.279903
1.000000 1.000000 0.281400
1.000000 1.000000 0.283388
1.000000 1.000000 0.282322
1.000000 1.000000 0.260511
1.000000 1.000000 0.229389
1.000000 1.000000 0.256229
1.000000 0.501763 0.285946
1.000000 0.193498 1.000000
1.000000 0.263970 1.000000
1.000000 0.352733 1.000000
1.000000 0.465597 1.000000
1.000000 0.609664 1.000000
1.000000 1.000000 0.359135
1.000000 1.000000 0.359153
1.000000 1.000000 0.359169
1.000000 1.000000 0.359187
1.000000 1.000000 0.359203
1.000000 1.000000 0.359221
1.000000 1.000000 0.359243
1.000000 1.000000 0.359271
1.000000 1.000000 0.359310
1.000000 1.000000 0.359364
1.000000 1.000000 0.359437
1.000000 1.000000 0.359535
1.000000 1.000000 0.359669
1.000000 1.000000 0.359849
1.000000 1.000000 0.360094
1.000000 1.000000 0.360424
1.000000 1.000000 0.360869
1.000000 1.000000 0.361467
1.000000 1.000000 0.362272
1.000000 1.000000 0.363352
1.000000 1.000000 0.364795
1.000000 1.000000 0.366719
1.000000 1.000000 0.369273
1.000000 1.000000 0.367919
1.000000 1.000000 0.339890
1.000000 1.000000 0.299917
1.000000 1.000000 0.334113
1.000000 0.647231 0.372040
1.000000 0.251610 1.000000
1.000000 0.341963 1.000000
1.000000 0.455809 1.000000
1.000000 0.600616 1.000000
1.000000 1.000000 0.466288
1.000000 1.000000 0.466305
1.000000 1.000000 0.466320
1.000000 1.000000 0.466337
1.000000 1.000000 0.466352
1.000000 1.000000 0.466369
1.000000 1.000000 0.466390
1.000000 1.000000 0.466416
1.000000 1.000000 0.466454
1.000000 1.000000 0.466505
1.000000 1.000000 0.466574
1.000000 1.000000 0.466668
1.000000 1.000000 0.466794
1.000000 1.000000 0.466966
1.000000 1.000000 0.467198
1.000000 1.000000 0.467513
1.000000 1.000000 0.467937
1.000000 1.000000 0.468508
1.000000 1.000000 0.469278
1.000000 1.000000 0.470313
1.000000 1.000000 0.471700
1.000000 1.000000 0.473555
1.000000 1.000000 0.476025
1.000000 1.000000 0.479307
1.000000 1.000000 0.477568
1.000000 1.000000 0.441564
1.000000 1.000000 0.390222
1.000000 1.000000 0.433889
1.000000 0.833949 0.482383
1.000000 0.326089 1.000000
1.000000 0.441975 1.000000
1.000000 0.588043 1.000000
1.000000 1.000000 0.603657
1.000000 1.000000 0.603673
1.000000 1.000000 0.603687
1.000000 1.000000 0.603703
1.000000 1.000000 0.603718
1.000000 1.000000 0.603734
1.000000 1.000000 0.603754
1.000000 1.000000 0.603779
1.000000 1.000000 0.603814
1.000000 1.000000 0.603863
1.000000 1.000000 0.603929
1.000000 1.000000 0.604017
1.000000 1.000000 0.604138
1.000000 1.000000 0.604301
1.000000 1.000000 0.604522
1.000000 1.000000 0.604821
1.000000 1.000000 0.605225
1.000000 1.000000 0.605769
