TestProjects/HDRP_DXR_PerformanceTests/Assets/Common/Luts/LutTest.cube
#Created by: Adobe Photoshop Export Color Lookup Plugin
TITLE "Frame.exr"
#LUT size
LUT_3D_SIZE 5
#data domain
#LUT data points
DOMAIN_MIN 0.000000 0.000000 0.000000
DOMAIN_MAX 0.903226 0.903226 0.903226
0.000000 0.000000 0.000000
0.027398 0.000000 0.010032
0.181760 0.000000 0.153521
1.000000 0.039788 0.953715
1.000000 0.294200 1.000000
0.010566 0.028037 0.000000
0.031891 0.008704 0.000000
0.187310 0.000000 0.113072
1.000000 0.039505 0.926868
1.000000 0.294005 1.000000
0.107375 0.199736 0.000000
0.134439 0.199637 0.000000
0.203334 0.112171 0.000000
1.000000 0.037732 0.758671
1.000000 0.292809 1.000000
0.642628 1.000000 0.118887
0.661494 1.000000 0.119054
0.774713 1.000000 0.120055
1.000000 0.690986 0.097111
1.000000 0.282547 1.000000
1.000000 1.000000 0.779872
1.000000 1.000000 0.779988
1.000000 1.000000 0.780693
1.000000 1.000000 0.786504
1.000000 1.000000 0.654364
0.000000 0.007979 0.040753
0.003845 0.000000 0.039656
0.176509 0.000000 0.191803
1.000000 0.040069 0.980401
1.000000 0.294395 1.000000
0.000000 0.028526 0.014342
0.023282 0.029389 0.043381
0.178786 0.034551 0.176766
1.000000 0.072754 0.969841
1.000000 0.317270 1.000000
0.078780 0.199842 0.000000
0.113133 0.200856 0.059777
0.194715 0.126333 0.056488
1.000000 0.070999 0.803386
1.000000 0.316076 1.000000
0.623649 1.000000 0.118719
0.646334 1.000000 0.165921
0.759830 1.000000 0.166925
1.000000 0.700784 0.144541
1.000000 0.305826 1.000000
1.000000 1.000000 0.779756
1.000000 1.000000 0.812788
1.000000 1.000000 0.813494
1.000000 1.000000 0.819307
1.000000 1.000000 0.687555
0.000000 0.109624 0.292083
0.000000 0.081338 0.290558
0.075200 0.000000 0.286807
1.000000 0.041757 1.000000
1.000000 0.295584 1.000000
0.000000 0.136395 0.293526
0.000000 0.123998 0.293972
0.088113 0.036029 0.290080
1.000000 0.074446 1.000000
1.000000 0.318459 1.000000
0.000000 0.202065 0.172422
0.006289 0.202586 0.192128
0.163274 0.206097 0.304218
1.000000 0.235026 1.000000
1.000000 0.451336 1.000000
0.504742 1.000000 0.117667
0.528659 1.000000 0.164880
0.676076 1.000000 0.397322
1.000000 0.759597 0.378347
1.000000 0.441163 1.000000
1.000000 1.000000 0.779047
1.000000 1.000000 0.812079
1.000000 1.000000 1.000000
1.000000 1.000000 1.000000
1.000000 1.000000 0.880492
0.000000 0.675984 1.000000
0.000000 0.657210 1.000000
0.000000 0.539588 1.000000
0.469270 0.049580 1.000000
1.000000 0.305375 1.000000
0.000000 0.694646 1.000000
0.000000 0.685905 1.000000
0.000000 0.569501 1.000000
0.478166 0.082366 1.000000
1.000000 0.328254 1.000000
0.000000 0.806642 1.000000
0.000000 0.798176 1.000000
0.000000 0.746096 1.000000
0.532582 0.243551 1.000000
1.000000 0.461148 1.000000
0.000000 1.000000 1.000000
0.000000 1.000000 1.000000
0.065661 1.000000 1.000000
0.966266 1.000000 1.000000
1.000000 1.000000 1.000000
1.000000 1.000000 0.772956
1.000000 1.000000 0.805996
1.000000 1.000000 0.998011
1.000000 1.000000 1.000000
1.000000 1.000000 1.000000
0.000000 1.000000 1.000000
0.000000 1.000000 1.000000
0.000000 1.000000 1.000000
0.000000 1.000000 1.000000
1.000000 0.350635 1.000000
0.000000 1.000000 1.000000
0.000000 1.000000 1.000000
0.000000 1.000000 1.000000
0.000000 1.000000 1.000000
1.000000 0.373581 1.000000
0.000000 1.000000 1.000000
0.000000 1.000000 1.000000
0.000000 1.000000 1.000000
0.000000 1.000000 1.000000
1.000000 0.506888 1.000000
0.000000 1.000000 1.000000
0.000000 1.000000 1.000000
0.000000 1.000000 1.000000
0.000000 1.000000 1.000000
1.000000 1.000000 1.000000
0.000000 1.000000 1.000000
0.000000 1.000000 1.000000
0.000000 1.000000 1.000000
0.402727 1.000000 1.000000
1.000000 1.000000 1.000000
